; G-Code generated by Simplify3D(R) Version 4.0.0
; Aug 5, 2019 at 9:36:44 PM
; Settings Summary
;   processName,Process1
;   applyToModels,Sensor_holder_v1
;   profileName,Default
;   profileVersion,2017-03-01 08:00:00
;   baseProfile,
;   printMaterial,PLA
;   printQuality,Medium
;   printExtruders,
;   extruderName,Primary Extruder
;   extruderToolheadNumber,0
;   extruderDiameter,0.35
;   extruderAutoWidth,0
;   extruderWidth,0.4
;   extrusionMultiplier,0.9
;   extruderUseRetract,1
;   extruderRetractionDistance,1
;   extruderExtraRestartDistance,0
;   extruderRetractionZLift,0
;   extruderRetractionSpeed,1800
;   extruderUseCoasting,0
;   extruderCoastingDistance,0.2
;   extruderUseWipe,0
;   extruderWipeDistance,5
;   primaryExtruder,0
;   layerHeight,0.2
;   topSolidLayers,3
;   bottomSolidLayers,3
;   perimeterOutlines,2
;   printPerimetersInsideOut,1
;   startPointOption,2
;   startPointOriginX,0
;   startPointOriginY,0
;   sequentialIslands,0
;   spiralVaseMode,0
;   firstLayerHeightPercentage,90
;   firstLayerWidthPercentage,100
;   firstLayerUnderspeed,0.5
;   useRaft,0
;   raftExtruder,0
;   raftTopLayers,3
;   raftBaseLayers,2
;   raftOffset,3
;   raftSeparationDistance,0.14
;   raftTopInfill,100
;   aboveRaftSpeedMultiplier,0.3
;   useSkirt,1
;   skirtExtruder,0
;   skirtLayers,1
;   skirtOutlines,2
;   skirtOffset,4
;   usePrimePillar,0
;   primePillarExtruder,999
;   primePillarWidth,12
;   primePillarLocation,7
;   primePillarSpeedMultiplier,1
;   useOozeShield,0
;   oozeShieldExtruder,999
;   oozeShieldOffset,2
;   oozeShieldOutlines,1
;   oozeShieldSidewallShape,1
;   oozeShieldSidewallAngle,30
;   oozeShieldSpeedMultiplier,1
;   infillExtruder,0
;   internalInfillPattern,Rectilinear
;   externalInfillPattern,Rectilinear
;   infillPercentage,20
;   outlineOverlapPercentage,15
;   infillExtrusionWidthPercentage,100
;   minInfillLength,5
;   infillLayerInterval,1
;   internalInfillAngles,45,-45
;   overlapInternalInfillAngles,0
;   externalInfillAngles,45,-45
;   generateSupport,0
;   supportExtruder,0
;   supportInfillPercentage,30
;   supportExtraInflation,0
;   supportBaseLayers,0
;   denseSupportExtruder,0
;   denseSupportLayers,0
;   denseSupportInfillPercentage,70
;   supportLayerInterval,1
;   supportHorizontalPartOffset,0.3
;   supportUpperSeparationLayers,1
;   supportLowerSeparationLayers,1
;   supportType,0
;   supportGridSpacing,4
;   maxOverhangAngle,45
;   supportAngles,0
;   temperatureName,Primary Extruder
;   temperatureNumber,0
;   temperatureSetpointCount,1
;   temperatureSetpointLayers,1
;   temperatureSetpointTemperatures,190
;   temperatureStabilizeAtStartup,1
;   temperatureHeatedBed,0
;   temperatureRelayBetweenLayers,0
;   temperatureRelayBetweenLoops,0
;   fanLayers,1,2
;   fanSpeeds,0,100
;   blipFanToFullPower,0
;   adjustSpeedForCooling,1
;   minSpeedLayerTime,15
;   minCoolingSpeedSlowdown,20
;   increaseFanForCooling,0
;   minFanLayerTime,45
;   maxCoolingFanSpeed,100
;   increaseFanForBridging,0
;   bridgingFanSpeed,100
;   use5D,1
;   relativeEdistances,0
;   allowEaxisZeroing,1
;   independentExtruderAxes,0
;   includeM10123,0
;   stickySupport,1
;   applyToolheadOffsets,0
;   gcodeXoffset,0
;   gcodeYoffset,0
;   gcodeZoffset,0
;   overrideMachineDefinition,0
;   machineTypeOverride,0
;   strokeXoverride,200
;   strokeYoverride,200
;   strokeZoverride,200
;   originOffsetXoverride,0
;   originOffsetYoverride,0
;   originOffsetZoverride,0
;   homeXdirOverride,-1
;   homeYdirOverride,-1
;   homeZdirOverride,-1
;   flipXoverride,1
;   flipYoverride,-1
;   flipZoverride,1
;   toolheadOffsets,0,0|0,0|0,0|0,0|0,0|0,0
;   overrideFirmwareConfiguration,0
;   firmwareTypeOverride,RepRap (Marlin/Repetier/Sprinter)
;   GPXconfigOverride,r2
;   baudRateOverride,115200
;   overridePrinterModels,0
;   printerModelsOverride
;   startingGcode,G28 ; home all axes
;   layerChangeGcode,
;   retractionGcode,
;   toolChangeGcode,
;   endingGcode,M104 S0 ; turn off extruder,M140 S0 ; turn off bed,M84 ; disable motors
;   exportFileFormat,gcode
;   celebration,0
;   celebrationSong,Random Song
;   postProcessing,
;   defaultSpeed,3600
;   outlineUnderspeed,0.5
;   solidInfillUnderspeed,0.8
;   supportUnderspeed,0.8
;   rapidXYspeed,4800
;   rapidZspeed,1000
;   minBridgingArea,50
;   bridgingExtraInflation,0
;   bridgingExtrusionMultiplier,1
;   bridgingSpeedMultiplier,1
;   useFixedBridgingAngle,0
;   fixedBridgingAngle,0
;   applyBridgingToPerimeters,0
;   filamentDiameters,1.75|1.75|1.75|1.75|1.75|1.75
;   filamentPricesPerKg,46|46|46|46|46|46
;   filamentDensities,1.25|1.25|1.25|1.25|1.25|1.25
;   useMinPrintHeight,0
;   minPrintHeight,0
;   useMaxPrintHeight,0
;   maxPrintHeight,0
;   useDiaphragm,0
;   diaphragmLayerInterval,20
;   robustSlicing,1
;   mergeAllIntoSolid,0
;   onlyRetractWhenCrossingOutline,1
;   retractBetweenLayers,1
;   useRetractionMinTravel,0
;   retractionMinTravel,3
;   retractWhileWiping,0
;   onlyWipeOutlines,1
;   avoidCrossingOutline,0
;   maxMovementDetourFactor,3
;   toolChangeRetractionDistance,12
;   toolChangeExtraRestartDistance,-0.5
;   toolChangeRetractionSpeed,600
;   externalThinWallType,0
;   internalThinWallType,2
;   thinWallAllowedOverlapPercentage,10
;   singleExtrusionMinLength,1
;   singleExtrusionMinPrintingWidthPercentage,50
;   singleExtrusionMaxPrintingWidthPercentage,200
;   singleExtrusionEndpointExtension,0.2
;   horizontalSizeCompensation,0
G90
M82
M106 S0
M104 S190 T0
M109 S190 T0
G28 ; home all axes
G92 E0
G1 E-1.0000 F1800
G1 Z0.180 F1000
; process Process1
; layer 1, Z = 0.180
T0
; tool H0.200 W0.400
; skirt
G1 X88.791 Y86.650 F4800
G1 E0.0000 F540
G92 E0
G1 X88.801 Y86.640 E0.0004 F1800
G1 X89.636 Y85.841 E0.0350
G1 X89.644 Y85.834 E0.0353
G1 X89.751 Y85.738 E0.0396
G1 X89.759 Y85.731 E0.0399
G1 X90.249 Y85.322 E0.0591
G1 X90.257 Y85.316 E0.0594
G1 X90.371 Y85.227 E0.0637
G1 X90.379 Y85.221 E0.0640
G1 X91.314 Y84.541 E0.0986
G1 X91.325 Y84.534 E0.0990
G1 X91.487 Y84.427 E0.1048
G1 X91.498 Y84.420 E0.1052
G1 X92.490 Y83.827 E0.1398
G1 X92.499 Y83.822 E0.1401
G1 X92.626 Y83.752 E0.1444
G1 X92.635 Y83.748 E0.1447
G1 X93.203 Y83.458 E0.1638
G1 X93.213 Y83.453 E0.1641
G1 X93.344 Y83.392 E0.1685
G1 X93.353 Y83.388 E0.1688
G1 X94.416 Y82.934 E0.2034
G1 X94.428 Y82.929 E0.2038
G1 X94.609 Y82.861 E0.2095
G1 X94.622 Y82.856 E0.2099
G1 X95.721 Y82.499 E0.2445
G1 X95.731 Y82.496 E0.2448
G1 X95.870 Y82.456 E0.2492
G1 X95.879 Y82.454 E0.2495
G1 X96.498 Y82.298 E0.2686
G1 X96.508 Y82.295 E0.2689
G1 X96.650 Y82.265 E0.2732
G1 X96.660 Y82.263 E0.2735
G1 X97.797 Y82.056 E0.3081
G1 X97.810 Y82.054 E0.3085
G1 X98.002 Y82.028 E0.3143
G1 X98.015 Y82.027 E0.3147
G1 X99.166 Y81.923 E0.3493
G1 X99.176 Y81.922 E0.3496
G1 X99.321 Y81.914 E0.3540
G1 X99.331 Y81.914 E0.3543
G1 X99.945 Y81.900 E0.3726
G1 X99.952 Y81.900 E0.3728
G1 X100.048 Y81.900 E0.3757
G1 X100.055 Y81.900 E0.3759
G1 X100.669 Y81.914 E0.3943
G1 X100.679 Y81.914 E0.3946
G1 X100.824 Y81.922 E0.3990
G1 X100.834 Y81.923 E0.3993
G1 X101.961 Y82.025 E0.4331
G1 X101.971 Y82.026 E0.4334
G1 X102.115 Y82.043 E0.4378
G1 X102.125 Y82.045 E0.4381
G1 X102.731 Y82.141 E0.4565
G1 X102.738 Y82.142 E0.4567
G1 X102.833 Y82.159 E0.4596
G1 X102.840 Y82.161 E0.4598
G1 X103.441 Y82.284 E0.4781
G1 X103.451 Y82.286 E0.4784
G1 X103.592 Y82.320 E0.4828
G1 X103.602 Y82.322 E0.4831
G1 X104.716 Y82.630 E0.5177
G1 X104.729 Y82.634 E0.5181
G1 X104.912 Y82.693 E0.5239
G1 X104.925 Y82.698 E0.5243
G1 X106.030 Y83.112 E0.5596
G1 X106.042 Y83.117 E0.5600
G1 X106.220 Y83.193 E0.5658
G1 X106.232 Y83.199 E0.5662
G1 X107.295 Y83.711 E0.6015
G1 X107.307 Y83.717 E0.6019
G1 X107.477 Y83.808 E0.6077
G1 X107.489 Y83.815 E0.6081
G1 X108.481 Y84.408 E0.6427
G1 X108.490 Y84.413 E0.6430
G1 X108.612 Y84.492 E0.6473
G1 X108.620 Y84.497 E0.6476
G1 X109.125 Y84.847 E0.6660
G1 X109.130 Y84.851 E0.6662
G1 X109.208 Y84.908 E0.6691
G1 X109.214 Y84.912 E0.6693
G1 X109.703 Y85.284 E0.6877
G1 X109.711 Y85.291 E0.6880
G1 X109.824 Y85.383 E0.6924
G1 X109.832 Y85.389 E0.6927
G1 X110.709 Y86.156 E0.7276
G1 X110.719 Y86.166 E0.7280
G1 X110.858 Y86.298 E0.7337
G1 X110.867 Y86.308 E0.7341
G1 X111.659 Y87.137 E0.7684
G1 X111.666 Y87.144 E0.7687
G1 X111.762 Y87.252 E0.7730
G1 X111.769 Y87.259 E0.7733
G1 X112.178 Y87.749 E0.7925
G1 X112.184 Y87.757 E0.7928
G1 X112.273 Y87.871 E0.7971
G1 X112.279 Y87.879 E0.7974
G1 X112.959 Y88.814 E0.8320
G1 X112.966 Y88.825 E0.8324
G1 X113.072 Y88.987 E0.8382
G1 X113.080 Y88.998 E0.8386
G1 X113.685 Y90.011 E0.8739
G1 X113.692 Y90.023 E0.8743
G1 X113.783 Y90.193 E0.8801
G1 X113.789 Y90.205 E0.8805
G1 X114.291 Y91.246 E0.9151
G1 X114.295 Y91.255 E0.9154
G1 X114.353 Y91.388 E0.9197
G1 X114.357 Y91.397 E0.9200
G1 X114.586 Y91.967 E0.9384
G1 X114.588 Y91.973 E0.9386
G1 X114.622 Y92.064 E0.9415
G1 X114.624 Y92.070 E0.9417
G1 X114.827 Y92.650 E0.9601
G1 X114.831 Y92.659 E0.9604
G1 X114.874 Y92.798 E0.9647
G1 X114.877 Y92.807 E0.9650
G1 X115.184 Y93.921 E0.9996
G1 X115.187 Y93.935 E1.0000
G1 X115.230 Y94.123 E1.0058
G1 X115.233 Y94.136 E1.0062
G1 X115.444 Y95.297 E1.0415
G1 X115.446 Y95.310 E1.0419
G1 X115.472 Y95.502 E1.0477
G1 X115.473 Y95.515 E1.0481
G1 X115.579 Y96.690 E1.0834
G1 X115.580 Y96.703 E1.0838
G1 X115.589 Y96.894 E1.0896
G1 X115.589 Y96.908 E1.0900
G1 X115.601 Y115.274 E1.6397
G1 X115.510 Y115.495 E1.6469
G1 X112.998 Y118.009 E1.7533
G1 X112.777 Y118.100 E1.7604
G1 X87.223 Y118.100 E2.5254
G1 X87.002 Y118.009 E2.5325
G1 X84.490 Y115.495 E2.6389
G1 X84.399 Y115.274 E2.6460
G1 X84.411 Y96.908 E3.1958
G1 X84.411 Y96.894 E3.1962
G1 X84.420 Y96.703 E3.2020
G1 X84.421 Y96.690 E3.2024
G1 X84.527 Y95.515 E3.2377
G1 X84.528 Y95.502 E3.2381
G1 X84.554 Y95.310 E3.2438
G1 X84.556 Y95.297 E3.2442
G1 X84.767 Y94.136 E3.2796
G1 X84.770 Y94.123 E3.2800
G1 X84.813 Y93.935 E3.2857
G1 X84.816 Y93.922 E3.2862
G1 X85.130 Y92.784 E3.3215
G1 X85.134 Y92.771 E3.3219
G1 X85.193 Y92.588 E3.3277
G1 X85.198 Y92.575 E3.3281
G1 X85.612 Y91.470 E3.3634
G1 X85.617 Y91.458 E3.3638
G1 X85.693 Y91.280 E3.3696
G1 X85.699 Y91.268 E3.3700
G1 X86.200 Y90.226 E3.4046
G1 X86.205 Y90.217 E3.4049
G1 X86.272 Y90.089 E3.4092
G1 X86.277 Y90.080 E3.4095
G1 X86.580 Y89.546 E3.4279
G1 X86.583 Y89.540 E3.4281
G1 X86.633 Y89.457 E3.4310
G1 X86.636 Y89.452 E3.4312
G1 X86.963 Y88.931 E3.4496
G1 X86.969 Y88.923 E3.4499
G1 X87.050 Y88.803 E3.4542
G1 X87.056 Y88.795 E3.4545
G1 X87.735 Y87.860 E3.4891
G1 X87.743 Y87.849 E3.4895
G1 X87.864 Y87.698 E3.4953
G1 X87.872 Y87.688 E3.4957
G1 X88.649 Y86.799 E3.5310
G1 X88.658 Y86.789 E3.5314
G1 X88.791 Y86.650 E3.5372
G1 X89.077 Y86.929 F4800
G92 E0
G1 X89.080 Y86.926 E0.0001 F1800
G1 X89.910 Y86.133 E0.0345
G1 X89.913 Y86.130 E0.0346
G1 X90.015 Y86.039 E0.0387
G1 X90.018 Y86.036 E0.0388
G1 X90.503 Y85.632 E0.0577
G1 X90.505 Y85.629 E0.0578
G1 X90.614 Y85.545 E0.0620
G1 X90.617 Y85.543 E0.0621
G1 X91.546 Y84.868 E0.0964
G1 X91.550 Y84.865 E0.0966
G1 X91.703 Y84.764 E0.1021
G1 X91.707 Y84.761 E0.1022
G1 X92.692 Y84.173 E0.1366
G1 X92.695 Y84.171 E0.1367
G1 X92.816 Y84.104 E0.1408
G1 X92.819 Y84.103 E0.1409
G1 X93.382 Y83.816 E0.1598
G1 X93.385 Y83.814 E0.1599
G1 X93.510 Y83.756 E0.1641
G1 X93.513 Y83.754 E0.1642
G1 X94.569 Y83.303 E0.1985
G1 X94.573 Y83.302 E0.1987
G1 X94.745 Y83.237 E0.2042
G1 X94.749 Y83.235 E0.2043
G1 X95.841 Y82.881 E0.2387
G1 X95.845 Y82.880 E0.2388
G1 X95.977 Y82.841 E0.2429
G1 X95.980 Y82.841 E0.2430
G1 X96.593 Y82.686 E0.2619
G1 X96.596 Y82.685 E0.2620
G1 X96.731 Y82.656 E0.2661
G1 X96.734 Y82.656 E0.2662
G1 X97.864 Y82.451 E0.3006
G1 X97.868 Y82.450 E0.3007
G1 X98.051 Y82.425 E0.3063
G1 X98.055 Y82.425 E0.3064
G1 X99.199 Y82.322 E0.3408
G1 X99.202 Y82.322 E0.3409
G1 X99.340 Y82.314 E0.3450
G1 X99.343 Y82.314 E0.3451
G1 X99.952 Y82.300 E0.3633
G1 X99.954 Y82.300 E0.3634
G1 X100.046 Y82.300 E0.3661
G1 X100.048 Y82.300 E0.3662
G1 X100.657 Y82.314 E0.3844
G1 X100.660 Y82.314 E0.3845
G1 X100.798 Y82.322 E0.3886
G1 X100.801 Y82.322 E0.3887
G1 X101.922 Y82.423 E0.4224
G1 X101.925 Y82.423 E0.4225
G1 X102.062 Y82.440 E0.4267
G1 X102.065 Y82.440 E0.4268
G1 X102.667 Y82.536 E0.4450
G1 X102.669 Y82.536 E0.4450
G1 X102.759 Y82.552 E0.4478
G1 X102.761 Y82.553 E0.4479
G1 X103.358 Y82.675 E0.4661
G1 X103.361 Y82.676 E0.4662
G1 X103.495 Y82.708 E0.4703
G1 X103.499 Y82.709 E0.4704
G1 X104.605 Y83.014 E0.5048
G1 X104.610 Y83.016 E0.5049
G1 X104.785 Y83.072 E0.5104
G1 X104.789 Y83.074 E0.5106
G1 X105.885 Y83.485 E0.5456
G1 X105.889 Y83.487 E0.5457
G1 X106.059 Y83.559 E0.5513
G1 X106.063 Y83.561 E0.5514
G1 X107.118 Y84.069 E0.5864
G1 X107.122 Y84.071 E0.5866
G1 X107.284 Y84.159 E0.5921
G1 X107.288 Y84.161 E0.5922
G1 X108.273 Y84.750 E0.6266
G1 X108.276 Y84.751 E0.6267
G1 X108.392 Y84.826 E0.6308
G1 X108.395 Y84.828 E0.6309
G1 X108.895 Y85.175 E0.6491
G1 X108.897 Y85.176 E0.6492
G1 X108.972 Y85.230 E0.6520
G1 X108.973 Y85.231 E0.6520
G1 X109.458 Y85.600 E0.6703
G1 X109.461 Y85.603 E0.6704
G1 X109.569 Y85.691 E0.6745
G1 X109.571 Y85.693 E0.6746
G1 X110.442 Y86.455 E0.7093
G1 X110.445 Y86.458 E0.7094
G1 X110.578 Y86.584 E0.7149
G1 X110.581 Y86.587 E0.7150
G1 X111.368 Y87.411 E0.7491
G1 X111.370 Y87.413 E0.7492
G1 X111.462 Y87.516 E0.7533
G1 X111.464 Y87.518 E0.7534
G1 X111.868 Y88.003 E0.7723
G1 X111.871 Y88.005 E0.7724
G1 X111.955 Y88.114 E0.7766
G1 X111.957 Y88.117 E0.7767
G1 X112.632 Y89.046 E0.8110
G1 X112.635 Y89.050 E0.8112
G1 X112.736 Y89.203 E0.8167
G1 X112.739 Y89.207 E0.8168
G1 X113.339 Y90.212 E0.8519
G1 X113.341 Y90.216 E0.8520
G1 X113.429 Y90.378 E0.8575
G1 X113.431 Y90.382 E0.8576
G1 X113.929 Y91.417 E0.8920
G1 X113.930 Y91.420 E0.8921
G1 X113.986 Y91.546 E0.8962
G1 X113.987 Y91.549 E0.8963
G1 X114.214 Y92.114 E0.9146
G1 X114.215 Y92.116 E0.9146
G1 X114.247 Y92.202 E0.9174
G1 X114.248 Y92.204 E0.9174
G1 X114.449 Y92.779 E0.9357
G1 X114.450 Y92.782 E0.9358
G1 X114.491 Y92.914 E0.9399
G1 X114.492 Y92.917 E0.9400
G1 X114.797 Y94.024 E0.9744
G1 X114.798 Y94.028 E0.9745
G1 X114.839 Y94.207 E0.9800
G1 X114.840 Y94.212 E0.9801
G1 X115.049 Y95.364 E1.0152
G1 X115.050 Y95.368 E1.0153
G1 X115.075 Y95.551 E1.0208
G1 X115.075 Y95.555 E1.0210
G1 X115.180 Y96.721 E1.0560
G1 X115.181 Y96.725 E1.0561
G1 X115.189 Y96.908 E1.0616
G1 X115.189 Y96.912 E1.0617
G1 X115.201 Y115.195 E1.6090
G1 X115.171 Y115.268 E1.6114
G1 X112.771 Y117.670 E1.7130
G1 X112.697 Y117.700 E1.7154
G1 X87.303 Y117.700 E2.4756
G1 X87.229 Y117.670 E2.4780
G1 X84.829 Y115.268 E2.5796
G1 X84.799 Y115.195 E2.5820
G1 X84.811 Y96.912 E3.1292
G1 X84.811 Y96.908 E3.1294
G1 X84.820 Y96.725 E3.1348
G1 X84.820 Y96.721 E3.1350
G1 X84.925 Y95.555 E3.1700
G1 X84.925 Y95.551 E3.1701
G1 X84.950 Y95.368 E3.1756
G1 X84.951 Y95.364 E3.1758
G1 X85.160 Y94.212 E3.2108
G1 X85.161 Y94.207 E3.2110
G1 X85.202 Y94.028 E3.2165
G1 X85.203 Y94.024 E3.2166
G1 X85.514 Y92.895 E3.2517
G1 X85.516 Y92.890 E3.2518
G1 X85.572 Y92.715 E3.2573
G1 X85.574 Y92.711 E3.2574
G1 X85.985 Y91.615 E3.2925
G1 X85.987 Y91.611 E3.2926
G1 X86.059 Y91.441 E3.2981
G1 X86.061 Y91.437 E3.2983
G1 X86.559 Y90.403 E3.3326
G1 X86.561 Y90.400 E3.3327
G1 X86.625 Y90.278 E3.3369
G1 X86.626 Y90.275 E3.3370
G1 X86.927 Y89.745 E3.3552
G1 X86.928 Y89.743 E3.3553
G1 X86.975 Y89.664 E3.3580
G1 X86.976 Y89.662 E3.3581
G1 X87.300 Y89.147 E3.3763
G1 X87.302 Y89.144 E3.3764
G1 X87.379 Y89.030 E3.3805
G1 X87.381 Y89.027 E3.3806
G1 X88.056 Y88.098 E3.4150
G1 X88.059 Y88.095 E3.4151
G1 X88.174 Y87.951 E3.4206
G1 X88.176 Y87.948 E3.4208
G1 X88.947 Y87.066 E3.4558
G1 X88.950 Y87.062 E3.4560
G1 X89.077 Y86.929 E3.4615
G92 E0
G1 E-1.0000 F1800
