;FLAVOR:Marlin
;TIME:1650
;Filament used: 1.45967m
;Layer height: 0.2
;MINX:18.764
;MINY:9.057
;MINZ:0.3
;MAXX:48.764
;MAXY:44.04
;MAXZ:29.9
;Generated with Cura_SteamEngine 4.1.0
M140 S60
M105
M190 S60
M104 S200
M105
M109 S200
M82 ;absolute extrusion mode
G28 ;Home
G1 Z15.0 F6000 ;Move the platform down 15mm
;Prime the extruder
G92 E0
G1 F200 E3
G92 E0
G92 E0
G92 E0
G1 F1500 E-6.5
;LAYER_COUNT:149
;LAYER:0
M107
G0 F3600 X21.624 Y15.258 Z0.3
;TYPE:SKIRT
G1 F1500 E0
G1 F1800 X22.119 Y14.611 E0.04064
G1 X22.283 Y14.412 E0.05351
G1 X22.695 Y13.94 E0.08476
G1 X22.889 Y13.732 E0.09896
G1 X23.5 Y13.125 E0.14192
G1 X23.678 Y12.959 E0.15407
G1 X24.175 Y12.522 E0.18708
G1 X24.342 Y12.383 E0.19792
G1 X24.69 Y12.109 E0.22002
G1 X24.864 Y11.979 E0.23086
G1 X25.224 Y11.726 E0.25281
G1 X25.331 Y11.654 E0.25924
G1 X25.749 Y11.38 E0.28418
G1 X25.972 Y11.244 E0.29721
G1 X26.806 Y10.772 E0.34502
G1 X27.045 Y10.647 E0.35848
G1 X27.522 Y10.418 E0.38487
G1 X27.769 Y10.31 E0.39832
G1 X28.64 Y9.962 E0.44512
G1 X28.885 Y9.873 E0.45812
G1 X29.502 Y9.672 E0.4905
G1 X29.71 Y9.61 E0.50133
G1 X30.115 Y9.502 E0.52224
G1 X30.304 Y9.457 E0.53193
G1 X30.745 Y9.362 E0.55444
G1 X30.893 Y9.333 E0.56196
G1 X31.387 Y9.246 E0.58699
G1 X31.637 Y9.21 E0.59959
G1 X32.568 Y9.106 E0.64632
G1 X32.829 Y9.085 E0.65939
G1 X33.375 Y9.06 E0.68666
G1 X33.656 Y9.057 E0.70068
G1 X34.557 Y9.079 E0.74564
G1 X34.828 Y9.095 E0.75918
G1 X35.497 Y9.157 E0.7927
G1 X35.757 Y9.19 E0.80578
G1 X36.511 Y9.31 E0.84387
G1 X36.789 Y9.364 E0.858
G1 X37.489 Y9.527 E0.89386
G1 X37.744 Y9.596 E0.90703
G1 X38.462 Y9.814 E0.94447
G1 X38.716 Y9.9 E0.95785
G1 X39.411 Y10.163 E0.99492
G1 X39.656 Y10.265 E1.00816
G1 X40.322 Y10.569 E1.04469
G1 X40.553 Y10.684 E1.05756
G1 X41.136 Y10.997 E1.09057
G1 X41.376 Y11.137 E1.10444
G1 X42.138 Y11.617 E1.14937
G1 X42.36 Y11.767 E1.16273
G1 X42.933 Y12.184 E1.19809
G1 X43.127 Y12.335 E1.21035
G1 X43.415 Y12.573 E1.22899
G1 X43.572 Y12.709 E1.23936
G1 X44.17 Y13.258 E1.27986
G1 X44.278 Y13.361 E1.2873
G1 X44.461 Y13.542 E1.30014
G1 X44.614 Y13.702 E1.31119
G1 X45.061 Y14.196 E1.34443
G1 X45.215 Y14.377 E1.35628
G1 X45.678 Y14.954 E1.39319
G1 X45.85 Y15.185 E1.40756
G1 X46.324 Y15.872 E1.4492
G1 X46.468 Y16.096 E1.46249
G1 X46.806 Y16.663 E1.49542
G1 X46.941 Y16.908 E1.50937
G1 X47.305 Y17.629 E1.54967
G1 X47.411 Y17.858 E1.56226
G1 X47.661 Y18.442 E1.59395
G1 X47.762 Y18.701 E1.60782
G1 X48.055 Y19.543 E1.6523
G1 X48.129 Y19.781 E1.66473
G1 X48.275 Y20.303 E1.69178
G1 X48.343 Y20.584 E1.7062
G1 X48.531 Y21.51 E1.75334
G1 X48.573 Y21.758 E1.76589
G1 X48.662 Y22.402 E1.79832
G1 X48.687 Y22.628 E1.80967
G1 X48.72 Y23.037 E1.83014
G1 X48.731 Y23.239 E1.84023
G1 X48.76 Y24.204 E1.8884
G1 X48.762 Y24.323 E1.89434
G1 X48.764 Y39.305 E2.64179
G1 X48.764 Y39.361 E2.64459
G1 X48.754 Y40.085 E2.68071
G1 X48.706 Y40.649 E2.70895
G1 X48.579 Y41.2 E2.73716
G1 X48.376 Y41.727 E2.76533
G1 X48.101 Y42.221 E2.79354
G1 X47.758 Y42.671 E2.82177
G1 X47.356 Y43.068 E2.84996
G1 X46.902 Y43.404 E2.87814
G1 X46.405 Y43.674 E2.90635
G1 X45.875 Y43.87 E2.93455
G1 X45.322 Y43.989 E2.96277
G1 X44.863 Y44.029 E2.98575
G1 X44.533 Y44.038 E3.00222
G1 X44.424 Y44.039 E3.00766
G1 X23.471 Y44.04 E4.05301
G1 X23.419 Y44.04 E4.05561
G1 X22.721 Y44.031 E4.09043
G1 X22.158 Y43.983 E4.11862
G1 X21.607 Y43.857 E4.14682
G1 X21.079 Y43.655 E4.17503
G1 X20.585 Y43.38 E4.20323
G1 X20.135 Y43.038 E4.23143
G1 X19.737 Y42.636 E4.25965
G1 X19.401 Y42.182 E4.28783
G1 X19.131 Y41.685 E4.31605
G1 X18.934 Y41.155 E4.34426
G1 X18.814 Y40.603 E4.37244
G1 X18.774 Y40.139 E4.39568
G1 X18.765 Y39.806 E4.4123
G1 X18.764 Y39.697 E4.41773
G1 X18.767 Y24.217 E5.19004
G1 X18.768 Y24.109 E5.19542
G1 X18.789 Y23.34 E5.2338
G1 X18.812 Y23.01 E5.25031
G1 X18.931 Y21.932 E5.30442
G1 X18.972 Y21.655 E5.31839
G1 X19.09 Y21.006 E5.3513
G1 X19.149 Y20.734 E5.36518
G1 X19.342 Y19.977 E5.40416
G1 X19.414 Y19.728 E5.41709
G1 X19.629 Y19.067 E5.45177
G1 X19.724 Y18.807 E5.46558
G1 X20.019 Y18.076 E5.5049
G1 X20.126 Y17.834 E5.5181
G1 X20.421 Y17.223 E5.55195
G1 X20.549 Y16.978 E5.56574
G1 X20.955 Y16.267 E5.60659
G1 X21.094 Y16.043 E5.61974
G1 X21.466 Y15.481 E5.65337
G1 X21.624 Y15.258 E5.667
G0 F3600 X21.942 Y15.502
G1 F1800 X22.437 Y14.855 E5.70765
G1 X22.584 Y14.675 E5.71924
G1 X22.996 Y14.203 E5.7505
G1 X23.171 Y14.016 E5.76328
G1 X23.782 Y13.409 E5.80624
G1 X23.942 Y13.259 E5.81719
G1 X24.439 Y12.822 E5.8502
G1 X24.589 Y12.698 E5.85991
G1 X24.937 Y12.424 E5.88201
G1 X25.094 Y12.307 E5.89178
G1 X25.454 Y12.054 E5.91373
G1 X25.55 Y11.988 E5.91954
G1 X25.968 Y11.714 E5.94448
G1 X26.169 Y11.592 E5.95621
G1 X27.003 Y11.12 E6.00402
G1 X27.218 Y11.008 E6.01611
G1 X27.695 Y10.779 E6.04251
G1 X27.917 Y10.681 E6.05462
G1 X28.788 Y10.333 E6.10141
G1 X29.009 Y10.253 E6.11314
G1 X29.626 Y10.052 E6.14551
G1 X29.813 Y9.997 E6.15524
G1 X30.218 Y9.889 E6.17615
G1 X30.388 Y9.848 E6.18487
G1 X30.829 Y9.753 E6.20738
G1 X30.963 Y9.727 E6.21419
G1 X31.457 Y9.64 E6.23921
G1 X31.681 Y9.607 E6.25051
G1 X32.612 Y9.503 E6.29725
G1 X32.847 Y9.485 E6.30901
G1 X33.393 Y9.46 E6.33627
G1 X33.646 Y9.457 E6.3489
G1 X34.547 Y9.479 E6.39386
G1 X34.791 Y9.493 E6.40606
G1 X35.46 Y9.555 E6.43957
G1 X35.694 Y9.585 E6.45134
G1 X36.448 Y9.705 E6.48944
G1 X36.698 Y9.754 E6.50215
G1 X37.398 Y9.917 E6.538
G1 X37.628 Y9.978 E6.54987
G1 X38.346 Y10.196 E6.58731
G1 X38.574 Y10.274 E6.59933
G1 X39.269 Y10.537 E6.63641
G1 X39.49 Y10.629 E6.64835
G1 X40.156 Y10.933 E6.68487
G1 X40.364 Y11.036 E6.69645
G1 X40.947 Y11.349 E6.72947
G1 X41.163 Y11.475 E6.74194
G1 X41.925 Y11.955 E6.78687
G1 X42.124 Y12.09 E6.79887
G1 X42.697 Y12.507 E6.83422
G1 X42.872 Y12.643 E6.84528
G1 X43.16 Y12.881 E6.86392
G1 X43.302 Y13.004 E6.87329
G1 X43.9 Y13.553 E6.91379
G1 X43.997 Y13.645 E6.92046
G1 X44.18 Y13.826 E6.93331
G1 X44.317 Y13.971 E6.94326
G1 X44.764 Y14.465 E6.9765
G1 X44.903 Y14.627 E6.98715
G1 X45.366 Y15.204 E7.02405
G1 X45.521 Y15.413 E7.03704
G1 X45.995 Y16.1 E7.07868
G1 X46.124 Y16.301 E7.09059
G1 X46.462 Y16.868 E7.12352
G1 X46.584 Y17.089 E7.13612
G1 X46.948 Y17.81 E7.17641
G1 X47.044 Y18.015 E7.18771
G1 X47.294 Y18.599 E7.2194
G1 X47.384 Y18.833 E7.23191
G1 X47.677 Y19.675 E7.27639
G1 X47.744 Y19.888 E7.28753
G1 X47.89 Y20.41 E7.31457
G1 X47.951 Y20.664 E7.3276
G1 X48.139 Y21.59 E7.37474
G1 X48.177 Y21.813 E7.38603
G1 X48.266 Y22.457 E7.41846
G1 X48.288 Y22.66 E7.42865
G1 X48.321 Y23.069 E7.44912
G1 X48.331 Y23.251 E7.45821
G1 X48.36 Y24.216 E7.50638
G1 X48.362 Y24.324 E7.51177
G1 X48.364 Y39.306 E8.25922
G1 X48.364 Y39.356 E8.26172
G1 X48.354 Y40.08 E8.29784
G1 X48.306 Y40.614 E8.32459
G1 X48.18 Y41.135 E8.35133
G1 X47.978 Y41.632 E8.3781
G1 X47.704 Y42.093 E8.40485
G1 X47.365 Y42.508 E8.43159
G1 X46.968 Y42.869 E8.45836
G1 X46.522 Y43.166 E8.48509
G1 X46.036 Y43.394 E8.51187
G1 X45.522 Y43.547 E8.53863
G1 X44.852 Y43.629 E8.57231
G1 X44.522 Y43.638 E8.58878
G1 X44.424 Y43.639 E8.59367
G1 X23.471 Y43.64 E9.63901
G1 X23.425 Y43.64 E9.64131
G1 X22.727 Y43.631 E9.67614
G1 X22.192 Y43.584 E9.70293
G1 X21.671 Y43.458 E9.72967
G1 X21.174 Y43.256 E9.75644
G1 X20.713 Y42.983 E9.78317
G1 X20.297 Y42.644 E9.80994
G1 X19.936 Y42.248 E9.83667
G1 X19.638 Y41.802 E9.86343
G1 X19.41 Y41.316 E9.89022
G1 X19.257 Y40.802 E9.91697
G1 X19.174 Y40.128 E9.95085
G1 X19.165 Y39.795 E9.96747
G1 X19.164 Y39.697 E9.97236
G1 X19.167 Y24.217 E10.74466
G1 X19.168 Y24.12 E10.7495
G1 X19.189 Y23.351 E10.78788
G1 X19.21 Y23.054 E10.80274
G1 X19.329 Y21.976 E10.85684
G1 X19.365 Y21.727 E10.8694
G1 X19.483 Y21.078 E10.9023
G1 X19.537 Y20.833 E10.91482
G1 X19.73 Y20.076 E10.9538
G1 X19.795 Y19.851 E10.96548
G1 X20.01 Y19.19 E11.00016
G1 X20.095 Y18.957 E11.01253
G1 X20.39 Y18.226 E11.05186
G1 X20.486 Y18.008 E11.06374
G1 X20.781 Y17.397 E11.09759
G1 X20.897 Y17.177 E11.11
G1 X21.303 Y16.466 E11.15085
G1 X21.427 Y16.264 E11.16267
G1 X21.799 Y15.702 E11.1963
G1 X21.942 Y15.502 E11.20857
G0 F3600 X22.26 Y15.745
G1 F1800 X22.755 Y15.098 E11.24921
G1 X22.885 Y14.938 E11.25949
G1 X23.297 Y14.466 E11.29075
G1 X23.453 Y14.3 E11.30211
G1 X24.064 Y13.693 E11.34508
G1 X24.206 Y13.56 E11.35479
G1 X24.703 Y13.123 E11.38781
G1 X24.836 Y13.012 E11.39645
G1 X25.184 Y12.738 E11.41855
G1 X25.324 Y12.634 E11.42725
G1 X25.684 Y12.381 E11.4492
G1 X25.77 Y12.323 E11.45438
G1 X26.188 Y12.049 E11.47931
G1 X26.366 Y11.94 E11.48972
G1 X27.2 Y11.468 E11.53753
G1 X27.391 Y11.368 E11.54829
G1 X27.868 Y11.139 E11.57469
G1 X28.066 Y11.052 E11.58548
G1 X28.937 Y10.704 E11.63227
G1 X29.133 Y10.633 E11.64267
G1 X29.75 Y10.432 E11.67505
G1 X29.916 Y10.383 E11.68368
G1 X30.321 Y10.275 E11.70459
G1 X30.472 Y10.239 E11.71234
G1 X30.913 Y10.144 E11.73484
G1 X31.032 Y10.121 E11.74089
G1 X31.526 Y10.034 E11.76592
G1 X31.726 Y10.005 E11.776
G1 X32.657 Y9.901 E11.82274
G1 X32.866 Y9.884 E11.8332
G1 X33.412 Y9.859 E11.86047
G1 X33.636 Y9.857 E11.87164
G1 X34.537 Y9.879 E11.91661
G1 X34.754 Y9.892 E11.92745
G1 X35.423 Y9.954 E11.96097
G1 X35.631 Y9.98 E11.97143
G1 X36.385 Y10.1 E12.00952
G1 X36.608 Y10.143 E12.02085
G1 X37.308 Y10.306 E12.05671
G1 X37.512 Y10.361 E12.06725
G1 X38.23 Y10.579 E12.10468
G1 X38.433 Y10.648 E12.11538
G1 X39.128 Y10.911 E12.15245
G1 X39.324 Y10.993 E12.16305
G1 X39.99 Y11.297 E12.19958
G1 X40.175 Y11.389 E12.20989
G1 X40.758 Y11.702 E12.2429
G1 X40.95 Y11.813 E12.25396
G1 X41.712 Y12.293 E12.29889
G1 X41.889 Y12.414 E12.30959
G1 X42.462 Y12.831 E12.34495
G1 X42.617 Y12.951 E12.35473
G1 X42.905 Y13.189 E12.37337
G1 X43.031 Y13.299 E12.38171
G1 X43.629 Y13.848 E12.42221
G1 X43.715 Y13.93 E12.42814
G1 X43.898 Y14.111 E12.44098
G1 X44.021 Y14.239 E12.44984
G1 X44.468 Y14.733 E12.48307
G1 X44.591 Y14.877 E12.49252
G1 X45.054 Y15.454 E12.52943
G1 X45.192 Y15.64 E12.54099
G1 X45.666 Y16.327 E12.58263
G1 X45.781 Y16.505 E12.5932
G1 X46.119 Y17.072 E12.62613
G1 X46.227 Y17.269 E12.63734
G1 X46.591 Y17.99 E12.67764
G1 X46.676 Y18.173 E12.6877
G1 X46.926 Y18.757 E12.7194
G1 X47.006 Y18.964 E12.73047
G1 X47.299 Y19.806 E12.77495
G1 X47.359 Y19.996 E12.78489
G1 X47.505 Y20.518 E12.81193
G1 X47.559 Y20.743 E12.82347
G1 X47.747 Y21.669 E12.87061
G1 X47.781 Y21.868 E12.88069
G1 X47.87 Y22.512 E12.91312
G1 X47.89 Y22.693 E12.92221
G1 X47.923 Y23.102 E12.94268
G1 X47.932 Y23.263 E12.95072
G1 X47.961 Y24.228 E12.99889
G1 X47.962 Y24.324 E13.00368
G1 X47.964 Y39.306 E13.75113
G1 X47.964 Y39.35 E13.75333
G1 X47.954 Y40.074 E13.78945
G1 X47.907 Y40.578 E13.8147
G1 X47.781 Y41.067 E13.8399
G1 X47.58 Y41.531 E13.86513
G1 X47.308 Y41.957 E13.89034
G1 X46.973 Y42.336 E13.91558
G1 X46.582 Y42.656 E13.94079
G1 X46.146 Y42.912 E13.96601
G1 X45.674 Y43.095 E13.99127
G1 X45.18 Y43.201 E14.01647
G1 X44.841 Y43.229 E14.03344
G1 X44.511 Y43.238 E14.04991
G1 X44.424 Y43.239 E14.05425
G1 X23.471 Y43.24 E15.0996
G1 X23.43 Y43.24 E15.10165
G1 X22.732 Y43.231 E15.13647
G1 X22.228 Y43.184 E15.16173
G1 X21.738 Y43.059 E15.18696
G1 X21.274 Y42.858 E15.21219
G1 X20.848 Y42.587 E15.23737
G1 X20.469 Y42.252 E15.26261
G1 X20.148 Y41.861 E15.28785
G1 X19.893 Y41.425 E15.31305
G1 X19.709 Y40.954 E15.33828
G1 X19.602 Y40.46 E15.36349
G1 X19.574 Y40.117 E15.38066
G1 X19.565 Y39.784 E15.39728
G1 X19.564 Y39.697 E15.40162
G1 X19.567 Y24.217 E16.17392
G1 X19.568 Y24.131 E16.17821
G1 X19.589 Y23.362 E16.21659
G1 X19.607 Y23.098 E16.2298
G1 X19.726 Y22.02 E16.2839
G1 X19.759 Y21.799 E16.29505
G1 X19.877 Y21.15 E16.32796
G1 X19.924 Y20.931 E16.33914
G1 X20.117 Y20.174 E16.37811
G1 X20.175 Y19.975 E16.38845
G1 X20.39 Y19.314 E16.42313
G1 X20.466 Y19.106 E16.43418
G1 X20.761 Y18.375 E16.47351
G1 X20.846 Y18.182 E16.48403
G1 X21.141 Y17.571 E16.51788
G1 X21.244 Y17.375 E16.52892
G1 X21.65 Y16.664 E16.56977
G1 X21.761 Y16.485 E16.58028
G1 X22.133 Y15.923 E16.6139
G1 X22.26 Y15.745 E16.62481
G1 F1500 E10.12481
;MESH:LevelSensorHolder_Large v2.stl
G0 F3600 X27.3 Y14.331
G0 X28.055 Y15.371
G0 X31.748 Y14.444
G0 X35.142 Y13.833
G0 X35.156 Y13.735
;TYPE:WALL-INNER
G1 F1500 E16.62481
G1 F1800 X36.072 Y13.9 E16.67125
G1 X36.525 Y14.014 E16.69455
G1 X37.41 Y14.301 E16.74097
G1 X37.844 Y14.475 E16.7643
G1 X38.695 Y14.884 E16.8114
G1 X39.086 Y15.105 E16.83381
G1 X39.869 Y15.622 E16.88062
G1 X40.244 Y15.906 E16.90409
G1 X40.618 Y16.22 E16.92845
G1 X41.277 Y16.85 E16.97394
G1 X41.885 Y17.545 E17.02001
G1 X42.167 Y17.914 E17.04318
G1 X42.69 Y18.704 E17.09044
G1 X42.921 Y19.112 E17.11384
G1 X43.32 Y19.94 E17.15969
G1 X43.5 Y20.388 E17.18378
G1 X43.78 Y21.247 E17.22885
G1 X43.9 Y21.716 E17.25301
G1 X44.068 Y22.642 E17.29996
G1 X44.121 Y23.095 E17.32271
G1 X44.163 Y24.042 E17.37
G1 X44.164 Y39.24 E18.12824
G1 X44.164 Y39.44 E18.13821
G1 X43.964 Y39.44 E18.14467
G1 X23.364 Y39.44 E19.17241
G1 X23.364 Y24.378 E19.92386
G1 X23.374 Y23.581 E19.96362
G1 X23.407 Y23.095 E19.98793
G1 X23.526 Y22.212 E20.03238
G1 X23.622 Y21.742 E20.05631
G1 X23.868 Y20.842 E20.10286
G1 X24.032 Y20.374 E20.1276
G1 X24.392 Y19.53 E20.17338
G1 X24.599 Y19.124 E20.19611
G1 X25.082 Y18.315 E20.24312
G1 X25.34 Y17.941 E20.26579
G1 X25.914 Y17.22 E20.31177
G1 X26.257 Y16.844 E20.33716
G1 X26.907 Y16.223 E20.38201
G1 X27.27 Y15.917 E20.40569
G1 X28.044 Y15.355 E20.45342
G1 X28.424 Y15.115 E20.47584
G1 X29.236 Y14.679 E20.52182
G1 X29.675 Y14.479 E20.54589
G1 X30.541 Y14.154 E20.59203
G1 X30.993 Y14.016 E20.61561
G1 X31.905 Y13.809 E20.66227
G1 X32.364 Y13.735 E20.68546
G1 X33.277 Y13.653 E20.7312
G1 X33.752 Y13.64 E20.7549
G1 X34.687 Y13.682 E20.8016
G1 X35.156 Y13.735 E20.82515
G0 F3600 X35.142 Y13.833
G0 X38.746 Y15.668
G0 X40.133 Y16.711
G0 X41.355 Y18.043
G0 X42.234 Y19.436
G0 X42.889 Y21.044
G0 X43.245 Y22.742
G0 X43.288 Y24.49
G0 X43.03 Y26.164
G0 X42.721 Y27.071
G0 X42.159 Y28.555
G0 X42.072 Y28.507
G1 F1800 X42.447 Y27.75 E20.86729
G1 X42.755 Y26.965 E20.90936
G1 X42.992 Y26.155 E20.95147
G1 X43.16 Y25.316 E20.99416
G1 X43.249 Y24.488 E21.0357
G1 X43.27 Y23.938 E21.06316
G1 X43.256 Y23.314 E21.0943
G1 X43.206 Y22.746 E21.12275
G1 X43.128 Y22.212 E21.14968
G1 X43.014 Y21.655 E21.17804
G1 X42.851 Y21.055 E21.20906
G1 X42.667 Y20.513 E21.23762
G1 X42.438 Y19.951 E21.26789
G1 X42.199 Y19.454 E21.29541
G1 X41.935 Y18.978 E21.32256
G1 X41.635 Y18.504 E21.35055
G1 X41.324 Y18.067 E21.37731
G1 X40.941 Y17.593 E21.40771
G1 X40.507 Y17.124 E21.43959
G1 X40.107 Y16.74 E21.46725
G1 X39.695 Y16.387 E21.49432
G1 X39.266 Y16.061 E21.5212
G1 X38.725 Y15.702 E21.55359
G1 X38.176 Y15.386 E21.5852
G1 X37.624 Y15.115 E21.61588
G1 X37.071 Y14.886 E21.64574
G1 X36.521 Y14.697 E21.67475
G1 X35.976 Y14.545 E21.70298
G1 X35.431 Y14.426 E21.73081
G1 X34.889 Y14.341 E21.75818
G1 X34.351 Y14.287 E21.78516
G1 X33.812 Y14.265 E21.81207
G1 X33.279 Y14.27 E21.83866
G1 X32.706 Y14.31 E21.86732
G1 X32.165 Y14.38 E21.89454
G1 X31.591 Y14.49 E21.92369
G1 X31.028 Y14.632 E21.95266
G1 X30.422 Y14.828 E21.98444
G1 X29.878 Y15.042 E22.0136
G1 X29.347 Y15.291 E22.04286
G1 X28.828 Y15.573 E22.07233
G1 X28.332 Y15.884 E22.10154
G1 X27.855 Y16.224 E22.13076
G1 X27.403 Y16.59 E22.15978
G1 X26.965 Y16.992 E22.18944
G1 X26.559 Y17.414 E22.21865
G1 X26.182 Y17.856 E22.24764
G1 X25.825 Y18.329 E22.2772
G1 X25.503 Y18.819 E22.30645
G1 X25.231 Y19.287 E22.33346
G1 X24.987 Y19.769 E22.36041
G1 X24.77 Y20.264 E22.38738
G1 X24.58 Y20.777 E22.41467
G1 X24.41 Y21.331 E22.44358
G1 X24.276 Y21.884 E22.47197
G1 X24.175 Y22.448 E22.50055
G1 X24.108 Y23.021 E22.52934
G1 X24.074 Y23.6 E22.55827
G1 X24.074 Y24.14 E22.58521
G1 X24.129 Y24.938 E22.62512
G1 X24.255 Y25.745 E22.66587
G1 X24.449 Y26.537 E22.70655
G1 X24.709 Y27.311 E22.74729
G1 X25.035 Y28.059 E22.78799
G1 X25.421 Y28.774 E22.82853
