;FLAVOR:Marlin
;TIME:1377
;Filament used: 1.32147m
;Layer height: 0.2
;MINX:75
;MINY:72.517
;MINZ:0.3
;MAXX:105
;MAXY:107.5
;MAXZ:29.9
;Generated with Cura_SteamEngine 4.1.0
M140 S60
M105
M190 S60
M104 S200
M105
M109 S200
M82 ;absolute extrusion mode
G28 ;Home
G1 Z15.0 F6000 ;Move the platform down 15mm
;Prime the extruder
G92 E0
G1 F200 E3
G92 E0
G92 E0
G92 E0
G1 F1500 E-6.5
;LAYER_COUNT:149
;LAYER:0
M107
G0 F3600 X79.098 Y77.22 Z0.3
;TYPE:SKIRT
G1 F1500 E0
G1 F1800 X79.743 Y76.577 E0.04544
G1 X79.944 Y76.39 E0.05913
G1 X80.401 Y75.993 E0.08934
G1 X80.612 Y75.822 E0.10289
G1 X81.288 Y75.311 E0.14516
G1 X81.493 Y75.166 E0.15769
G1 X81.998 Y74.832 E0.1879
G1 X82.236 Y74.686 E0.20183
G1 X83.014 Y74.246 E0.24642
G1 X83.247 Y74.124 E0.25954
G1 X83.764 Y73.875 E0.28817
G1 X84.014 Y73.765 E0.3018
G1 X84.874 Y73.421 E0.34801
G1 X85.128 Y73.329 E0.36148
G1 X85.749 Y73.128 E0.39405
G1 X85.947 Y73.07 E0.40434
G1 X86.343 Y72.964 E0.42479
G1 X86.541 Y72.916 E0.43496
G1 X87.004 Y72.817 E0.45858
G1 X87.141 Y72.791 E0.46554
G1 X87.614 Y72.707 E0.4895
G1 X87.871 Y72.67 E0.50246
G1 X88.806 Y72.566 E0.54939
G1 X89.068 Y72.545 E0.56251
G1 X89.623 Y72.52 E0.59022
G1 X89.897 Y72.517 E0.60389
G1 X90.748 Y72.537 E0.64636
G1 X91.02 Y72.553 E0.65996
G1 X91.782 Y72.623 E0.69813
G1 X92.055 Y72.657 E0.71186
G1 X92.741 Y72.768 E0.74653
G1 X92.997 Y72.818 E0.75954
G1 X93.694 Y72.978 E0.79522
G1 X93.957 Y73.048 E0.8088
G1 X94.694 Y73.271 E0.84721
G1 X94.949 Y73.358 E0.86065
G1 X95.659 Y73.626 E0.89852
G1 X95.909 Y73.73 E0.91202
G1 X96.537 Y74.017 E0.94647
G1 X96.779 Y74.138 E0.95997
G1 X97.453 Y74.503 E0.99821
G1 X97.68 Y74.636 E1.01134
G1 X98.318 Y75.038 E1.04896
G1 X98.54 Y75.188 E1.06232
G1 X99.18 Y75.654 E1.10182
G1 X99.35 Y75.785 E1.11253
G1 X99.591 Y75.981 E1.12803
G1 X99.772 Y76.137 E1.13995
G1 X100.43 Y76.741 E1.18451
G1 X100.534 Y76.841 E1.19171
G1 X100.683 Y76.988 E1.20215
G1 X100.839 Y77.15 E1.21337
G1 X101.299 Y77.658 E1.24756
G1 X101.449 Y77.834 E1.2591
G1 X101.884 Y78.374 E1.29369
G1 X102.061 Y78.611 E1.30845
G1 X102.576 Y79.357 E1.35368
G1 X102.715 Y79.573 E1.36649
G1 X103.071 Y80.167 E1.40104
G1 X103.184 Y80.367 E1.4125
G1 X103.372 Y80.726 E1.43272
G1 X103.456 Y80.898 E1.44227
G1 X103.651 Y81.318 E1.46537
G1 X103.706 Y81.441 E1.47209
G1 X103.884 Y81.861 E1.49485
G1 X103.979 Y82.108 E1.50805
G1 X104.299 Y83.028 E1.55665
G1 X104.378 Y83.283 E1.56997
G1 X104.523 Y83.811 E1.59729
G1 X104.586 Y84.075 E1.61083
G1 X104.767 Y84.967 E1.65623
G1 X104.811 Y85.224 E1.66924
G1 X104.9 Y85.88 E1.70227
G1 X104.924 Y86.106 E1.71361
G1 X104.957 Y86.528 E1.73473
G1 X104.967 Y86.717 E1.74417
G1 X104.996 Y87.662 E1.79134
G1 X104.998 Y87.784 E1.79743
G1 X105 Y102.764 E2.54478
G1 X105 Y102.82 E2.54757
G1 X104.99 Y103.546 E2.5838
G1 X104.942 Y104.109 E2.61199
G1 X104.815 Y104.66 E2.6402
G1 X104.612 Y105.188 E2.66842
G1 X104.337 Y105.682 E2.69663
G1 X103.995 Y106.132 E2.72483
G1 X103.592 Y106.529 E2.75305
G1 X103.138 Y106.865 E2.78123
G1 X102.641 Y107.134 E2.80942
G1 X102.111 Y107.331 E2.83763
G1 X101.558 Y107.45 E2.86585
G1 X101.102 Y107.489 E2.88869
G1 X100.782 Y107.498 E2.90466
G1 X100.67 Y107.5 E2.91025
G1 X79.655 Y107.5 E3.95869
G1 X78.957 Y107.491 E3.99351
G1 X78.394 Y107.443 E4.0217
G1 X77.843 Y107.317 E4.0499
G1 X77.315 Y107.115 E4.07811
G1 X76.821 Y106.84 E4.10631
G1 X76.371 Y106.498 E4.13451
G1 X75.973 Y106.096 E4.16274
G1 X75.637 Y105.642 E4.19091
G1 X75.367 Y105.145 E4.21913
G1 X75.17 Y104.615 E4.24734
G1 X75.05 Y104.063 E4.27552
G1 X75.01 Y103.599 E4.29876
G1 X75.001 Y103.266 E4.31538
G1 X75 Y103.157 E4.32082
G1 X75.003 Y87.677 E5.09312
G1 X75.004 Y87.57 E5.09846
G1 X75.024 Y86.832 E5.13529
G1 X75.046 Y86.513 E5.15124
G1 X75.163 Y85.424 E5.20588
G1 X75.204 Y85.14 E5.2202
G1 X75.321 Y84.492 E5.25305
G1 X75.38 Y84.217 E5.26708
G1 X75.582 Y83.423 E5.30796
G1 X75.653 Y83.18 E5.32059
G1 X75.859 Y82.542 E5.35404
G1 X75.96 Y82.264 E5.36879
G1 X76.267 Y81.509 E5.40945
G1 X76.369 Y81.279 E5.42201
G1 X76.653 Y80.69 E5.45463
G1 X76.782 Y80.443 E5.46853
G1 X77.212 Y79.69 E5.51179
G1 X77.353 Y79.462 E5.52517
G1 X77.669 Y78.986 E5.55367
G1 X77.824 Y78.769 E5.56698
G1 X78.369 Y78.056 E5.61175
G1 X78.526 Y77.863 E5.62416
G1 X78.901 Y77.431 E5.6527
G1 X79.098 Y77.22 E5.6671
G0 F3600 X79.38 Y77.503
G1 F1800 X80.025 Y76.86 E5.71254
G1 X80.206 Y76.692 E5.72486
G1 X80.663 Y76.295 E5.75506
G1 X80.853 Y76.141 E5.76727
G1 X81.529 Y75.63 E5.80954
G1 X81.714 Y75.499 E5.82085
G1 X82.219 Y75.165 E5.85106
G1 X82.433 Y75.034 E5.86358
G1 X83.211 Y74.594 E5.90817
G1 X83.421 Y74.485 E5.91997
G1 X83.938 Y74.236 E5.9486
G1 X84.163 Y74.136 E5.96089
G1 X85.023 Y73.792 E6.0071
G1 X85.251 Y73.71 E6.01918
G1 X85.872 Y73.509 E6.05175
G1 X86.05 Y73.456 E6.06101
G1 X86.446 Y73.35 E6.08147
G1 X86.624 Y73.308 E6.09059
G1 X87.087 Y73.209 E6.11421
G1 X87.211 Y73.184 E6.12052
G1 X87.684 Y73.1 E6.14449
G1 X87.915 Y73.067 E6.15613
G1 X88.85 Y72.963 E6.20307
G1 X89.086 Y72.945 E6.21488
G1 X89.641 Y72.92 E6.24259
G1 X89.888 Y72.917 E6.25492
G1 X90.739 Y72.937 E6.29738
G1 X90.983 Y72.951 E6.30958
G1 X91.745 Y73.021 E6.34775
G1 X91.991 Y73.052 E6.36012
G1 X92.677 Y73.163 E6.39479
G1 X92.907 Y73.208 E6.40649
G1 X93.604 Y73.368 E6.44216
G1 X93.842 Y73.431 E6.45445
G1 X94.579 Y73.654 E6.49286
G1 X94.807 Y73.732 E6.50489
G1 X95.517 Y74 E6.54275
G1 X95.742 Y74.094 E6.55491
G1 X96.37 Y74.381 E6.58936
G1 X96.588 Y74.489 E6.6015
G1 X97.262 Y74.854 E6.63974
G1 X97.467 Y74.974 E6.65159
G1 X98.105 Y75.376 E6.68921
G1 X98.305 Y75.512 E6.70128
G1 X98.945 Y75.978 E6.74077
G1 X99.097 Y76.095 E6.75034
G1 X99.338 Y76.291 E6.76584
G1 X99.501 Y76.432 E6.77659
G1 X100.159 Y77.036 E6.82115
G1 X100.253 Y77.125 E6.82761
G1 X100.402 Y77.272 E6.83806
G1 X100.543 Y77.419 E6.84822
G1 X101.003 Y77.927 E6.88241
G1 X101.138 Y78.085 E6.89278
G1 X101.573 Y78.625 E6.92737
G1 X101.732 Y78.838 E6.94063
G1 X102.247 Y79.584 E6.98586
G1 X102.372 Y79.778 E6.99737
G1 X102.728 Y80.372 E7.03192
G1 X102.829 Y80.553 E7.04226
G1 X103.017 Y80.912 E7.06248
G1 X103.093 Y81.066 E7.07105
G1 X103.288 Y81.486 E7.09415
G1 X103.338 Y81.597 E7.10022
G1 X103.516 Y82.017 E7.12298
G1 X103.601 Y82.239 E7.13484
G1 X103.921 Y83.159 E7.18344
G1 X103.992 Y83.389 E7.19545
G1 X104.137 Y83.917 E7.22276
G1 X104.194 Y84.154 E7.23492
G1 X104.375 Y85.046 E7.28033
G1 X104.414 Y85.278 E7.29207
G1 X104.503 Y85.934 E7.3251
G1 X104.525 Y86.137 E7.33529
G1 X104.558 Y86.559 E7.3564
G1 X104.567 Y86.73 E7.36495
G1 X104.596 Y87.675 E7.41211
G1 X104.598 Y87.785 E7.4176
G1 X104.6 Y102.765 E8.16496
G1 X104.6 Y102.815 E8.16745
G1 X104.59 Y103.541 E8.20368
G1 X104.542 Y104.075 E8.23043
G1 X104.416 Y104.596 E8.25717
G1 X104.214 Y105.093 E8.28393
G1 X103.94 Y105.554 E8.31069
G1 X103.601 Y105.969 E8.33742
G1 X103.204 Y106.33 E8.36419
G1 X102.758 Y106.627 E8.39093
G1 X102.272 Y106.855 E8.41771
G1 X101.758 Y107.008 E8.44446
G1 X101.091 Y107.09 E8.47799
G1 X100.771 Y107.099 E8.49396
G1 X100.67 Y107.1 E8.499
G1 X79.661 Y107.1 E9.54715
G1 X78.963 Y107.091 E9.58197
G1 X78.428 Y107.044 E9.60877
G1 X77.907 Y106.918 E9.63551
G1 X77.41 Y106.716 E9.66227
G1 X76.949 Y106.443 E9.689
G1 X76.533 Y106.104 E9.71578
G1 X76.172 Y105.708 E9.74251
G1 X75.874 Y105.262 E9.76927
G1 X75.646 Y104.776 E9.79605
G1 X75.493 Y104.262 E9.82281
G1 X75.41 Y103.588 E9.85669
G1 X75.401 Y103.255 E9.87331
G1 X75.4 Y103.157 E9.8782
G1 X75.403 Y87.677 E10.6505
G1 X75.404 Y87.58 E10.65534
G1 X75.424 Y86.842 E10.69217
G1 X75.444 Y86.555 E10.70652
G1 X75.561 Y85.466 E10.76117
G1 X75.597 Y85.211 E10.77401
G1 X75.714 Y84.563 E10.80687
G1 X75.768 Y84.315 E10.81953
G1 X75.97 Y83.521 E10.8604
G1 X76.033 Y83.303 E10.87172
G1 X76.239 Y82.665 E10.90517
G1 X76.33 Y82.415 E10.91844
G1 X76.637 Y81.66 E10.95911
G1 X76.729 Y81.452 E10.97045
G1 X77.013 Y80.863 E11.00308
G1 X77.13 Y80.642 E11.01555
G1 X77.56 Y79.889 E11.05881
G1 X77.687 Y79.683 E11.07089
G1 X78.003 Y79.207 E11.09939
G1 X78.142 Y79.012 E11.11134
G1 X78.687 Y78.299 E11.15611
G1 X78.828 Y78.125 E11.16729
G1 X79.203 Y77.693 E11.19583
G1 X79.38 Y77.503 E11.20878
G0 F3600 X79.663 Y77.787
G1 F1800 X80.308 Y77.144 E11.25422
G1 X80.468 Y76.994 E11.26516
G1 X80.925 Y76.597 E11.29536
G1 X81.094 Y76.46 E11.30621
G1 X81.77 Y75.949 E11.34849
G1 X81.935 Y75.833 E11.35855
G1 X82.44 Y75.499 E11.38876
G1 X82.63 Y75.383 E11.39987
G1 X83.408 Y74.943 E11.44446
G1 X83.594 Y74.845 E11.45495
G1 X84.111 Y74.596 E11.48358
G1 X84.312 Y74.508 E11.49452
G1 X85.172 Y74.164 E11.54073
G1 X85.375 Y74.091 E11.5515
G1 X85.996 Y73.89 E11.58406
G1 X86.154 Y73.843 E11.59229
G1 X86.55 Y73.737 E11.61274
G1 X86.708 Y73.699 E11.62085
G1 X87.171 Y73.6 E11.64447
G1 X87.28 Y73.578 E11.65001
G1 X87.753 Y73.494 E11.67398
G1 X87.959 Y73.465 E11.68436
G1 X88.894 Y73.361 E11.7313
G1 X89.104 Y73.344 E11.74181
G1 X89.659 Y73.319 E11.76952
G1 X89.878 Y73.317 E11.78045
G1 X90.729 Y73.337 E11.82292
G1 X90.947 Y73.349 E11.83381
G1 X91.709 Y73.419 E11.87199
G1 X91.927 Y73.447 E11.88295
G1 X92.613 Y73.558 E11.91762
G1 X92.818 Y73.598 E11.92804
G1 X93.515 Y73.758 E11.96372
G1 X93.726 Y73.814 E11.97461
G1 X94.463 Y74.037 E12.01303
G1 X94.666 Y74.106 E12.02372
G1 X95.376 Y74.374 E12.06159
G1 X95.576 Y74.458 E12.07241
G1 X96.204 Y74.745 E12.10686
G1 X96.398 Y74.841 E12.11765
G1 X97.072 Y75.206 E12.15589
G1 X97.254 Y75.313 E12.16643
G1 X97.892 Y75.715 E12.20405
G1 X98.07 Y75.835 E12.21476
G1 X98.71 Y76.301 E12.25426
G1 X98.845 Y76.405 E12.26276
G1 X99.086 Y76.601 E12.27826
G1 X99.231 Y76.727 E12.28784
G1 X99.889 Y77.331 E12.3324
G1 X99.972 Y77.41 E12.33812
G1 X100.121 Y77.557 E12.34856
G1 X100.246 Y77.687 E12.35756
G1 X100.706 Y78.195 E12.39175
G1 X100.826 Y78.336 E12.40099
G1 X101.261 Y78.876 E12.43558
G1 X101.402 Y79.065 E12.44734
G1 X101.917 Y79.811 E12.49257
G1 X102.029 Y79.984 E12.50285
G1 X102.385 Y80.578 E12.5374
G1 X102.475 Y80.738 E12.54656
G1 X102.663 Y81.097 E12.56678
G1 X102.73 Y81.234 E12.57439
G1 X102.925 Y81.654 E12.59749
G1 X102.969 Y81.753 E12.60289
G1 X103.147 Y82.173 E12.62565
G1 X103.223 Y82.371 E12.63623
G1 X103.543 Y83.291 E12.68483
G1 X103.607 Y83.495 E12.6955
G1 X103.752 Y84.023 E12.72281
G1 X103.802 Y84.234 E12.73363
G1 X103.983 Y85.126 E12.77904
G1 X104.018 Y85.332 E12.78947
G1 X104.107 Y85.988 E12.82249
G1 X104.126 Y86.169 E12.83157
G1 X104.159 Y86.591 E12.85269
G1 X104.167 Y86.742 E12.86023
G1 X104.196 Y87.687 E12.9074
G1 X104.198 Y87.785 E12.91229
G1 X104.2 Y102.765 E13.65965
G1 X104.2 Y102.809 E13.66184
G1 X104.19 Y103.535 E13.69807
G1 X104.143 Y104.038 E13.72327
G1 X104.017 Y104.528 E13.74851
G1 X103.816 Y104.992 E13.77374
G1 X103.544 Y105.418 E13.79896
G1 X103.209 Y105.797 E13.82419
G1 X102.818 Y106.117 E13.8494
G1 X102.382 Y106.373 E13.87462
G1 X101.911 Y106.556 E13.89983
G1 X101.416 Y106.662 E13.92509
G1 X101.08 Y106.69 E13.94191
G1 X100.76 Y106.699 E13.95788
G1 X100.67 Y106.7 E13.96237
G1 X79.666 Y106.7 E15.01027
G1 X78.968 Y106.691 E15.04509
G1 X78.464 Y106.644 E15.07035
G1 X77.974 Y106.519 E15.09558
G1 X77.51 Y106.318 E15.1208
G1 X77.084 Y106.047 E15.14599
G1 X76.705 Y105.712 E15.17123
G1 X76.384 Y105.321 E15.19647
G1 X76.129 Y104.885 E15.22167
G1 X75.945 Y104.414 E15.24689
G1 X75.838 Y103.92 E15.27211
G1 X75.81 Y103.577 E15.28928
G1 X75.801 Y103.244 E15.3059
G1 X75.8 Y103.157 E15.31024
G1 X75.803 Y87.677 E16.08254
G1 X75.804 Y87.591 E16.08683
G1 X75.824 Y86.853 E16.12366
G1 X75.841 Y86.598 E16.13641
G1 X75.958 Y85.509 E16.19106
G1 X75.991 Y85.282 E16.2025
G1 X76.108 Y84.634 E16.23535
G1 X76.156 Y84.414 E16.24659
G1 X76.358 Y83.62 E16.28746
G1 X76.414 Y83.426 E16.29754
G1 X76.62 Y82.788 E16.33098
G1 X76.701 Y82.566 E16.34277
G1 X77.008 Y81.811 E16.38344
G1 X77.09 Y81.626 E16.39353
G1 X77.374 Y81.037 E16.42615
G1 X77.477 Y80.84 E16.43725
G1 X77.907 Y80.087 E16.48051
G1 X78.02 Y79.904 E16.49124
G1 X78.336 Y79.428 E16.51974
G1 X78.46 Y79.255 E16.53036
G1 X79.005 Y78.542 E16.57513
G1 X79.13 Y78.387 E16.58507
G1 X79.505 Y77.955 E16.61361
G1 X79.663 Y77.787 E16.62511
G1 F1500 E10.12511
;MESH:Sensor_holder_v1.stl
G0 F3600 X81.223 Y79.818
G0 X82.174 Y80.681
G0 X83.075 Y88.104
G0 X83.174 Y88.097
;TYPE:WALL-INNER
G1 F1500 E16.62511
G1 F1800 X83.297 Y88.917 E16.66648
G1 X83.513 Y89.708 E16.70739
G1 X83.824 Y90.467 E16.74831
G1 X84.222 Y91.183 E16.78918
G1 X84.703 Y91.845 E16.83001
G1 X85.26 Y92.446 E16.87089
G1 X85.885 Y92.977 E16.9118
G1 X86.568 Y93.429 E16.95266
G1 X87.301 Y93.796 E16.99356
G1 X88.072 Y94.072 E17.03442
G1 X88.87 Y94.257 E17.07528
G1 X89.685 Y94.343 E17.11617
G1 X90.504 Y94.334 E17.15703
G1 X91.317 Y94.224 E17.19796
G1 X92.111 Y94.019 E17.23888
G1 X92.873 Y93.72 E17.27971
G1 X93.595 Y93.333 E17.32058
G1 X94.267 Y92.86 E17.36158
G1 X94.875 Y92.313 E17.40238
G1 X95.415 Y91.696 E17.44329
G1 X95.877 Y91.021 E17.4841
G1 X96.256 Y90.293 E17.52505
G1 X96.543 Y89.525 E17.56595
G1 X96.739 Y88.73 E17.6068
G1 X96.838 Y87.918 E17.64761
G1 X96.84 Y87.098 E17.68852
G1 X96.743 Y86.284 E17.72942
G1 X96.549 Y85.487 E17.77034
G1 X96.262 Y84.72 E17.8112
G1 X95.885 Y83.992 E17.8521
G1 X95.424 Y83.315 E17.89296
G1 X94.886 Y82.697 E17.93384
G1 X94.277 Y82.15 E17.97468
G1 X93.609 Y81.677 E18.01552
G1 X92.886 Y81.286 E18.05652
G1 X92.123 Y80.987 E18.09741
G1 X91.331 Y80.78 E18.13825
G1 X90.52 Y80.669 E18.17909
G1 X89.702 Y80.655 E18.2199
G1 X88.885 Y80.739 E18.26088
G1 X88.085 Y80.922 E18.30182
G1 X87.315 Y81.197 E18.34261
G1 X86.581 Y81.562 E18.38351
G1 X85.897 Y82.014 E18.42441
G1 X85.271 Y82.543 E18.4653
G1 X84.713 Y83.144 E18.50622
G1 X84.23 Y83.805 E18.54706
G1 X83.832 Y84.521 E18.58793
G1 X83.519 Y85.279 E18.62884
G1 X83.301 Y86.07 E18.66978
G1 X83.177 Y86.887 E18.71101
G1 X83.174 Y88.097 E18.77137
G0 F3600 X83.075 Y88.104
G0 X83.138 Y86.884
G0 X83.262 Y86.062
G0 X83.482 Y85.267
G0 X83.796 Y84.504
G0 X84.197 Y83.784
G0 X84.683 Y83.119
G0 X91.367 Y77.291
G0 X91.381 Y77.193
G1 F1800 X92.312 Y77.361 E18.81857
G1 X92.758 Y77.472 E18.8415
G1 X93.646 Y77.76 E18.88808
G1 X94.08 Y77.934 E18.9114
G1 X94.913 Y78.334 E18.9575
G1 X95.339 Y78.576 E18.98195
G1 X96.116 Y79.088 E19.02837
G1 X96.48 Y79.366 E19.05122
G1 X96.853 Y79.678 E19.07548
G1 X97.513 Y80.309 E19.12104
G1 X98.121 Y81.005 E19.16715
G1 X98.411 Y81.385 E19.19099
G1 X98.926 Y82.164 E19.23758
G1 X99.152 Y82.559 E19.26029
G1 X99.563 Y83.414 E19.30762
G1 X99.735 Y83.84 E19.33054
G1 X100.017 Y84.707 E19.37602
G1 X100.136 Y85.174 E19.40006
G1 X100.304 Y86.101 E19.44707
G1 X100.357 Y86.555 E19.46987
G1 X100.399 Y87.502 E19.51716
G1 X100.4 Y102.7 E20.27539
G1 X100.4 Y102.9 E20.28537
G1 X100.2 Y102.9 E20.29183
G1 X79.6 Y102.9 E21.31957
G1 X79.6 Y87.838 E22.07102
G1 X79.61 Y87.04 E22.11083
G1 X79.643 Y86.555 E22.13509
G1 X79.762 Y85.672 E22.17954
G1 X79.858 Y85.201 E22.20352
G1 X80.104 Y84.302 E22.25002
G1 X80.265 Y83.841 E22.27438
G1 X80.628 Y82.989 E22.32058
G1 X80.833 Y82.586 E22.34314
G1 X81.311 Y81.786 E22.38964
G1 X81.585 Y81.389 E22.4137
G1 X82.159 Y80.669 E22.45964
G1 X82.487 Y80.309 E22.48394
G1 X83.154 Y79.671 E22.52999
G1 X83.509 Y79.375 E22.55305
G1 X84.268 Y78.822 E22.5999
G1 X84.654 Y78.579 E22.62265
G1 X85.479 Y78.135 E22.66939
G1 X85.911 Y77.938 E22.69308
G1 X86.781 Y77.612 E22.73943
G1 X87.226 Y77.476 E22.76265
G1 X88.14 Y77.269 E22.8094
G1 X88.6 Y77.195 E22.83265
G1 X89.513 Y77.113 E22.87838
G1 X89.988 Y77.1 E22.90209
G1 X90.934 Y77.142 E22.94933
G1 X91.381 Y77.193 E22.97178
G0 F3600 X91.367 Y77.291
G0 X85.523 Y78.224
G0 X85.302 Y77.776
;TYPE:WALL-OUTER
G1 F1800 X85.76 Y77.567 E22.99689
G1 X86.651 Y77.233 E23.04437
G1 X87.121 Y77.09 E23.06887
G1 X88.064 Y76.876 E23.11712
G1 X88.545 Y76.799 E23.14142
G1 X89.498 Y76.713 E23.18916
G1 X89.996 Y76.7 E23.21401
