;FLAVOR:Marlin
;TIME:1314
;Filament used: 1.27953m
;Layer height: 0.2
;MINX:75
;MINY:72.517
;MINZ:0.3
;MAXX:105
;MAXY:107.5
;MAXZ:29.9
;Generated with Cura_SteamEngine 4.1.0
M140 S60
M105
M190 S60
M104 S200
M105
M109 S200
M82 ;absolute extrusion mode
G28 ;Home
G1 Z15.0 F6000 ;Move the platform down 15mm
;Prime the extruder
G92 E0
G1 F200 E3
G92 E0
G92 E0
G92 E0
G1 F1500 E-6.5
;LAYER_COUNT:149
;LAYER:0
M107
G0 F3600 X79.098 Y77.22 Z0.3
;TYPE:SKIRT
G1 F1500 E0
G1 F1800 X79.743 Y76.577 E0.04544
G1 X79.944 Y76.39 E0.05913
G1 X80.401 Y75.993 E0.08934
G1 X80.612 Y75.822 E0.10289
G1 X81.288 Y75.311 E0.14516
G1 X81.493 Y75.166 E0.15769
G1 X81.998 Y74.832 E0.1879
G1 X82.236 Y74.686 E0.20183
G1 X83.014 Y74.246 E0.24642
G1 X83.247 Y74.124 E0.25954
G1 X83.764 Y73.875 E0.28817
G1 X84.014 Y73.765 E0.3018
G1 X84.874 Y73.421 E0.34801
G1 X85.128 Y73.329 E0.36148
G1 X85.749 Y73.128 E0.39405
G1 X85.947 Y73.07 E0.40434
G1 X86.343 Y72.964 E0.42479
G1 X86.541 Y72.916 E0.43496
G1 X87.004 Y72.817 E0.45858
G1 X87.141 Y72.791 E0.46554
G1 X87.614 Y72.707 E0.4895
G1 X87.871 Y72.67 E0.50246
G1 X88.806 Y72.566 E0.54939
G1 X89.068 Y72.545 E0.56251
G1 X89.623 Y72.52 E0.59022
G1 X89.897 Y72.517 E0.60389
G1 X90.748 Y72.537 E0.64636
G1 X91.02 Y72.553 E0.65996
G1 X91.782 Y72.623 E0.69813
G1 X92.055 Y72.657 E0.71186
G1 X92.741 Y72.768 E0.74653
G1 X92.997 Y72.818 E0.75954
G1 X93.694 Y72.978 E0.79522
G1 X93.957 Y73.048 E0.8088
G1 X94.694 Y73.271 E0.84721
G1 X94.949 Y73.358 E0.86065
G1 X95.659 Y73.626 E0.89852
G1 X95.909 Y73.73 E0.91202
G1 X96.537 Y74.017 E0.94647
G1 X96.779 Y74.138 E0.95997
G1 X97.453 Y74.503 E0.99821
G1 X97.68 Y74.636 E1.01134
G1 X98.318 Y75.038 E1.04896
G1 X98.54 Y75.188 E1.06232
G1 X99.18 Y75.654 E1.10182
G1 X99.35 Y75.785 E1.11253
G1 X99.591 Y75.981 E1.12803
G1 X99.772 Y76.137 E1.13995
G1 X100.43 Y76.741 E1.18451
G1 X100.534 Y76.841 E1.19171
G1 X100.683 Y76.988 E1.20215
G1 X100.839 Y77.15 E1.21337
G1 X101.299 Y77.658 E1.24756
G1 X101.449 Y77.834 E1.2591
G1 X101.884 Y78.374 E1.29369
G1 X102.061 Y78.611 E1.30845
G1 X102.576 Y79.357 E1.35368
G1 X102.715 Y79.573 E1.36649
G1 X103.071 Y80.167 E1.40104
G1 X103.184 Y80.367 E1.4125
G1 X103.372 Y80.726 E1.43272
G1 X103.456 Y80.898 E1.44227
G1 X103.651 Y81.318 E1.46537
G1 X103.706 Y81.441 E1.47209
G1 X103.884 Y81.861 E1.49485
G1 X103.979 Y82.108 E1.50805
G1 X104.299 Y83.028 E1.55665
G1 X104.378 Y83.283 E1.56997
G1 X104.523 Y83.811 E1.59729
G1 X104.586 Y84.075 E1.61083
G1 X104.767 Y84.967 E1.65623
G1 X104.811 Y85.224 E1.66924
G1 X104.9 Y85.88 E1.70227
G1 X104.924 Y86.106 E1.71361
G1 X104.957 Y86.528 E1.73473
G1 X104.967 Y86.717 E1.74417
G1 X104.996 Y87.662 E1.79134
G1 X104.998 Y87.784 E1.79743
G1 X105 Y102.766 E2.54488
G1 X105 Y102.822 E2.54767
G1 X104.99 Y103.545 E2.58375
G1 X104.942 Y104.109 E2.61199
G1 X104.815 Y104.66 E2.6402
G1 X104.612 Y105.187 E2.66837
G1 X104.337 Y105.681 E2.69658
G1 X103.994 Y106.131 E2.72481
G1 X103.592 Y106.528 E2.753
G1 X103.138 Y106.864 E2.78118
G1 X102.641 Y107.134 E2.80939
G1 X102.11 Y107.33 E2.83763
G1 X101.558 Y107.449 E2.86581
G1 X101.099 Y107.489 E2.88879
G1 X100.769 Y107.498 E2.90526
G1 X100.66 Y107.499 E2.9107
G1 X79.707 Y107.5 E3.95605
G1 X79.655 Y107.5 E3.95864
G1 X78.957 Y107.491 E3.99347
G1 X78.394 Y107.443 E4.02166
G1 X77.843 Y107.317 E4.04986
G1 X77.315 Y107.115 E4.07806
G1 X76.821 Y106.84 E4.10627
G1 X76.371 Y106.498 E4.13447
G1 X75.973 Y106.096 E4.16269
G1 X75.637 Y105.642 E4.19087
G1 X75.367 Y105.145 E4.21909
G1 X75.17 Y104.615 E4.2473
G1 X75.05 Y104.063 E4.27548
G1 X75.01 Y103.599 E4.29871
G1 X75.001 Y103.266 E4.31533
G1 X75 Y103.157 E4.32077
G1 X75.003 Y87.677 E5.09307
G1 X75.004 Y87.57 E5.09841
G1 X75.024 Y86.832 E5.13524
G1 X75.046 Y86.513 E5.1512
G1 X75.163 Y85.424 E5.20584
G1 X75.204 Y85.14 E5.22016
G1 X75.321 Y84.492 E5.25301
G1 X75.38 Y84.217 E5.26704
G1 X75.582 Y83.423 E5.30791
G1 X75.653 Y83.18 E5.32054
G1 X75.859 Y82.542 E5.35399
G1 X75.96 Y82.264 E5.36875
G1 X76.267 Y81.509 E5.40941
G1 X76.369 Y81.279 E5.42196
G1 X76.653 Y80.69 E5.45459
G1 X76.782 Y80.443 E5.46849
G1 X77.212 Y79.69 E5.51175
G1 X77.353 Y79.462 E5.52512
G1 X77.669 Y78.986 E5.55363
G1 X77.824 Y78.769 E5.56693
G1 X78.369 Y78.056 E5.61171
G1 X78.526 Y77.863 E5.62412
G1 X78.901 Y77.431 E5.65266
G1 X79.098 Y77.22 E5.66706
G0 F3600 X79.38 Y77.503
G1 F1800 X80.025 Y76.86 E5.7125
G1 X80.206 Y76.692 E5.72482
G1 X80.663 Y76.295 E5.75502
G1 X80.853 Y76.141 E5.76722
G1 X81.529 Y75.63 E5.8095
G1 X81.714 Y75.499 E5.82081
G1 X82.219 Y75.165 E5.85101
G1 X82.433 Y75.034 E5.86353
G1 X83.211 Y74.594 E5.90812
G1 X83.421 Y74.485 E5.91993
G1 X83.938 Y74.236 E5.94856
G1 X84.163 Y74.136 E5.96084
G1 X85.023 Y73.792 E6.00705
G1 X85.251 Y73.71 E6.01914
G1 X85.872 Y73.509 E6.0517
G1 X86.05 Y73.456 E6.06097
G1 X86.446 Y73.35 E6.08142
G1 X86.624 Y73.308 E6.09055
G1 X87.087 Y73.209 E6.11417
G1 X87.211 Y73.184 E6.12048
G1 X87.684 Y73.1 E6.14445
G1 X87.915 Y73.067 E6.15609
G1 X88.85 Y72.963 E6.20302
G1 X89.086 Y72.945 E6.21483
G1 X89.641 Y72.92 E6.24255
G1 X89.888 Y72.917 E6.25487
G1 X90.739 Y72.937 E6.29734
G1 X90.983 Y72.951 E6.30953
G1 X91.745 Y73.021 E6.34771
G1 X91.991 Y73.052 E6.36008
G1 X92.677 Y73.163 E6.39475
G1 X92.907 Y73.208 E6.40644
G1 X93.604 Y73.368 E6.44212
G1 X93.842 Y73.431 E6.4544
G1 X94.579 Y73.654 E6.49282
G1 X94.807 Y73.732 E6.50484
G1 X95.517 Y74 E6.5427
G1 X95.742 Y74.094 E6.55487
G1 X96.37 Y74.381 E6.58932
G1 X96.588 Y74.489 E6.60145
G1 X97.262 Y74.854 E6.63969
G1 X97.467 Y74.974 E6.65154
G1 X98.105 Y75.376 E6.68917
G1 X98.305 Y75.512 E6.70123
G1 X98.945 Y75.978 E6.74073
G1 X99.097 Y76.095 E6.7503
G1 X99.338 Y76.291 E6.7658
G1 X99.501 Y76.432 E6.77655
G1 X100.159 Y77.036 E6.82111
G1 X100.253 Y77.125 E6.82757
G1 X100.402 Y77.272 E6.83801
G1 X100.543 Y77.419 E6.84817
G1 X101.003 Y77.927 E6.88236
G1 X101.138 Y78.085 E6.89273
G1 X101.573 Y78.625 E6.92733
G1 X101.732 Y78.838 E6.94059
G1 X102.247 Y79.584 E6.98581
G1 X102.372 Y79.778 E6.99733
G1 X102.728 Y80.372 E7.03188
G1 X102.829 Y80.553 E7.04222
G1 X103.017 Y80.912 E7.06244
G1 X103.093 Y81.066 E7.071
G1 X103.288 Y81.486 E7.0941
G1 X103.338 Y81.597 E7.10018
G1 X103.516 Y82.017 E7.12294
G1 X103.601 Y82.239 E7.1348
G1 X103.921 Y83.159 E7.18339
G1 X103.992 Y83.389 E7.1954
G1 X104.137 Y83.917 E7.22272
G1 X104.194 Y84.154 E7.23488
G1 X104.375 Y85.046 E7.28029
G1 X104.414 Y85.278 E7.29203
G1 X104.503 Y85.934 E7.32505
G1 X104.525 Y86.137 E7.33524
G1 X104.558 Y86.559 E7.35636
G1 X104.567 Y86.73 E7.3649
G1 X104.596 Y87.675 E7.41207
G1 X104.598 Y87.785 E7.41756
G1 X104.6 Y102.767 E8.16501
G1 X104.6 Y102.817 E8.16751
G1 X104.59 Y103.54 E8.20358
G1 X104.542 Y104.074 E8.23033
G1 X104.416 Y104.595 E8.25707
G1 X104.214 Y105.092 E8.28384
G1 X103.94 Y105.553 E8.31059
G1 X103.601 Y105.968 E8.33733
G1 X103.204 Y106.329 E8.3641
G1 X102.758 Y106.626 E8.39083
G1 X102.272 Y106.854 E8.41761
G1 X101.758 Y107.007 E8.44437
G1 X101.088 Y107.089 E8.47805
G1 X100.758 Y107.098 E8.49452
G1 X100.66 Y107.099 E8.4994
G1 X79.707 Y107.1 E9.54475
G1 X79.661 Y107.1 E9.54705
G1 X78.963 Y107.091 E9.58188
G1 X78.428 Y107.044 E9.60867
G1 X77.907 Y106.918 E9.63541
G1 X77.41 Y106.716 E9.66218
G1 X76.949 Y106.443 E9.68891
G1 X76.533 Y106.104 E9.71568
G1 X76.172 Y105.708 E9.74241
G1 X75.874 Y105.262 E9.76917
G1 X75.646 Y104.776 E9.79596
G1 X75.493 Y104.262 E9.82271
G1 X75.41 Y103.588 E9.85659
G1 X75.401 Y103.255 E9.87321
G1 X75.4 Y103.157 E9.8781
G1 X75.403 Y87.677 E10.6504
G1 X75.404 Y87.58 E10.65524
G1 X75.424 Y86.842 E10.69207
G1 X75.444 Y86.555 E10.70643
G1 X75.561 Y85.466 E10.76107
G1 X75.597 Y85.211 E10.77392
G1 X75.714 Y84.563 E10.80677
G1 X75.768 Y84.315 E10.81943
G1 X75.97 Y83.521 E10.86031
G1 X76.033 Y83.303 E10.87163
G1 X76.239 Y82.665 E10.90508
G1 X76.33 Y82.415 E10.91835
G1 X76.637 Y81.66 E10.95901
G1 X76.729 Y81.452 E10.97036
G1 X77.013 Y80.863 E11.00298
G1 X77.13 Y80.642 E11.01546
G1 X77.56 Y79.889 E11.05872
G1 X77.687 Y79.683 E11.07079
G1 X78.003 Y79.207 E11.0993
G1 X78.142 Y79.012 E11.11124
G1 X78.687 Y78.299 E11.15602
G1 X78.828 Y78.125 E11.16719
G1 X79.203 Y77.693 E11.19573
G1 X79.38 Y77.503 E11.20868
G0 F3600 X79.663 Y77.787
G1 F1800 X80.308 Y77.144 E11.25412
G1 X80.468 Y76.994 E11.26506
G1 X80.925 Y76.597 E11.29527
G1 X81.094 Y76.46 E11.30612
G1 X81.77 Y75.949 E11.3484
G1 X81.935 Y75.833 E11.35846
G1 X82.44 Y75.499 E11.38867
G1 X82.63 Y75.383 E11.39977
G1 X83.408 Y74.943 E11.44436
G1 X83.594 Y74.845 E11.45485
G1 X84.111 Y74.596 E11.48348
G1 X84.312 Y74.508 E11.49443
G1 X85.172 Y74.164 E11.54064
G1 X85.375 Y74.091 E11.5514
G1 X85.996 Y73.89 E11.58397
G1 X86.154 Y73.843 E11.59219
G1 X86.55 Y73.737 E11.61264
G1 X86.708 Y73.699 E11.62075
G1 X87.171 Y73.6 E11.64437
G1 X87.28 Y73.578 E11.64992
G1 X87.753 Y73.494 E11.67389
G1 X87.959 Y73.465 E11.68426
G1 X88.894 Y73.361 E11.7312
G1 X89.104 Y73.344 E11.74171
G1 X89.659 Y73.319 E11.76943
G1 X89.878 Y73.317 E11.78035
G1 X90.729 Y73.337 E11.82282
G1 X90.947 Y73.349 E11.83371
G1 X91.709 Y73.419 E11.87189
G1 X91.927 Y73.447 E11.88286
G1 X92.613 Y73.558 E11.91753
G1 X92.818 Y73.598 E11.92795
G1 X93.515 Y73.758 E11.96362
G1 X93.726 Y73.814 E11.97452
G1 X94.463 Y74.037 E12.01293
G1 X94.666 Y74.106 E12.02363
G1 X95.376 Y74.374 E12.06149
G1 X95.576 Y74.458 E12.07231
G1 X96.204 Y74.745 E12.10676
G1 X96.398 Y74.841 E12.11756
G1 X97.072 Y75.206 E12.1558
G1 X97.254 Y75.313 E12.16633
G1 X97.892 Y75.715 E12.20395
G1 X98.07 Y75.835 E12.21466
G1 X98.71 Y76.301 E12.25416
G1 X98.845 Y76.405 E12.26266
G1 X99.086 Y76.601 E12.27816
G1 X99.231 Y76.727 E12.28774
G1 X99.889 Y77.331 E12.33231
G1 X99.972 Y77.41 E12.33802
G1 X100.121 Y77.557 E12.34846
G1 X100.246 Y77.687 E12.35746
G1 X100.706 Y78.195 E12.39165
G1 X100.826 Y78.336 E12.40089
G1 X101.261 Y78.876 E12.43548
G1 X101.402 Y79.065 E12.44725
G1 X101.917 Y79.811 E12.49247
G1 X102.029 Y79.984 E12.50276
G1 X102.385 Y80.578 E12.53731
G1 X102.475 Y80.738 E12.54646
G1 X102.663 Y81.097 E12.56668
G1 X102.73 Y81.234 E12.57429
G1 X102.925 Y81.654 E12.59739
G1 X102.969 Y81.753 E12.6028
G1 X103.147 Y82.173 E12.62556
G1 X103.223 Y82.371 E12.63614
G1 X103.543 Y83.291 E12.68473
G1 X103.607 Y83.495 E12.6954
G1 X103.752 Y84.023 E12.72272
G1 X103.802 Y84.234 E12.73354
G1 X103.983 Y85.126 E12.77894
G1 X104.018 Y85.332 E12.78937
G1 X104.107 Y85.988 E12.8224
G1 X104.126 Y86.169 E12.83148
G1 X104.159 Y86.591 E12.85259
G1 X104.167 Y86.742 E12.86014
G1 X104.196 Y87.687 E12.90731
G1 X104.198 Y87.785 E12.9122
G1 X104.2 Y102.767 E13.65965
G1 X104.2 Y102.811 E13.66185
G1 X104.19 Y103.534 E13.69792
G1 X104.143 Y104.038 E13.72318
G1 X104.017 Y104.527 E13.74837
G1 X103.816 Y104.991 E13.7736
G1 X103.544 Y105.418 E13.79885
G1 X103.209 Y105.796 E13.82405
G1 X102.818 Y106.116 E13.84926
G1 X102.382 Y106.372 E13.87448
G1 X101.91 Y106.555 E13.89974
G1 X101.416 Y106.661 E13.92495
G1 X101.077 Y106.689 E13.94192
G1 X100.747 Y106.698 E13.95839
G1 X100.66 Y106.699 E13.96273
G1 X79.707 Y106.7 E15.00808
G1 X79.666 Y106.7 E15.01012
G1 X78.968 Y106.691 E15.04495
G1 X78.464 Y106.644 E15.0702
G1 X77.974 Y106.519 E15.09543
G1 X77.51 Y106.318 E15.12066
G1 X77.084 Y106.047 E15.14585
G1 X76.705 Y105.712 E15.17109
G1 X76.384 Y105.321 E15.19632
G1 X76.129 Y104.885 E15.22152
G1 X75.945 Y104.414 E15.24675
G1 X75.838 Y103.92 E15.27197
G1 X75.81 Y103.577 E15.28914
G1 X75.801 Y103.244 E15.30576
G1 X75.8 Y103.157 E15.3101
G1 X75.803 Y87.677 E16.0824
G1 X75.804 Y87.591 E16.08669
G1 X75.824 Y86.853 E16.12352
G1 X75.841 Y86.598 E16.13627
G1 X75.958 Y85.509 E16.19092
G1 X75.991 Y85.282 E16.20236
G1 X76.108 Y84.634 E16.23521
G1 X76.156 Y84.414 E16.24645
G1 X76.358 Y83.62 E16.28732
G1 X76.414 Y83.426 E16.29739
G1 X76.62 Y82.788 E16.33084
G1 X76.701 Y82.566 E16.34263
G1 X77.008 Y81.811 E16.38329
G1 X77.09 Y81.626 E16.39339
G1 X77.374 Y81.037 E16.42601
G1 X77.477 Y80.84 E16.4371
G1 X77.907 Y80.087 E16.48036
G1 X78.02 Y79.904 E16.49109
G1 X78.336 Y79.428 E16.5196
G1 X78.46 Y79.255 E16.53022
G1 X79.005 Y78.542 E16.57499
G1 X79.13 Y78.387 E16.58493
G1 X79.505 Y77.955 E16.61347
G1 X79.663 Y77.787 E16.62497
G1 F1500 E10.12497
;MESH:LevelSensorHolder_Large v2.stl
G0 F3600 X86.336 Y76.428
G0 X86.787 Y77.63
G0 X91.367 Y77.291
G0 X91.381 Y77.193
;TYPE:WALL-INNER
G1 F1500 E16.62497
G1 F1800 X92.312 Y77.361 E16.67217
G1 X92.758 Y77.472 E16.6951
G1 X93.646 Y77.76 E16.74167
G1 X94.08 Y77.934 E16.765
G1 X94.913 Y78.334 E16.8111
G1 X95.338 Y78.575 E16.83548
G1 X96.114 Y79.087 E16.88186
G1 X96.48 Y79.366 E16.90482
G1 X96.853 Y79.678 E16.92908
G1 X97.513 Y80.309 E16.97464
G1 X98.121 Y81.005 E17.02074
G1 X98.411 Y81.385 E17.04459
G1 X98.926 Y82.164 E17.09118
G1 X99.152 Y82.559 E17.11389
G1 X99.561 Y83.411 E17.16104
G1 X99.735 Y83.84 E17.18413
G1 X100.017 Y84.707 E17.22962
G1 X100.136 Y85.174 E17.25366
G1 X100.304 Y86.101 E17.30066
G1 X100.357 Y86.555 E17.32347
G1 X100.399 Y87.502 E17.37076
G1 X100.4 Y102.7 E18.12899
G1 X100.4 Y102.9 E18.13897
G1 X100.2 Y102.9 E18.14543
G1 X79.6 Y102.9 E19.17317
G1 X79.6 Y87.838 E19.92461
G1 X79.61 Y87.04 E19.96443
G1 X79.643 Y86.555 E19.98868
G1 X79.762 Y85.672 E20.03313
G1 X79.858 Y85.201 E20.05711
G1 X80.104 Y84.302 E20.10361
G1 X80.265 Y83.841 E20.12798
G1 X80.628 Y82.989 E20.17418
G1 X80.833 Y82.586 E20.19674
G1 X81.311 Y81.786 E20.24323
G1 X81.585 Y81.389 E20.2673
G1 X82.159 Y80.67 E20.3132
G1 X82.487 Y80.309 E20.33753
G1 X83.154 Y79.671 E20.38358
G1 X83.509 Y79.375 E20.40664
G1 X84.268 Y78.822 E20.45349
G1 X84.654 Y78.579 E20.47625
G1 X85.479 Y78.135 E20.52299
G1 X85.911 Y77.938 E20.54668
G1 X86.781 Y77.612 E20.59303
G1 X87.226 Y77.476 E20.61624
G1 X88.14 Y77.269 E20.663
G1 X88.6 Y77.195 E20.68624
G1 X89.513 Y77.113 E20.73197
G1 X89.988 Y77.1 E20.75568
G1 X90.934 Y77.142 E20.80292
G1 X91.381 Y77.193 E20.82537
G0 F3600 X91.367 Y77.291
G0 X94.982 Y79.128
G0 X96.368 Y80.171
G0 X97.591 Y81.503
G0 X98.47 Y82.895
G0 X99.126 Y84.503
G0 X99.481 Y86.202
G0 X99.524 Y87.95
G0 X99.266 Y89.624
G0 X98.957 Y90.531
G0 X98.395 Y92.015
G0 X98.308 Y91.967
G1 F1800 X98.683 Y91.21 E20.86752
G1 X98.991 Y90.424 E20.90963
G1 X99.228 Y89.615 E20.95169
G1 X99.396 Y88.776 E20.99438
G1 X99.485 Y87.948 E21.03593
G1 X99.506 Y87.397 E21.06344
G1 X99.492 Y86.774 E21.09453
G1 X99.442 Y86.206 E21.12297
G1 X99.364 Y85.672 E21.1499
G1 X99.25 Y85.116 E21.17821
G1 X99.088 Y84.514 E21.20932
G1 X98.903 Y83.972 E21.23789
G1 X98.674 Y83.411 E21.26812
G1 X98.435 Y82.913 E21.29568
G1 X98.171 Y82.438 E21.32279
G1 X97.871 Y81.963 E21.35082
G1 X97.56 Y81.527 E21.37754
G1 X97.177 Y81.054 E21.4079
G1 X96.744 Y80.584 E21.43978
G1 X96.342 Y80.2 E21.46752
G1 X95.931 Y79.847 E21.49455
G1 X95.502 Y79.521 E21.52143
G1 X94.961 Y79.162 E21.55382
G1 X94.412 Y78.846 E21.58542
G1 X93.861 Y78.575 E21.61606
G1 X93.308 Y78.346 E21.64592
G1 X92.758 Y78.156 E21.67495
G1 X92.211 Y78.005 E21.70326
G1 X91.667 Y77.885 E21.73105
G1 X91.125 Y77.801 E21.75842
G1 X90.588 Y77.747 E21.78534
G1 X90.048 Y77.724 E21.81231
G1 X89.468 Y77.731 E21.84125
G1 X88.835 Y77.781 E21.87293
G1 X88.295 Y77.858 E21.90014
G1 X87.727 Y77.972 E21.92904
G1 X87.114 Y78.135 E21.96069
G1 X86.557 Y78.325 E21.99005
G1 X86.014 Y78.546 E22.0193
G1 X85.494 Y78.795 E22.04806
G1 X84.972 Y79.087 E22.0779
G1 X84.479 Y79.404 E22.10714
G1 X84.011 Y79.744 E22.136
G1 X83.523 Y80.151 E22.16771
G1 X83.123 Y80.529 E22.19516
G1 X82.727 Y80.949 E22.22396
G1 X82.321 Y81.437 E22.25563
G1 X81.998 Y81.88 E22.28298
G1 X81.682 Y82.37 E22.31207
G1 X81.416 Y82.842 E22.3391
G1 X81.177 Y83.327 E22.36608
G1 X80.967 Y83.826 E22.39309
G1 X80.783 Y84.34 E22.42033
G1 X80.622 Y84.884 E22.44863
G1 X80.493 Y85.442 E22.4772
G1 X80.398 Y86.009 E22.50588
G1 X80.335 Y86.588 E22.53494
