;FLAVOR:Marlin
;TIME:3868
;Filament used: 3.41468m
;Layer height: 0.2
;MINX:60.102
;MINY:74.698
;MINZ:0.3
;MAXX:119.768
;MAXY:105.983
;MAXZ:47.9
;Generated with Cura_SteamEngine 4.1.0
M140 S60
M105
M190 S60
M104 S200
M105
M109 S200
M82 ;absolute extrusion mode
G28 ;Home
G1 Z15.0 F6000 ;Move the platform down 15mm
;Prime the extruder
G92 E0
G1 F200 E3
G92 E0
G92 E0
G92 E0
G1 F1500 E-6.5
;LAYER_COUNT:239
;LAYER:0
M107
G0 F3600 X62.541 Y80.382 Z0.3
;TYPE:SKIRT
G1 F1500 E0
G1 F1800 X62.753 Y80.236 E0.01284
G1 X63.24 Y79.949 E0.04104
G1 X63.668 Y79.766 E0.06427
G1 X64.01 Y79.643 E0.0824
G1 X64.563 Y79.488 E0.11105
G1 X64.886 Y79.422 E0.1275
G1 X65.333 Y79.357 E0.15003
G1 X65.558 Y79.337 E0.1613
G1 X65.628 Y79.331 E0.16481
G1 X66.4 Y79.276 E0.20342
G1 X66.44 Y79.273 E0.20542
G1 X88.542 Y77.922 E1.31015
G1 X88.686 Y77.916 E1.31735
G1 X90.159 Y77.879 E1.39086
G1 X90.312 Y77.878 E1.39849
G1 X90.616 Y77.882 E1.41366
G1 X90.723 Y77.885 E1.419
G1 X90.997 Y77.896 E1.43268
G1 X91.196 Y77.909 E1.44263
G1 X92.073 Y77.988 E1.48656
G1 X92.226 Y78.005 E1.49424
G1 X92.745 Y78.072 E1.52035
G1 X92.898 Y78.095 E1.52807
G1 X93.438 Y78.186 E1.55539
G1 X93.581 Y78.212 E1.56264
G1 X94.202 Y78.34 E1.59427
G1 X94.353 Y78.375 E1.602
G1 X94.859 Y78.5 E1.62801
G1 X94.993 Y78.535 E1.63492
G1 X95.44 Y78.662 E1.6581
G1 X95.589 Y78.708 E1.66588
G1 X96.272 Y78.931 E1.70173
G1 X96.397 Y78.974 E1.70832
G1 X96.804 Y79.122 E1.72993
G1 X96.947 Y79.177 E1.73757
G1 X97.472 Y79.391 E1.76586
G1 X97.599 Y79.445 E1.77274
G1 X98.007 Y79.628 E1.79505
G1 X98.123 Y79.683 E1.80145
G1 X98.644 Y79.937 E1.83037
G1 X98.773 Y80.003 E1.8376
G1 X99.103 Y80.179 E1.85626
G1 X99.224 Y80.246 E1.86316
G1 X99.874 Y80.622 E1.90062
G1 X99.993 Y80.693 E1.90754
G1 X100.255 Y80.857 E1.92296
G1 X100.354 Y80.921 E1.92884
G1 X100.736 Y81.176 E1.95175
G1 X100.856 Y81.259 E1.95903
G1 X101.348 Y81.614 E1.9893
G1 X101.464 Y81.701 E1.99654
G1 X101.897 Y82.038 E2.02391
G1 X102.004 Y82.125 E2.03079
G1 X102.386 Y82.444 E2.05562
G1 X102.502 Y82.544 E2.06326
G1 X103.004 Y82.997 E2.09699
G1 X103.104 Y83.091 E2.10384
G1 X103.314 Y83.294 E2.11841
G1 X103.418 Y83.398 E2.12575
G1 X103.99 Y83.993 E2.16693
G1 X104.084 Y84.095 E2.17385
G1 X104.292 Y84.327 E2.18939
G1 X104.382 Y84.431 E2.19626
G1 X104.745 Y84.865 E2.22448
G1 X104.831 Y84.971 E2.23129
G1 X105.161 Y85.394 E2.25806
G1 X105.239 Y85.497 E2.2645
G1 X105.546 Y85.918 E2.2905
G1 X105.622 Y86.026 E2.29709
G1 X105.898 Y86.432 E2.32158
G1 X105.961 Y86.528 E2.32731
G1 X106.152 Y86.827 E2.34501
G1 X106.241 Y86.972 E2.3535
G1 X106.389 Y87.227 E2.36821
G1 X106.604 Y87.656 E2.39215
G1 X106.802 Y88.117 E2.41718
G1 X106.988 Y88.651 E2.44539
G1 X107.114 Y89.369 E2.48176
G1 X107.149 Y89.796 E2.50313
G1 X107.155 Y90.362 E2.53137
G1 X107.034 Y91.127 E2.57001
G1 X106.93 Y91.528 E2.59068
G1 X106.75 Y92.064 E2.61889
G1 X106.589 Y92.402 E2.63757
G1 X106.464 Y92.637 E2.65085
G1 X106.375 Y92.797 E2.65998
G1 X106.198 Y93.096 E2.67732
G1 X106.093 Y93.264 E2.6872
G1 X105.781 Y93.736 E2.71543
G1 X105.695 Y93.861 E2.723
G1 X105.229 Y94.511 E2.7629
G1 X105.129 Y94.644 E2.7712
G1 X104.76 Y95.116 E2.80109
G1 X104.679 Y95.216 E2.80751
G1 X104.441 Y95.501 E2.82604
G1 X104.348 Y95.608 E2.83311
G1 X103.99 Y96.007 E2.85985
G1 X103.895 Y96.11 E2.86685
G1 X103.459 Y96.563 E2.89821
G1 X103.352 Y96.67 E2.90576
G1 X103.052 Y96.959 E2.92654
G1 X102.952 Y97.052 E2.93336
G1 X102.504 Y97.455 E2.96342
G1 X102.399 Y97.546 E2.97035
G1 X101.916 Y97.951 E3.0018
G1 X101.824 Y98.026 E3.00772
G1 X101.535 Y98.254 E3.02609
G1 X101.392 Y98.362 E3.03503
G1 X101.15 Y98.536 E3.0499
G1 X101.04 Y98.612 E3.05657
G1 X100.272 Y99.126 E3.10267
G1 X100.141 Y99.21 E3.11044
G1 X99.708 Y99.476 E3.13579
G1 X99.58 Y99.551 E3.14319
G1 X99.13 Y99.805 E3.16897
G1 X99.027 Y99.862 E3.17484
G1 X98.645 Y100.063 E3.19638
G1 X98.521 Y100.125 E3.2033
G1 X98.09 Y100.333 E3.22717
G1 X97.96 Y100.393 E3.23432
G1 X97.407 Y100.636 E3.26445
G1 X97.281 Y100.689 E3.27127
G1 X96.8 Y100.881 E3.29711
G1 X96.658 Y100.934 E3.30467
G1 X96.2 Y101.097 E3.32892
G1 X96.064 Y101.143 E3.33609
G1 X95.447 Y101.338 E3.36837
G1 X95.314 Y101.378 E3.3753
G1 X94.958 Y101.477 E3.39373
G1 X94.828 Y101.51 E3.40043
G1 X94.205 Y101.661 E3.43241
G1 X94.069 Y101.692 E3.43937
G1 X93.617 Y101.785 E3.46239
G1 X93.475 Y101.811 E3.46959
G1 X92.905 Y101.907 E3.49843
G1 X92.785 Y101.926 E3.50449
G1 X92.581 Y101.954 E3.51476
G1 X92.445 Y101.97 E3.5216
G1 X91.596 Y102.057 E3.56417
G1 X91.445 Y102.07 E3.57173
G1 X90.995 Y102.099 E3.59423
G1 X90.841 Y102.106 E3.60192
G1 X90.258 Y102.121 E3.63102
G1 X90.116 Y102.122 E3.6381
G1 X89.507 Y102.116 E3.66849
G1 X89.366 Y102.112 E3.67553
G1 X88.322 Y102.065 E3.72766
G1 X88.258 Y102.062 E3.73086
G1 X66.241 Y100.715 E4.83135
G1 X66.187 Y100.711 E4.83405
G1 X65.451 Y100.656 E4.87087
G1 X64.988 Y100.594 E4.89417
G1 X64.513 Y100.502 E4.91831
G1 X63.967 Y100.356 E4.94651
G1 X63.509 Y100.165 E4.97127
G1 X63.21 Y100.018 E4.98789
G1 X63.097 Y99.96 E4.99423
G1 X62.971 Y99.893 E5.00135
G1 X62.492 Y99.593 E5.02954
G1 X62.137 Y99.301 E5.05248
G1 X61.814 Y99.003 E5.0744
G1 X61.426 Y98.591 E5.10264
G1 X61.2 Y98.285 E5.12161
G1 X61.049 Y98.059 E5.13518
G1 X60.89 Y97.801 E5.15029
G1 X60.766 Y97.581 E5.16289
G1 X60.524 Y97.07 E5.1911
G1 X60.376 Y96.61 E5.21521
G1 X60.253 Y96.13 E5.23993
G1 X60.133 Y95.337 E5.27994
G1 X60.122 Y95.117 E5.29093
G1 X60.117 Y94.97 E5.29827
G1 X60.104 Y93.993 E5.34702
G1 X60.104 Y93.941 E5.34961
G1 X60.102 Y85.772 E5.75717
G1 X60.102 Y85.711 E5.76021
G1 X60.11 Y85.18 E5.7867
G1 X60.131 Y84.826 E5.8044
G1 X60.193 Y84.23 E5.83429
G1 X60.292 Y83.673 E5.86252
G1 X60.439 Y83.208 E5.88685
G1 X60.589 Y82.818 E5.90769
G1 X60.828 Y82.306 E5.93588
G1 X61.041 Y81.966 E5.9559
G1 X61.299 Y81.596 E5.9784
G1 X61.654 Y81.156 E6.00661
G1 X61.897 Y80.917 E6.02361
G1 X62.127 Y80.709 E6.03909
G1 X62.541 Y80.382 E6.06541
G0 F3600 X62.768 Y80.711
G1 F1800 X62.98 Y80.565 E6.07825
G1 X63.443 Y80.295 E6.10499
G1 X63.804 Y80.142 E6.12455
G1 X64.146 Y80.019 E6.14268
G1 X64.643 Y79.88 E6.16843
G1 X64.966 Y79.814 E6.18488
G1 X65.368 Y79.755 E6.20515
G1 X65.593 Y79.735 E6.21642
G1 X65.656 Y79.73 E6.21957
G1 X66.428 Y79.675 E6.25818
G1 X66.464 Y79.673 E6.25998
G1 X88.566 Y78.322 E7.36471
G1 X88.696 Y78.316 E7.3712
G1 X90.169 Y78.279 E7.44472
G1 X90.306 Y78.278 E7.45155
G1 X90.61 Y78.282 E7.46672
G1 X90.707 Y78.285 E7.47156
G1 X90.981 Y78.296 E7.48524
G1 X91.16 Y78.308 E7.49419
G1 X92.037 Y78.387 E7.53812
G1 X92.175 Y78.402 E7.54505
G1 X92.694 Y78.469 E7.57116
G1 X92.831 Y78.489 E7.57806
G1 X93.371 Y78.58 E7.60538
G1 X93.5 Y78.604 E7.61193
G1 X94.121 Y78.732 E7.64356
G1 X94.257 Y78.763 E7.65052
G1 X94.763 Y78.888 E7.67653
G1 X94.884 Y78.92 E7.68277
G1 X95.331 Y79.047 E7.70595
G1 X95.464 Y79.088 E7.7129
G1 X96.147 Y79.311 E7.74874
G1 X96.26 Y79.35 E7.75471
G1 X96.667 Y79.498 E7.77631
G1 X96.796 Y79.547 E7.7832
G1 X97.321 Y79.761 E7.81148
G1 X97.435 Y79.81 E7.81767
G1 X97.843 Y79.993 E7.83998
G1 X97.948 Y80.042 E7.84576
G1 X98.469 Y80.296 E7.87468
G1 X98.585 Y80.356 E7.88119
G1 X98.915 Y80.532 E7.89985
G1 X99.024 Y80.592 E7.90606
G1 X99.674 Y80.968 E7.94352
G1 X99.781 Y81.033 E7.94977
G1 X100.043 Y81.197 E7.96519
G1 X100.132 Y81.254 E7.97046
G1 X100.514 Y81.509 E7.99338
G1 X100.621 Y81.584 E7.9999
G1 X101.113 Y81.939 E8.03017
G1 X101.218 Y82.017 E8.03669
G1 X101.651 Y82.354 E8.06407
G1 X101.748 Y82.432 E8.07028
G1 X102.13 Y82.751 E8.09511
G1 X102.234 Y82.841 E8.10197
G1 X102.736 Y83.294 E8.1357
G1 X102.826 Y83.379 E8.14188
G1 X103.036 Y83.582 E8.15645
G1 X103.129 Y83.675 E8.16301
G1 X103.701 Y84.27 E8.20419
G1 X103.786 Y84.362 E8.21044
G1 X103.994 Y84.594 E8.22598
G1 X104.075 Y84.687 E8.23214
G1 X104.438 Y85.121 E8.26036
G1 X104.515 Y85.217 E8.2665
G1 X104.845 Y85.64 E8.29327
G1 X104.916 Y85.733 E8.29911
G1 X105.223 Y86.154 E8.3251
G1 X105.291 Y86.251 E8.33101
G1 X105.567 Y86.657 E8.3555
G1 X105.624 Y86.743 E8.36065
G1 X105.815 Y87.042 E8.37835
G1 X105.895 Y87.173 E8.38601
G1 X106.043 Y87.428 E8.40072
G1 X106.237 Y87.814 E8.42227
G1 X106.435 Y88.275 E8.4473
G1 X106.609 Y88.782 E8.47405
G1 X106.715 Y89.402 E8.50543
G1 X106.75 Y89.829 E8.5268
G1 X106.754 Y90.365 E8.55354
G1 X106.647 Y91.027 E8.587
G1 X106.543 Y91.428 E8.60767
G1 X106.37 Y91.935 E8.63439
G1 X106.236 Y92.215 E8.64988
G1 X106.111 Y92.45 E8.66316
G1 X106.031 Y92.593 E8.67133
G1 X105.854 Y92.892 E8.68867
G1 X105.759 Y93.043 E8.69757
G1 X105.447 Y93.515 E8.7258
G1 X105.37 Y93.628 E8.73262
G1 X104.904 Y94.278 E8.77252
G1 X104.814 Y94.397 E8.77996
G1 X104.445 Y94.869 E8.80985
G1 X104.372 Y94.96 E8.81568
G1 X104.134 Y95.245 E8.8342
G1 X104.051 Y95.341 E8.84053
G1 X103.693 Y95.74 E8.86728
G1 X103.607 Y95.832 E8.87356
G1 X103.171 Y96.285 E8.90493
G1 X103.075 Y96.382 E8.91173
G1 X102.775 Y96.671 E8.93252
G1 X102.685 Y96.754 E8.93862
G1 X102.237 Y97.157 E8.96869
G1 X102.142 Y97.24 E8.97498
G1 X101.659 Y97.645 E9.00643
G1 X101.576 Y97.712 E9.01175
G1 X101.287 Y97.94 E9.03012
G1 X101.159 Y98.037 E9.03813
G1 X100.917 Y98.211 E9.053
G1 X100.817 Y98.28 E9.05906
G1 X100.049 Y98.794 E9.10517
G1 X99.931 Y98.869 E9.11214
G1 X99.498 Y99.135 E9.13749
G1 X99.384 Y99.203 E9.14412
G1 X98.934 Y99.457 E9.1699
G1 X98.84 Y99.508 E9.17523
G1 X98.458 Y99.709 E9.19677
G1 X98.347 Y99.765 E9.20297
G1 X97.916 Y99.973 E9.22685
G1 X97.799 Y100.027 E9.23327
G1 X97.246 Y100.27 E9.26341
G1 X97.133 Y100.317 E9.26952
G1 X96.652 Y100.509 E9.29535
G1 X96.524 Y100.558 E9.30219
G1 X96.066 Y100.721 E9.32645
G1 X95.944 Y100.762 E9.33287
G1 X95.327 Y100.957 E9.36515
G1 X95.207 Y100.992 E9.37139
G1 X94.851 Y101.091 E9.38982
G1 X94.734 Y101.122 E9.39586
G1 X94.111 Y101.273 E9.42784
G1 X93.989 Y101.3 E9.43407
G1 X93.537 Y101.393 E9.4571
G1 X93.409 Y101.417 E9.46359
G1 X92.839 Y101.513 E9.49243
G1 X92.731 Y101.53 E9.49789
G1 X92.527 Y101.558 E9.50816
G1 X92.404 Y101.572 E9.51434
G1 X91.555 Y101.659 E9.55691
G1 X91.42 Y101.671 E9.56368
G1 X90.97 Y101.7 E9.58617
G1 X90.831 Y101.706 E9.59311
G1 X90.248 Y101.721 E9.62221
G1 X90.12 Y101.722 E9.6286
G1 X89.511 Y101.716 E9.65898
G1 X89.384 Y101.712 E9.66532
G1 X88.34 Y101.665 E9.71746
G1 X88.282 Y101.662 E9.72036
G1 X66.265 Y100.315 E10.82084
G1 X66.217 Y100.312 E10.82324
G1 X65.481 Y100.257 E10.86006
G1 X65.064 Y100.201 E10.88105
G1 X64.589 Y100.109 E10.90519
G1 X64.072 Y99.968 E10.93193
G1 X63.686 Y99.806 E10.95281
G1 X63.387 Y99.659 E10.96944
G1 X63.285 Y99.607 E10.97515
G1 X63.159 Y99.54 E10.98227
G1 X62.705 Y99.253 E11.00906
G1 X62.408 Y99.007 E11.0283
G1 X62.085 Y98.709 E11.05023
G1 X61.719 Y98.317 E11.07698
G1 X61.533 Y98.063 E11.09269
G1 X61.382 Y97.837 E11.10625
G1 X61.239 Y97.605 E11.11985
G1 X61.115 Y97.385 E11.13245
G1 X60.887 Y96.899 E11.15923
G1 X60.764 Y96.511 E11.17954
G1 X60.641 Y96.031 E11.20426
G1 X60.532 Y95.317 E11.24029
G1 X60.521 Y95.097 E11.25128
G1 X60.517 Y94.965 E11.25787
G1 X60.504 Y93.988 E11.30662
G1 X60.504 Y93.941 E11.30896
G1 X60.502 Y85.772 E11.71651
G1 X60.502 Y85.717 E11.71926
G1 X60.51 Y85.186 E11.74575
G1 X60.529 Y84.868 E11.76165
G1 X60.591 Y84.272 E11.79154
G1 X60.686 Y83.744 E11.81831
G1 X60.812 Y83.352 E11.83885
G1 X60.962 Y82.962 E11.8597
G1 X61.191 Y82.477 E11.88645
G1 X61.369 Y82.195 E11.90309
G1 X61.627 Y81.825 E11.9256
G1 X61.966 Y81.409 E11.95237
G1 X62.165 Y81.214 E11.96627
G1 X62.395 Y81.006 E11.98174
G1 X62.768 Y80.711 E12.00547
G0 F3600 X62.995 Y81.041
G1 F1800 X63.207 Y80.895 E12.01831
G1 X63.645 Y80.642 E12.04354
G1 X63.939 Y80.519 E12.05944
G1 X64.281 Y80.396 E12.07758
G1 X64.723 Y80.272 E12.10048
G1 X65.046 Y80.206 E12.11693
G1 X65.404 Y80.154 E12.13497
G1 X65.629 Y80.134 E12.14624
G1 X65.685 Y80.129 E12.14905
G1 X66.457 Y80.074 E12.18766
G1 X66.489 Y80.072 E12.18926
G1 X88.591 Y78.721 E13.29399
G1 X88.706 Y78.716 E13.29973
G1 X90.179 Y78.679 E13.37325
G1 X90.301 Y78.678 E13.37933
G1 X90.605 Y78.682 E13.3945
G1 X90.691 Y78.685 E13.39879
G1 X90.965 Y78.696 E13.41247
G1 X91.124 Y78.706 E13.42042
G1 X92.001 Y78.785 E13.46435
G1 X92.124 Y78.798 E13.47052
G1 X92.643 Y78.865 E13.49663
G1 X92.765 Y78.883 E13.50279
G1 X93.305 Y78.974 E13.53011
G1 X93.419 Y78.996 E13.5359
G1 X94.04 Y79.124 E13.56753
G1 X94.161 Y79.151 E13.57372
G1 X94.667 Y79.276 E13.59972
G1 X94.775 Y79.305 E13.6053
G1 X95.222 Y79.432 E13.62848
G1 X95.34 Y79.468 E13.63464
G1 X96.023 Y79.691 E13.67048
G1 X96.124 Y79.726 E13.67582
G1 X96.531 Y79.874 E13.69742
G1 X96.645 Y79.918 E13.70352
G1 X97.17 Y80.132 E13.7318
G1 X97.272 Y80.175 E13.73733
G1 X97.68 Y80.358 E13.75963
G1 X97.772 Y80.402 E13.76472
G1 X98.293 Y80.656 E13.79364
G1 X98.397 Y80.708 E13.79944
G1 X98.727 Y80.884 E13.8181
G1 X98.823 Y80.938 E13.82359
G1 X99.473 Y81.314 E13.86106
G1 X99.569 Y81.372 E13.86665
G1 X99.831 Y81.536 E13.88207
G1 X99.91 Y81.587 E13.88677
G1 X100.292 Y81.842 E13.90968
G1 X100.387 Y81.908 E13.91545
G1 X100.879 Y82.263 E13.94572
G1 X100.972 Y82.333 E13.95153
G1 X101.405 Y82.67 E13.9789
G1 X101.491 Y82.739 E13.9844
G1 X101.873 Y83.058 E14.00923
G1 X101.966 Y83.138 E14.01535
G1 X102.468 Y83.591 E14.04909
G1 X102.548 Y83.666 E14.05456
G1 X102.758 Y83.869 E14.06913
G1 X102.841 Y83.952 E14.07498
G1 X103.413 Y84.547 E14.11616
G1 X103.489 Y84.629 E14.12174
G1 X103.697 Y84.861 E14.13728
G1 X103.769 Y84.944 E14.14277
G1 X104.132 Y85.378 E14.17099
G1 X104.2 Y85.463 E14.17642
G1 X104.53 Y85.886 E14.20319
G1 X104.593 Y85.969 E14.20839
G1 X104.9 Y86.39 E14.23438
G1 X104.96 Y86.476 E14.23962
G1 X105.236 Y86.882 E14.26411
G1 X105.287 Y86.958 E14.26867
G1 X105.478 Y87.257 E14.28638
G1 X105.549 Y87.374 E14.2932
G1 X105.697 Y87.629 E14.30791
G1 X105.869 Y87.972 E14.32706
G1 X106.067 Y88.433 E14.35209
G1 X106.229 Y88.912 E14.37731
G1 X106.316 Y89.435 E14.40377
G1 X106.351 Y89.862 E14.42514
G1 X106.353 Y90.367 E14.45034
G1 X106.26 Y90.926 E14.47861
G1 X106.156 Y91.327 E14.49927
G1 X105.883 Y92.027 E14.53676
G1 X105.758 Y92.262 E14.55004
G1 X105.687 Y92.389 E14.5573
G1 X105.51 Y92.688 E14.57463
G1 X105.426 Y92.823 E14.58257
G1 X105.114 Y93.295 E14.61079
G1 X105.045 Y93.395 E14.61686
G1 X104.579 Y94.045 E14.65676
G1 X104.499 Y94.151 E14.66338
G1 X104.13 Y94.623 E14.69327
G1 X104.065 Y94.703 E14.69841
G1 X103.827 Y94.988 E14.71694
G1 X103.753 Y95.074 E14.7226
G1 X103.395 Y95.473 E14.74934
G1 X103.319 Y95.555 E14.75492
G1 X102.883 Y96.008 E14.78629
G1 X102.797 Y96.094 E14.79236
G1 X102.497 Y96.383 E14.81314
G1 X102.417 Y96.457 E14.81858
G1 X101.969 Y96.86 E14.84864
G1 X101.885 Y96.933 E14.85419
G1 X101.402 Y97.338 E14.88564
G1 X101.328 Y97.398 E14.89039
G1 X101.039 Y97.626 E14.90876
G1 X100.925 Y97.712 E14.91588
G1 X100.683 Y97.886 E14.93075
G1 X100.595 Y97.947 E14.93609
G1 X99.827 Y98.461 E14.9822
G1 X99.722 Y98.529 E14.98844
G1 X99.289 Y98.795 E15.01379
G1 X99.187 Y98.855 E15.0197
G1 X98.737 Y99.109 E15.04548
G1 X98.654 Y99.154 E15.05019
G1 X98.272 Y99.355 E15.07172
G1 X98.173 Y99.405 E15.07726
G1 X97.742 Y99.613 E15.10113
G1 X97.638 Y99.661 E15.10685
G1 X97.085 Y99.904 E15.13698
G1 X96.984 Y99.946 E15.14244
G1 X96.503 Y100.138 E15.16828
G1 X96.39 Y100.181 E15.17431
G1 X95.932 Y100.344 E15.19856
G1 X95.823 Y100.38 E15.20429
G1 X95.206 Y100.575 E15.23657
G1 X95.099 Y100.607 E15.24214
G1 X94.743 Y100.706 E15.26058
G1 X94.64 Y100.733 E15.26589
G1 X94.017 Y100.884 E15.29787
G1 X93.908 Y100.908 E15.30344
G1 X93.456 Y101.001 E15.32646
G1 X93.342 Y101.023 E15.33226
G1 X92.772 Y101.119 E15.36109
G1 X92.676 Y101.133 E15.36594
G1 X92.472 Y101.161 E15.37621
G1 X92.363 Y101.174 E15.38168
G1 X91.514 Y101.261 E15.42426
G1 X91.394 Y101.271 E15.43027
G1 X90.944 Y101.3 E15.45277
G1 X90.82 Y101.306 E15.45896
G1 X90.237 Y101.321 E15.48806
G1 X90.123 Y101.322 E15.49374
