;FLAVOR:Marlin
;TIME:1757
;Filament used: 1.75329m
;Layer height: 0.15
;MINX:75.932
;MINY:71.75
;MINZ:0.3
;MAXX:108.268
;MAXY:108.25
;MAXZ:34.65
;Generated with Cura_SteamEngine 4.1.0
M140 S60
M105
M190 S60
M104 S200
M105
M109 S200
M82 ;absolute extrusion mode
G28 ;Home
G1 Z15.0 F6000 ;Move the platform down 15mm
;Prime the extruder
G92 E0
G1 F200 E3
G92 E0
G92 E0
G92 E0
G1 F1500 E-6.5
;LAYER_COUNT:232
;LAYER:0
M107
G0 F3600 X81.272 Y73.119 Z0.3
;TYPE:SKIRT
G1 F1500 E0
G1 F1800 X81.674 Y72.722 E0.02819
G1 X82.128 Y72.385 E0.0564
G1 X82.625 Y72.116 E0.08459
G1 X83.155 Y71.919 E0.1128
G1 X83.708 Y71.8 E0.14102
G1 X84.165 Y71.761 E0.1639
G1 X84.486 Y71.752 E0.17992
G1 X84.598 Y71.75 E0.18551
G1 X91.64 Y71.75 E0.53684
G1 X92.855 Y71.767 E0.59746
G1 X95.613 Y71.767 E0.73506
G1 X96.51 Y71.751 E0.77982
G1 X96.581 Y71.75 E0.78336
G1 X103.618 Y71.75 E1.13444
G1 X104.316 Y71.76 E1.16926
G1 X104.88 Y71.808 E1.1975
G1 X105.43 Y71.935 E1.22567
G1 X105.958 Y72.139 E1.25391
G1 X106.452 Y72.414 E1.28211
G1 X106.901 Y72.757 E1.3103
G1 X107.298 Y73.159 E1.33849
G1 X107.635 Y73.614 E1.36674
G1 X107.903 Y74.111 E1.39491
G1 X108.099 Y74.641 E1.4231
G1 X108.219 Y75.194 E1.45133
G1 X108.257 Y75.648 E1.47406
G1 X108.266 Y75.968 E1.49003
G1 X108.268 Y76.08 E1.49562
G1 X108.268 Y84.07 E1.89424
G1 X108.26 Y84.628 E1.92209
G1 X108.268 Y88.054 E2.09301
G1 X108.268 Y96.08 E2.49343
G1 X108.258 Y96.797 E2.5292
G1 X108.21 Y97.36 E2.55739
G1 X108.083 Y97.911 E2.5856
G1 X107.88 Y98.439 E2.61383
G1 X107.604 Y98.932 E2.64201
G1 X107.262 Y99.382 E2.67021
G1 X106.974 Y99.678 E2.69082
G1 X106.708 Y99.924 E2.70889
G1 X104.706 Y101.79 E2.84543
G1 X102.746 Y103.725 E2.98284
G1 X100.891 Y105.663 E3.11668
G1 X100.485 Y106.111 E3.14684
G1 X100.45 Y106.149 E3.14942
G1 X99.691 Y106.965 E3.20502
G1 X99.278 Y107.351 E3.23322
G1 X98.814 Y107.675 E3.26146
G1 X98.309 Y107.93 E3.28968
G1 X97.774 Y108.111 E3.31786
G1 X97.218 Y108.215 E3.34608
G1 X96.873 Y108.239 E3.36333
G1 X96.549 Y108.248 E3.3795
G1 X96.438 Y108.25 E3.38504
G1 X87.732 Y108.25 E3.81939
G1 X87.034 Y108.24 E3.85421
G1 X86.47 Y108.192 E3.88245
G1 X85.92 Y108.065 E3.91061
G1 X85.392 Y107.861 E3.93885
G1 X84.898 Y107.586 E3.96706
G1 X84.449 Y107.243 E3.99525
G1 X84.052 Y106.841 E4.02344
G1 X83.715 Y106.386 E4.05169
G1 X83.447 Y105.889 E4.07986
G1 X83.324 Y105.586 E4.09617
G1 X83.111 Y104.99 E4.12775
G1 X83.089 Y104.927 E4.13108
G1 X82.605 Y103.498 E4.20635
G1 X81.67 Y100.972 E4.34073
G1 X80.57 Y98.247 E4.48734
G1 X80.396 Y97.709 E4.51555
G1 X80.281 Y96.883 E4.55715
G1 X80.27 Y96.554 E4.57358
G1 X80.268 Y96.42 E4.58026
G1 X80.268 Y88.418 E4.97948
G1 X80.276 Y87.871 E5.00678
G1 X80.268 Y84.446 E5.17765
G1 X80.268 Y76.37 E5.58056
G1 X80.277 Y75.705 E5.61374
G1 X80.325 Y75.142 E5.64193
G1 X80.451 Y74.591 E5.67013
G1 X80.654 Y74.063 E5.69836
G1 X80.93 Y73.569 E5.72659
G1 X81.272 Y73.119 E5.75479
G0 F3600 X81.665 Y73.281
G1 F1800 X82.062 Y72.921 E5.78152
G1 X82.509 Y72.623 E5.80833
G1 X82.994 Y72.395 E5.83506
G1 X83.508 Y72.242 E5.86182
G1 X84.176 Y72.16 E5.89539
G1 X84.497 Y72.151 E5.91142
G1 X84.598 Y72.15 E5.91645
G1 X91.634 Y72.15 E6.26748
G1 X92.849 Y72.167 E6.3281
G1 X95.62 Y72.167 E6.46635
G1 X96.517 Y72.151 E6.51111
G1 X96.581 Y72.15 E6.5143
G1 X103.613 Y72.15 E6.86513
G1 X104.311 Y72.16 E6.89996
G1 X104.845 Y72.208 E6.92671
G1 X105.366 Y72.334 E6.95345
G1 X105.863 Y72.537 E6.98023
G1 X106.324 Y72.811 E7.00699
G1 X106.739 Y73.15 E7.03372
G1 X107.099 Y73.548 E7.0605
G1 X107.396 Y73.994 E7.08723
G1 X107.624 Y74.48 E7.11401
G1 X107.776 Y74.994 E7.14075
G1 X107.858 Y75.659 E7.17418
G1 X107.867 Y75.979 E7.19015
G1 X107.868 Y76.08 E7.19519
G1 X107.868 Y84.065 E7.59356
G1 X107.86 Y84.623 E7.62141
G1 X107.868 Y88.055 E7.79263
G1 X107.868 Y96.074 E8.1927
G1 X107.858 Y96.791 E8.22847
G1 X107.81 Y97.325 E8.25522
G1 X107.684 Y97.847 E8.28201
G1 X107.482 Y98.343 E8.30873
G1 X107.208 Y98.804 E8.33549
G1 X106.702 Y99.384 E8.37389
G1 X106.447 Y99.619 E8.39119
G1 X106.448 Y99.62 E8.39126
G1 X104.399 Y101.531 E8.53104
G1 X102.477 Y103.429 E8.66581
G1 X100.59 Y105.4 E8.80194
G1 X100.189 Y105.842 E8.83171
G1 X100.157 Y105.877 E8.83408
G1 X99.398 Y106.693 E8.88968
G1 X99.005 Y107.057 E8.9164
G1 X98.561 Y107.359 E8.94319
G1 X98.078 Y107.592 E8.96995
G1 X97.566 Y107.75 E8.99668
G1 X96.862 Y107.84 E9.03209
G1 X96.538 Y107.849 E9.04826
G1 X96.438 Y107.85 E9.05325
G1 X87.737 Y107.85 E9.48734
G1 X87.039 Y107.84 E9.52217
G1 X86.505 Y107.792 E9.54892
G1 X85.984 Y107.666 E9.57566
G1 X85.487 Y107.463 E9.60245
G1 X85.026 Y107.189 E9.6292
G1 X84.611 Y106.85 E9.65593
G1 X84.251 Y106.452 E9.68271
G1 X83.954 Y106.006 E9.70944
G1 X83.701 Y105.452 E9.73983
G1 X83.488 Y104.856 E9.7714
G1 X83.468 Y104.798 E9.77446
G1 X82.987 Y103.379 E9.84922
G1 X82.04 Y100.82 E9.98535
G1 X80.941 Y98.097 E10.13184
G1 X80.778 Y97.586 E10.1586
G1 X80.681 Y96.869 E10.1947
G1 X80.67 Y96.54 E10.21112
G1 X80.668 Y96.42 E10.21711
G1 X80.668 Y88.423 E10.61608
G1 X80.676 Y87.876 E10.64338
G1 X80.668 Y84.445 E10.81455
G1 X80.668 Y76.375 E11.21716
G1 X80.677 Y75.71 E11.25034
G1 X80.725 Y75.176 E11.27709
G1 X80.851 Y74.655 E11.30383
G1 X81.053 Y74.158 E11.3306
G1 X81.326 Y73.697 E11.35733
G1 X81.665 Y73.281 E11.3841
G0 F3600 X81.722 Y73.832
G1 F1800 X82.057 Y73.454 E11.4093
G1 X82.448 Y73.133 E11.43454
G1 X82.885 Y72.878 E11.45978
G1 X83.356 Y72.694 E11.48501
G1 X83.85 Y72.588 E11.51022
G1 X84.187 Y72.56 E11.52709
G1 X84.508 Y72.551 E11.54311
G1 X84.598 Y72.55 E11.5476
G1 X91.629 Y72.55 E11.89838
G1 X92.844 Y72.567 E11.959
G1 X95.627 Y72.567 E12.09784
G1 X96.524 Y72.551 E12.1426
G1 X96.581 Y72.55 E12.14545
G1 X103.607 Y72.55 E12.49598
G1 X104.305 Y72.56 E12.5308
G1 X104.808 Y72.607 E12.55601
G1 X105.298 Y72.733 E12.58125
G1 X105.762 Y72.935 E12.6065
G1 X106.188 Y73.207 E12.63171
G1 X106.566 Y73.542 E12.65691
G1 X106.886 Y73.933 E12.68212
G1 X107.141 Y74.37 E12.70736
G1 X107.324 Y74.841 E12.73257
G1 X107.431 Y75.335 E12.75779
G1 X107.458 Y75.67 E12.77455
G1 X107.467 Y75.99 E12.79053
G1 X107.468 Y76.08 E12.79502
G1 X107.468 Y84.059 E13.19309
G1 X107.46 Y84.617 E13.22093
G1 X107.468 Y88.056 E13.3925
G1 X107.468 Y96.069 E13.79227
G1 X107.458 Y96.786 E13.82805
G1 X107.411 Y97.289 E13.85325
G1 X107.285 Y97.779 E13.87849
G1 X107.084 Y98.243 E13.90372
G1 X106.812 Y98.669 E13.92894
G1 X106.431 Y99.09 E13.95727
G1 X106.165 Y99.336 E13.97534
G1 X104.128 Y101.236 E14.11431
G1 X102.189 Y103.15 E14.25024
G1 X100.304 Y105.12 E14.38627
G1 X99.892 Y105.574 E14.41686
G1 X99.864 Y105.604 E14.41891
G1 X99.105 Y106.42 E14.4745
G1 X98.733 Y106.762 E14.49971
G1 X98.311 Y107.041 E14.52495
G1 X97.851 Y107.25 E14.55016
G1 X97.363 Y107.384 E14.57541
G1 X96.851 Y107.44 E14.6011
G1 X96.527 Y107.449 E14.61727
G1 X96.438 Y107.45 E14.62172
G1 X87.743 Y107.45 E15.05551
G1 X87.045 Y107.44 E15.09034
G1 X86.542 Y107.393 E15.11554
G1 X86.052 Y107.267 E15.14078
G1 X85.588 Y107.065 E15.16603
G1 X85.162 Y106.793 E15.19125
G1 X84.784 Y106.458 E15.21645
G1 X84.464 Y106.067 E15.24165
G1 X84.209 Y105.63 E15.2669
G1 X84.078 Y105.317 E15.28382
G1 X83.865 Y104.721 E15.3154
G1 X83.847 Y104.67 E15.3181
G1 X83.366 Y103.248 E15.39299
G1 X82.41 Y100.668 E15.53026
G1 X81.312 Y97.947 E15.67665
G1 X81.16 Y97.465 E15.70186
G1 X81.081 Y96.856 E15.7325
G1 X81.07 Y96.527 E15.74892
G1 X81.068 Y96.42 E15.75426
G1 X81.068 Y88.429 E16.15293
G1 X81.076 Y87.882 E16.18023
G1 X81.068 Y84.444 E16.35175
G1 X81.068 Y76.381 E16.75401
G1 X81.077 Y75.716 E16.78719
G1 X81.124 Y75.212 E16.81245
G1 X81.25 Y74.723 E16.83764
G1 X81.451 Y74.259 E16.86287
G1 X81.722 Y73.832 E16.8881
G1 F1500 E10.3881
;MESH:calicat.stl
G0 F3600 X83.603 Y76.364
G0 X84.882 Y76.364
G0 X84.938 Y84.08
G0 X84.868 Y84.15
;TYPE:WALL-INNER
G1 F1500 E16.8881
G1 F1800 X84.868 Y76.35 E17.27724
G1 X91.668 Y76.35 E17.6165
G1 X91.668 Y84.15 E18.00564
G1 X84.868 Y84.15 E18.34489
G0 F3600 X84.468 Y84.55
;TYPE:WALL-OUTER
G1 F1800 X84.468 Y75.95 E18.77395
G1 X92.068 Y75.95 E19.15312
G1 X92.068 Y84.55 E19.58217
G1 X84.468 Y84.55 E19.96134
G0 F3600 X84.468 Y84.35
G0 X85.258 Y83.76
;TYPE:SKIN
G1 F1800 X85.258 Y76.74 E20.31157
G1 X91.278 Y76.74 E20.6119
G1 X91.278 Y83.76 E20.96213
G1 X85.258 Y83.76 E21.26247
G0 F3600 X85.842 Y83.579
G1 F1800 X85.436 Y83.174 E21.29108
G0 F3600 X85.436 Y82.608
G1 F1800 X86.407 Y83.579 E21.35959
G0 F3600 X86.973 Y83.579
G1 F1800 X85.436 Y82.042 E21.46804
G0 F3600 X85.436 Y81.477
G1 F1800 X87.539 Y83.579 E21.61638
G0 F3600 X88.104 Y83.579
G1 F1800 X85.436 Y80.911 E21.80462
G0 F3600 X85.436 Y80.345
G1 F1800 X88.67 Y83.579 E22.0328
G0 F3600 X89.236 Y83.579
G1 F1800 X85.436 Y79.78 E22.30087
G0 F3600 X85.436 Y79.214
G1 F1800 X89.801 Y83.579 E22.60885
G0 F3600 X90.367 Y83.579
G1 F1800 X85.436 Y78.648 E22.95676
G0 F3600 X85.436 Y78.082
G1 F1800 X90.933 Y83.579 E23.3446
G0 F3600 X91.097 Y83.177
G1 F1800 X85.436 Y77.517 E23.74398
G0 F3600 X85.436 Y76.951
G1 F1800 X91.097 Y82.611 E24.14336
G0 F3600 X91.097 Y82.046
G1 F1800 X85.97 Y76.919 E24.50509
G0 F3600 X86.536 Y76.919
G1 F1800 X91.097 Y81.48 E24.8269
G0 F3600 X91.097 Y80.914
G1 F1800 X87.102 Y76.919 E25.10877
G0 F3600 X87.667 Y76.919
G1 F1800 X91.097 Y80.349 E25.35077
G0 F3600 X91.097 Y79.783
G1 F1800 X88.233 Y76.919 E25.55284
G0 F3600 X88.799 Y76.919
G1 F1800 X91.097 Y79.217 E25.71498
G0 F3600 X91.097 Y78.652
G1 F1800 X89.364 Y76.919 E25.83725
G0 F3600 X89.93 Y76.919
G1 F1800 X91.097 Y78.086 E25.91959
G0 F3600 X91.097 Y77.52
G1 F1800 X90.496 Y76.919 E25.96199
G1 X90.426 Y76.849
G1 F1500 E19.46199
G0 F3600 X91.648 Y84.08
G0 X92.933 Y84.08
G0 X95.603 Y84.08
G0 X96.888 Y84.08
G0 X96.868 Y84.15
;TYPE:WALL-INNER
G1 F1500 E25.96199
G1 F1800 X96.868 Y76.35 E26.35114
G1 X103.668 Y76.35 E26.69039
G1 X103.668 Y84.15 E27.07953
G1 X96.868 Y84.15 E27.41879
G0 F3600 X96.468 Y84.55
;TYPE:WALL-OUTER
G1 F1800 X96.468 Y75.95 E27.84784
G1 X104.068 Y75.95 E28.22701
G1 X104.068 Y84.55 E28.65606
G1 X96.468 Y84.55 E29.03523
G0 F3600 X96.468 Y84.35
G0 X97.258 Y83.76
;TYPE:SKIN
G1 F1800 X97.258 Y76.74 E29.38546
G1 X103.278 Y76.74 E29.6858
G1 X103.278 Y83.76 E30.03603
G1 X97.258 Y83.76 E30.33637
G0 F3600 X97.722 Y83.58
G1 F1800 X97.437 Y83.295 E30.35647
G0 F3600 X97.437 Y82.729
G1 F1800 X98.287 Y83.58 E30.41648
G0 F3600 X98.853 Y83.58
G1 F1800 X97.437 Y82.163 E30.51642
G0 F3600 X97.437 Y81.598
G1 F1800 X99.419 Y83.58 E30.65626
G0 F3600 X99.984 Y83.58
G1 F1800 X97.437 Y81.032 E30.836
G0 F3600 X97.437 Y80.466
G1 F1800 X100.55 Y83.58 E31.05568
G0 F3600 X101.116 Y83.58
G1 F1800 X97.437 Y79.9 E31.31529
G0 F3600 X97.437 Y79.335
G1 F1800 X101.681 Y83.58 E31.61476
G0 F3600 X102.247 Y83.58
G1 F1800 X97.437 Y78.769 E31.95417
G0 F3600 X97.437 Y78.203
G1 F1800 X102.813 Y83.58 E32.33351
G0 F3600 X103.097 Y83.298
G1 F1800 X97.437 Y77.638 E32.73285
G0 F3600 X97.437 Y77.072
G1 F1800 X103.097 Y82.732 E33.13219
G0 F3600 X103.097 Y82.167
G1 F1800 X97.85 Y76.919 E33.50243
G0 F3600 X98.415 Y76.919
G1 F1800 X103.097 Y81.601 E33.83277
G0 F3600 X103.097 Y81.035
G1 F1800 X98.981 Y76.919 E34.12318
G0 F3600 X99.547 Y76.919
G1 F1800 X103.097 Y80.47 E34.37369
G0 F3600 X103.097 Y79.904
G1 F1800 X100.112 Y76.919 E34.58429
G0 F3600 X100.678 Y76.919
G1 F1800 X103.097 Y79.338 E34.75497
G0 F3600 X103.097 Y78.773
G1 F1800 X101.244 Y76.919 E34.88574
G0 F3600 X101.809 Y76.919
G1 F1800 X103.097 Y78.207 E34.97662
G0 F3600 X103.097 Y77.641
G1 F1800 X102.375 Y76.919 E35.02756
G0 F3600 X102.941 Y76.919
G1 F1800 X103.097 Y77.076 E35.0386
G1 F1500 E28.5386
G0 F3600 X96.882 Y84.136
G0 X96.882 Y85.415
G0 X95.615 Y87.097
G0 X95.615 Y92.097
G0 X96.882 Y93.364
G0 X96.098 Y96.08
G0 X96.168 Y96.15
;TYPE:WALL-INNER
G1 F1500 E35.0386
G1 F1800 X96.168 Y103.65 E35.41278
G1 X87.682 Y103.65 E35.83615
G1 X87.681 Y100.05 E36.01575
G1 X87.681 Y99.85 E36.02573
G1 X87.881 Y99.85 E36.03219
G1 X92.368 Y99.85 E36.25605
G1 X92.368 Y96.15 E36.44064
G1 X84.868 Y96.15 E36.81482
G1 X84.868 Y88.35 E37.20396
G1 X91.668 Y88.35 E37.54321
G1 X91.668 Y93.35 E37.79266
G1 X96.868 Y93.35 E38.05209
G1 X96.868 Y88.35 E38.30154
G1 X103.668 Y88.35 E38.6408
G1 X103.668 Y96.15 E39.02994
G1 X96.168 Y96.15 E39.40412
G0 F3600 X96.568 Y96.55
;TYPE:WALL-OUTER
G1 F1800 X96.568 Y104.05 E39.77829
G1 X87.282 Y104.05 E40.24157
G1 X87.281 Y99.65 E40.46109
G1 X87.281 Y99.45 E40.47107
G1 X87.481 Y99.45 E40.47753
G1 X91.968 Y99.45 E40.70139
G1 X91.968 Y96.55 E40.84607
G1 X84.468 Y96.55 E41.22025
G1 X84.468 Y87.95 E41.6493
G1 X92.068 Y87.95 E42.02847
G1 X92.068 Y92.95 E42.27792
G1 X96.468 Y92.95 E42.49744
G1 X96.468 Y87.95 E42.74689
G1 X104.068 Y87.95 E43.12605
G1 X104.068 Y96.55 E43.55511
G1 X96.568 Y96.55 E43.92928
G0 F3600 X96.568 Y96.75
G0 X96.068 Y96.75
G0 X95.778 Y95.76
;TYPE:SKIN
G1 F1800 X95.778 Y103.26 E44.30346
G1 X88.072 Y103.26 E44.68791
G1 X88.071 Y100.24 E44.83858
G1 X92.758 Y100.24 E45.07242
G1 X92.758 Y95.76 E45.29593
G1 X85.258 Y95.76 E45.6701
G1 X85.258 Y88.74 E46.02033
G1 X91.278 Y88.74 E46.32067
G1 X91.278 Y93.74 E46.57012
G1 X97.258 Y93.74 E46.86847
G1 X97.258 Y88.74 E47.11792
G1 X103.278 Y88.74 E47.41826
G1 X103.278 Y95.76 E47.76848
G1 X95.778 Y95.76 E48.14266
G0 F3600 X103.097 Y89.521
G1 F1800 X102.496 Y88.92 E48.18507
G0 F3600 X101.93 Y88.92
G1 F1800 X103.097 Y90.086 E48.26737
G0 F3600 X103.097 Y90.652
G1 F1800 X101.365 Y88.92 E48.38957
G0 F3600 X100.799 Y88.92
G1 F1800 X103.097 Y91.218 E48.55171
G0 F3600 X103.097 Y91.783
G1 F1800 X100.233 Y88.92 E48.75374
G0 F3600 X99.668 Y88.92
G1 F1800 X103.097 Y92.349 E48.99568
G0 F3600 X103.097 Y92.915
G1 F1800 X99.102 Y88.92 E49.27754
G0 F3600 X98.536 Y88.92
G1 F1800 X103.097 Y93.48 E49.59931
G0 F3600 X103.097 Y94.046
G1 F1800 X97.971 Y88.92 E49.96098
G0 F3600 X97.437 Y88.951
G1 F1800 X103.097 Y94.612 E50.36036
G0 F3600 X103.097 Y95.177
G1 F1800 X97.437 Y89.517 E50.7597
G0 F3600 X97.437 Y90.083
G1 F1800 X102.933 Y95.579 E51.14747
G0 F3600 X102.367 Y95.579
G1 F1800 X97.437 Y90.648 E51.49535
G0 F3600 X97.437 Y91.214
G1 F1800 X101.802 Y95.579 E51.80332
G0 F3600 X101.236 Y95.579
G1 F1800 X97.437 Y91.78 E52.07136
G0 F3600 X97.437 Y92.346
G1 F1800 X100.67 Y95.579 E52.29947
G0 F3600 X100.105 Y95.579
G1 F1800 X97.437 Y92.911 E52.48771
G0 F3600 X97.437 Y93.477
G1 F1800 X99.539 Y95.579 E52.63602
G0 F3600 X98.973 Y95.579
G1 F1800 X97.314 Y93.92 E52.75307
G0 F3600 X96.748 Y93.92
G1 F1800 X98.408 Y95.579 E52.87016
G0 F3600 X97.842 Y95.579
G1 F1800 X96.182 Y93.92 E52.98724
G0 F3600 X95.617 Y93.92
G1 F1800 X97.276 Y95.579 E53.10429
G0 F3600 X96.71 Y95.579
G1 F1800 X95.051 Y93.92 E53.22134
G0 F3600 X94.485 Y93.92
G1 F1800 X96.145 Y95.579 E53.33843
G0 F3600 X95.598 Y95.598
G1 F1800 X93.92 Y93.92 E53.45682
G0 F3600 X93.354 Y93.92
G1 F1800 X95.598 Y96.163 E53.61511
G0 F3600 X95.598 Y96.729
G1 F1800 X92.788 Y93.92 E53.81334
G0 F3600 X92.222 Y93.92
G1 F1800 X95.598 Y97.295 E54.0515
G0 F3600 X95.598 Y97.86
G1 F1800 X91.657 Y93.92 E54.32952
G0 F3600 X91.097 Y93.36
G1 F1800 X86.656 Y88.919 E54.64286
G0 F3600 X87.222 Y88.919
G1 F1800 X91.097 Y92.795 E54.9163
G0 F3600 X91.097 Y92.229
G1 F1800 X87.788 Y88.919 E55.1498
G0 F3600 X88.353 Y88.919
G1 F1800 X91.097 Y91.663 E55.3434
G0 F3600 X91.097 Y91.097
G1 F1800 X88.919 Y88.919 E55.49707
G0 F3600 X89.485 Y88.919
G1 F1800 X91.097 Y90.532 E55.61084
G0 F3600 X91.097 Y89.966
G1 F1800 X90.05 Y88.919 E55.68472
G0 F3600 X90.616 Y88.919
G1 F1800 X91.097 Y89.4 E55.71865
G0 F3600 X86.09 Y88.919
G1 F1800 X92.751 Y95.579 E56.18859
G0 F3600 X92.937 Y95.766
G1 F1800 X95.598 Y98.426 E56.3763
G0 F3600 X95.598 Y98.992
G1 F1800 X92.937 Y96.331 E56.56405
G0 F3600 X92.937 Y96.897
G1 F1800 X95.598 Y99.557 E56.75176
G0 F3600 X95.598 Y100.123
G1 F1800 X92.937 Y97.463 E56.93947
G0 F3600 X92.937 Y98.029
