;FLAVOR:Marlin
;TIME:162
;Filament used: 0.184161m
;Layer height: 0.15
;MINX:74.912
;MINY:62.2
;MINZ:0.3
;MAXX:104.898
;MAXY:117.8
;MAXZ:1.65
;Generated with Cura_SteamEngine 4.1.0
M140 S60
M105
M190 S60
M104 S200
M105
M109 S200
M82 ;absolute extrusion mode
G28 ;Home
G1 Z15.0 F6000 ;Move the platform down 15mm
;Prime the extruder
G92 E0
G1 F200 E3
G92 E0
G92 E0
G92 E0
G1 F1500 E-6.5
;LAYER_COUNT:10
;LAYER:0
M107
G0 F3600 X89.005 Y65.547 Z0.3
;TYPE:SKIRT
G1 F1500 E0
G1 F1800 X89.488 Y64.922 E0.03941
G1 X90.032 Y64.35 E0.07879
G1 X90.631 Y63.835 E0.1182
G1 X91.278 Y63.383 E0.15758
G1 X91.969 Y63 E0.19699
G1 X92.694 Y62.688 E0.23637
G1 X93.447 Y62.451 E0.27575
G1 X94.221 Y62.291 E0.31518
G1 X95.006 Y62.21 E0.35456
G1 X95.409 Y62.2 E0.37467
G1 X96.37 Y62.2 E0.42261
G1 X97.159 Y62.24 E0.46203
G1 X97.939 Y62.359 E0.50139
G1 X98.704 Y62.557 E0.54082
G1 X99.444 Y62.831 E0.58018
G1 X100.153 Y63.179 E0.61959
G1 X100.824 Y63.597 E0.65903
G1 X101.448 Y64.08 E0.6984
G1 X102.021 Y64.623 E0.73778
G1 X102.536 Y65.222 E0.77719
G1 X102.987 Y65.87 E0.81658
G1 X103.371 Y66.561 E0.85602
G1 X103.683 Y67.286 E0.8954
G1 X103.92 Y68.039 E0.93478
G1 X104.079 Y68.813 E0.9742
G1 X104.16 Y69.598 E1.01357
G1 X104.17 Y69.997 E1.03349
G1 X104.172 Y74.532 E1.25974
G1 X104.41 Y75.086 E1.28982
G1 X104.647 Y75.839 E1.3292
G1 X104.806 Y76.613 E1.36862
G1 X104.887 Y77.398 E1.408
G1 X104.897 Y77.794 E1.42776
G1 X104.898 Y78.994 E1.48763
G1 X104.859 Y79.782 E1.52699
G1 X104.74 Y80.563 E1.5664
G1 X104.543 Y81.328 E1.60581
G1 X104.269 Y82.068 E1.64518
G1 X104.172 Y82.266 E1.65618
G1 X104.173 Y95.995 E2.34113
G1 X104.298 Y96.286 E2.35693
G1 X104.535 Y97.039 E2.39631
G1 X104.694 Y97.813 E2.43573
G1 X104.775 Y98.598 E2.4751
G1 X104.785 Y99 E2.49517
G1 X104.785 Y100.2 E2.55503
G1 X104.745 Y100.989 E2.59445
G1 X104.626 Y101.769 E2.63381
G1 X104.428 Y102.534 E2.67324
G1 X104.172 Y103.225 E2.71
G1 X104.173 Y105.795 E2.83822
G1 X104.298 Y106.086 E2.85402
G1 X104.535 Y106.839 E2.8934
G1 X104.694 Y107.613 E2.93282
G1 X104.775 Y108.398 E2.9722
G1 X104.785 Y108.8 E2.99226
G1 X104.785 Y110 E3.05213
G1 X104.745 Y110.789 E3.09154
G1 X104.626 Y111.569 E3.1309
G1 X104.428 Y112.334 E3.17033
G1 X104.154 Y113.074 E3.2097
G1 X103.806 Y113.783 E3.2491
G1 X103.388 Y114.454 E3.28854
G1 X102.905 Y115.078 E3.32791
G1 X102.362 Y115.651 E3.36729
G1 X101.763 Y116.166 E3.4067
G1 X101.115 Y116.617 E3.44609
G1 X100.424 Y117.001 E3.48553
G1 X99.699 Y117.313 E3.52491
G1 X98.946 Y117.55 E3.56429
G1 X98.172 Y117.709 E3.60371
G1 X97.387 Y117.79 E3.64309
G1 X96.985 Y117.8 E3.66315
G1 X94.797 Y117.8 E3.77231
G1 X94.008 Y117.76 E3.81172
G1 X93.228 Y117.641 E3.85109
G1 X92.463 Y117.443 E3.89051
G1 X91.723 Y117.169 E3.92988
G1 X91.014 Y116.821 E3.96928
G1 X90.343 Y116.403 E4.00872
G1 X89.719 Y115.92 E4.04809
G1 X89.219 Y115.447 E4.08243
G1 X88.972 Y115.347 E4.09572
G1 X88.207 Y114.939 E4.13898
G1 X87.687 Y114.624 E4.16931
G1 X87.338 Y114.4 E4.19
G1 X86.762 Y114.007 E4.22479
G1 X86.48 Y113.836 E4.24124
G1 X86.424 Y113.805 E4.24443
G1 X85.981 Y113.754 E4.26668
G1 X85.312 Y113.633 E4.3006
G1 X85.162 Y113.605 E4.30821
G1 X84.64 Y113.5 E4.33478
G1 X84.155 Y113.386 E4.35963
G1 X83.414 Y113.187 E4.39791
G1 X82.682 Y112.951 E4.43628
G1 X82.38 Y112.837 E4.45239
G1 X81.657 Y112.521 E4.49175
G1 X81.555 Y112.463 E4.49761
G1 X81.384 Y112.41 E4.50654
G1 X80.814 Y112.174 E4.53732
G1 X80.4 Y111.983 E4.56006
G1 X79.968 Y111.8 E4.58347
G1 X79.749 Y111.703 E4.59542
G1 X79.451 Y111.566 E4.61178
G1 X78.751 Y111.2 E4.65119
G1 X78.092 Y110.766 E4.69056
G1 X77.48 Y110.266 E4.72999
G1 X76.921 Y109.708 E4.76939
G1 X76.422 Y109.096 E4.80879
G1 X75.988 Y108.437 E4.84815
G1 X75.622 Y107.737 E4.88756
G1 X75.329 Y107.004 E4.92694
G1 X75.111 Y106.244 E4.96639
G1 X74.972 Y105.467 E5.00577
G1 X74.912 Y104.68 E5.04515
G1 X74.931 Y103.89 E5.08457
G1 X75.031 Y103.107 E5.12395
G1 X75.209 Y102.338 E5.16333
G1 X75.464 Y101.59 E5.20276
G1 X75.793 Y100.872 E5.24216
G1 X76.193 Y100.192 E5.28152
G1 X76.66 Y99.555 E5.32093
G1 X77.189 Y98.968 E5.36035
G1 X77.774 Y98.438 E5.39973
G1 X78.41 Y97.97 E5.43913
G1 X79.09 Y97.569 E5.47851
G1 X79.808 Y97.239 E5.51794
G1 X80.493 Y97.001 E5.55412
G1 X80.989 Y96.854 E5.57993
G1 X81.065 Y96.831 E5.58389
G1 X81.794 Y96.623 E5.62171
G1 X81.794 Y96.624 E5.62176
G1 X81.82 Y96.617 E5.6231
G1 X82.116 Y96.483 E5.63931
G1 X82.641 Y96.263 E5.66771
G1 X82.904 Y96.137 E5.68226
G1 X83.534 Y95.81 E5.71767
G1 X83.718 Y95.718 E5.72794
G1 X83.961 Y95.6 E5.74141
G1 X84.688 Y95.291 E5.78082
G1 X85.442 Y95.057 E5.82021
G1 X85.743 Y94.997 E5.83552
G1 X86.316 Y94.598 E5.87036
G1 X87.007 Y94.214 E5.9098
G1 X87.61 Y93.955 E5.94254
G1 X87.609 Y82.265 E6.52576
G1 X87.372 Y81.714 E6.55568
G1 X87.135 Y80.961 E6.59506
G1 X86.976 Y80.187 E6.63449
G1 X86.895 Y79.402 E6.67386
G1 X86.885 Y79.006 E6.69362
G1 X86.884 Y77.806 E6.75349
G1 X86.923 Y77.018 E6.79285
G1 X87.042 Y76.237 E6.83226
G1 X87.239 Y75.472 E6.87168
G1 X87.513 Y74.732 E6.91104
G1 X87.61 Y74.534 E6.92204
G1 X87.609 Y70.001 E7.1482
G1 X87.649 Y69.212 E7.18761
G1 X87.768 Y68.432 E7.22697
G1 X87.966 Y67.667 E7.2664
G1 X88.24 Y66.927 E7.30577
G1 X88.587 Y66.218 E7.34515
G1 X89.005 Y65.547 E7.38459
G0 F3600 X89.403 Y65.678
G1 F1800 X89.884 Y65.077 E7.42299
G1 X90.425 Y64.531 E7.46134
G1 X91.019 Y64.043 E7.49969
G1 X91.661 Y63.619 E7.53808
G1 X92.344 Y63.265 E7.57646
G1 X93.059 Y62.983 E7.6148
G1 X93.801 Y62.777 E7.65322
G1 X94.559 Y62.649 E7.69157
G1 X95.409 Y62.6 E7.73405
G1 X96.37 Y62.6 E7.782
G1 X97.138 Y62.64 E7.82036
G1 X97.898 Y62.759 E7.85874
G1 X98.641 Y62.957 E7.8971
G1 X99.36 Y63.231 E7.93549
G1 X100.046 Y63.578 E7.97385
G1 X100.693 Y63.994 E8.01222
G1 X101.293 Y64.475 E8.05059
G1 X101.84 Y65.016 E8.08897
G1 X102.328 Y65.611 E8.12736
G1 X102.751 Y66.253 E8.16572
G1 X103.106 Y66.936 E8.20412
G1 X103.387 Y67.651 E8.24245
G1 X103.593 Y68.393 E8.28087
G1 X103.721 Y69.151 E8.31922
G1 X103.77 Y69.997 E8.3615
G1 X103.772 Y74.618 E8.59204
G1 X103.833 Y74.736 E8.59867
G1 X104.114 Y75.451 E8.63699
G1 X104.32 Y76.193 E8.67541
G1 X104.448 Y76.951 E8.71377
G1 X104.497 Y77.794 E8.75589
G1 X104.498 Y78.994 E8.81576
G1 X104.459 Y79.762 E8.85413
G1 X104.34 Y80.522 E8.89251
G1 X104.143 Y81.265 E8.93085
G1 X103.87 Y81.984 E8.96922
G1 X103.772 Y82.178 E8.98007
G1 X103.773 Y96.068 E9.67304
G1 X104.002 Y96.651 E9.70429
G1 X104.208 Y97.393 E9.74271
G1 X104.336 Y98.151 E9.78106
G1 X104.385 Y99 E9.82349
G1 X104.385 Y100.2 E9.88336
G1 X104.345 Y100.968 E9.92173
G1 X104.226 Y101.728 E9.9601
G1 X104.028 Y102.471 E9.99847
G1 X103.772 Y103.142 E10.0343
G1 X103.773 Y105.867 E10.17025
G1 X104.002 Y106.451 E10.20154
G1 X104.208 Y107.193 E10.23996
G1 X104.336 Y107.951 E10.27831
G1 X104.385 Y108.8 E10.32074
G1 X104.385 Y110 E10.38061
G1 X104.345 Y110.768 E10.41898
G1 X104.226 Y111.528 E10.45736
G1 X104.028 Y112.271 E10.49572
G1 X103.754 Y112.99 E10.53411
G1 X103.407 Y113.676 E10.57246
G1 X102.991 Y114.323 E10.61083
G1 X102.51 Y114.923 E10.6492
G1 X101.969 Y115.47 E10.68758
G1 X101.374 Y115.958 E10.72597
G1 X100.732 Y116.381 E10.76433
G1 X100.049 Y116.736 E10.80273
G1 X99.334 Y117.017 E10.84106
G1 X98.592 Y117.223 E10.87948
G1 X97.834 Y117.351 E10.91783
G1 X96.985 Y117.4 E10.96026
G1 X94.797 Y117.4 E11.06942
G1 X94.029 Y117.36 E11.10779
G1 X93.269 Y117.241 E11.14617
G1 X92.526 Y117.043 E11.18453
G1 X91.807 Y116.769 E11.22292
G1 X91.121 Y116.422 E11.26127
G1 X90.474 Y116.006 E11.29965
G1 X89.874 Y115.525 E11.33801
G1 X89.454 Y115.11 E11.36747
G1 X89.122 Y114.975 E11.38535
G1 X88.414 Y114.597 E11.42539
G1 X87.894 Y114.282 E11.45572
G1 X87.563 Y114.07 E11.47533
G1 X86.964 Y113.662 E11.51149
G1 X86.688 Y113.494 E11.52761
G1 X86.577 Y113.432 E11.53395
G1 X86.052 Y113.361 E11.56038
G1 X85.383 Y113.24 E11.5943
G1 X85.241 Y113.213 E11.60151
G1 X84.719 Y113.108 E11.62808
G1 X84.259 Y113 E11.65165
G1 X83.518 Y112.801 E11.68993
G1 X82.824 Y112.577 E11.72631
G1 X82.522 Y112.463 E11.74242
G1 X81.817 Y112.155 E11.7808
G1 X81.691 Y112.083 E11.78804
G1 X80.982 Y111.811 E11.82593
G1 X80.54 Y111.607 E11.85021
G1 X80.124 Y111.431 E11.87275
G1 X79.916 Y111.34 E11.88407
G1 X79.618 Y111.203 E11.90044
G1 X78.937 Y110.845 E11.93882
G1 X78.296 Y110.419 E11.97722
G1 X77.704 Y109.929 E12.01556
G1 X77.165 Y109.38 E12.05394
G1 X76.686 Y108.778 E12.09232
G1 X76.272 Y108.13 E12.13069
G1 X75.928 Y107.442 E12.16906
G1 X75.657 Y106.722 E12.20744
G1 X75.462 Y105.978 E12.24582
G1 X75.346 Y105.218 E12.28417
G1 X75.309 Y104.45 E12.32253
G1 X75.352 Y103.682 E12.36091
G1 X75.475 Y102.922 E12.39932
G1 X75.675 Y102.18 E12.43766
G1 X75.952 Y101.462 E12.47605
G1 X76.302 Y100.777 E12.51443
G1 X76.72 Y100.132 E12.55278
G1 X77.204 Y99.534 E12.59116
G1 X77.747 Y98.989 E12.62954
G1 X78.344 Y98.504 E12.66791
G1 X78.988 Y98.083 E12.7063
G1 X79.672 Y97.731 E12.74468
G1 X80.606 Y97.384 E12.79439
G1 X81.102 Y97.237 E12.8202
G1 X81.175 Y97.216 E12.82399
G1 X81.751 Y97.052 E12.85387
G1 X81.759 Y97.049 E12.85429
G1 X81.791 Y97.04 E12.85595
G1 X81.904 Y97.008 E12.86181
G1 X81.904 Y97.009 E12.86186
G1 X82.017 Y96.978 E12.86771
G1 X82.271 Y96.851 E12.88187
G1 X82.815 Y96.623 E12.9113
G1 X83.074 Y96.499 E12.92563
G1 X83.718 Y96.165 E12.96182
G1 X83.893 Y96.077 E12.97159
G1 X84.136 Y95.959 E12.98507
G1 X84.844 Y95.66 E13.02341
G1 X85.58 Y95.435 E13.06181
G1 X85.92 Y95.369 E13.07909
G1 X86.057 Y95.257 E13.08792
G1 X86.699 Y94.834 E13.12627
G1 X87.382 Y94.479 E13.16468
G1 X88.01 Y94.232 E13.19834
G1 X88.009 Y82.18 E13.79962
G1 X87.949 Y82.064 E13.80614
G1 X87.668 Y81.349 E13.84446
G1 X87.462 Y80.607 E13.88288
G1 X87.334 Y79.849 E13.92123
G1 X87.285 Y79.006 E13.96336
G1 X87.284 Y77.806 E14.02323
G1 X87.323 Y77.038 E14.0616
G1 X87.442 Y76.278 E14.09998
G1 X87.639 Y75.535 E14.13832
G1 X87.912 Y74.816 E14.17669
G1 X88.01 Y74.623 E14.18749
G1 X88.009 Y70.001 E14.41809
G1 X88.049 Y69.233 E14.45645
G1 X88.168 Y68.473 E14.49483
G1 X88.366 Y67.73 E14.53319
G1 X88.64 Y67.011 E14.57158
G1 X88.986 Y66.324 E14.60996
G1 X89.403 Y65.678 E14.64832
G0 F3600 X89.8 Y65.812
G1 F1800 X90.279 Y65.237 E14.68565
G1 X90.817 Y64.717 E14.72298
G1 X91.407 Y64.257 E14.76031
G1 X92.042 Y63.863 E14.79759
G1 X92.716 Y63.539 E14.8349
G1 X93.421 Y63.288 E14.87224
G1 X94.149 Y63.114 E14.90958
G1 X94.891 Y63.019 E14.9469
G1 X95.409 Y63 E14.97276
G1 X96.37 Y63 E15.0207
G1 X97.117 Y63.04 E15.05803
G1 X97.855 Y63.159 E15.09532
G1 X98.577 Y63.357 E15.13267
G1 X99.273 Y63.63 E15.16997
G1 X99.936 Y63.977 E15.2073
G1 X100.559 Y64.392 E15.24465
G1 X101.133 Y64.871 E15.28195
G1 X101.654 Y65.408 E15.31928
G1 X102.113 Y65.998 E15.35657
G1 X102.508 Y66.634 E15.39392
G1 X102.832 Y67.308 E15.43123
G1 X103.082 Y68.013 E15.46855
G1 X103.256 Y68.741 E15.50589
G1 X103.351 Y69.483 E15.54321
G1 X103.37 Y69.997 E15.56888
G1 X103.372 Y74.719 E15.80446
G1 X103.559 Y75.108 E15.82599
G1 X103.809 Y75.813 E15.86331
G1 X103.983 Y76.541 E15.90065
G1 X104.078 Y77.283 E15.93797
G1 X104.097 Y77.794 E15.96348
G1 X104.098 Y78.994 E16.02335
G1 X104.059 Y79.741 E16.06067
G1 X103.94 Y80.48 E16.09801
G1 X103.743 Y81.201 E16.1353
G1 X103.47 Y81.898 E16.17265
G1 X103.372 Y82.086 E16.18323
G1 X103.373 Y96.154 E16.88508
G1 X103.447 Y96.308 E16.89361
G1 X103.697 Y97.013 E16.93092
G1 X103.871 Y97.741 E16.96827
G1 X103.966 Y98.483 E17.00559
G1 X103.985 Y99 E17.0314
G1 X103.985 Y100.2 E17.09127
G1 X103.945 Y100.947 E17.12859
G1 X103.826 Y101.685 E17.16588
G1 X103.628 Y102.407 E17.20323
G1 X103.372 Y103.059 E17.23818
G1 X103.373 Y105.953 E17.38256
G1 X103.447 Y106.108 E17.39113
G1 X103.697 Y106.813 E17.42845
G1 X103.871 Y107.541 E17.46579
G1 X103.966 Y108.283 E17.50311
G1 X103.985 Y108.8 E17.52892
G1 X103.985 Y110 E17.58879
G1 X103.945 Y110.747 E17.62611
G1 X103.826 Y111.485 E17.66341
G1 X103.628 Y112.207 E17.70076
G1 X103.355 Y112.903 E17.73806
G1 X103.008 Y113.566 E17.77539
G1 X102.593 Y114.189 E17.81274
G1 X102.114 Y114.763 E17.85004
G1 X101.577 Y115.284 E17.88736
G1 X100.987 Y115.743 E17.92466
G1 X100.351 Y116.138 E17.96201
G1 X99.677 Y116.462 E17.99932
G1 X98.972 Y116.712 E18.03664
G1 X98.244 Y116.886 E18.07398
G1 X97.502 Y116.981 E18.1113
G1 X96.985 Y117 E18.13711
G1 X94.797 Y117 E18.24627
G1 X94.05 Y116.96 E18.28359
G1 X93.312 Y116.841 E18.32089
G1 X92.59 Y116.643 E18.35824
G1 X91.894 Y116.37 E18.39554
G1 X91.231 Y116.023 E18.43287
G1 X90.608 Y115.608 E18.47022
G1 X90.034 Y115.129 E18.50752
G1 X89.689 Y114.773 E18.53225
G1 X89.273 Y114.604 E18.55465
G1 X88.621 Y114.255 E18.59155
G1 X88.101 Y113.94 E18.62188
G1 X87.788 Y113.739 E18.64044
G1 X87.194 Y113.334 E18.6763
G1 X86.896 Y113.153 E18.6937
G1 X86.691 Y113.037 E18.70545
G1 X86.675 Y113.025 E18.70645
G1 X86.123 Y112.967 E18.73414
G1 X85.454 Y112.846 E18.76806
G1 X85.32 Y112.821 E18.77486
G1 X84.798 Y112.716 E18.80142
G1 X84.362 Y112.613 E18.82377
G1 X83.621 Y112.414 E18.86205
G1 X82.965 Y112.203 E18.89643
G1 X82.663 Y112.089 E18.91253
G1 X81.978 Y111.788 E18.94986
G1 X81.866 Y111.724 E18.9563
G1 X81.66 Y111.66 E18.96706
G1 X81.149 Y111.448 E18.99466
G1 X80.702 Y111.242 E19.01922
G1 X80.28 Y111.063 E19.04209
G1 X80.083 Y110.976 E19.05283
G1 X79.785 Y110.839 E19.06919
G1 X79.123 Y110.491 E19.10651
G1 X78.502 Y110.074 E19.14383
G1 X77.929 Y109.593 E19.18115
G1 X77.411 Y109.054 E19.21844
G1 X76.953 Y108.462 E19.25579
G1 X76.56 Y107.825 E19.29313
G1 X76.239 Y107.15 E19.33042
G1 X75.99 Y106.444 E19.36777
G1 X75.819 Y105.716 E19.40508
G1 X75.726 Y104.974 E19.44238
G1 X75.714 Y104.226 E19.47971
G1 X75.781 Y103.481 E19.51703
G1 X75.927 Y102.747 E19.55436
G1 X76.15 Y102.033 E19.59168
G1 X76.449 Y101.347 E19.62901
G1 X76.819 Y100.697 E19.66633
G1 X77.256 Y100.09 E19.70364
G1 X77.755 Y99.533 E19.74095
G1 X78.312 Y99.033 E19.7783
G1 X78.918 Y98.595 E19.8156
G1 X79.567 Y98.224 E19.8529
G1 X80.253 Y97.924 E19.89025
G1 X80.72 Y97.768 E19.91481
G1 X81.216 Y97.621 E19.94062
G1 X81.284 Y97.601 E19.94416
G1 X81.874 Y97.433 E19.97477
G1 X81.885 Y97.429 E19.97535
G1 X81.928 Y97.417 E19.97758
G1 X82.013 Y97.393 E19.98198
G1 X82.013 Y97.394 E19.98203
G1 X82.132 Y97.361 E19.98819
G1 X82.425 Y97.22 E20.00442
G1 X82.988 Y96.984 E20.03487
G1 X83.24 Y96.863 E20.04882
G1 X83.902 Y96.52 E20.08602
G1 X84.067 Y96.437 E20.09523
G1 X84.31 Y96.319 E20.10871
G1 X85 Y96.029 E20.14605
G1 X85.716 Y95.814 E20.18335
G1 X86.096 Y95.743 E20.20263
G1 X86.444 Y95.472 E20.22464
G1 X87.08 Y95.077 E20.26199
G1 X87.754 Y94.753 E20.2993
G1 X88.41 Y94.52 E20.33403
G1 X88.409 Y82.079 E20.95471
G1 X88.223 Y81.692 E20.97614
G1 X87.973 Y80.987 E21.01345
G1 X87.799 Y80.259 E21.0508
G1 X87.704 Y79.517 E21.08812
G1 X87.685 Y79.006 E21.11363
G1 X87.684 Y77.806 E21.1735
G1 X87.723 Y77.059 E21.21082
G1 X87.842 Y76.32 E21.24816
G1 X88.039 Y75.599 E21.28545
G1 X88.312 Y74.902 E21.3228
G1 X88.41 Y74.715 E21.33333
G1 X88.409 Y70.001 E21.56851
G1 X88.449 Y69.254 E21.60583
G1 X88.568 Y68.515 E21.64318
G1 X88.766 Y67.794 E21.68048
G1 X89.039 Y67.098 E21.71778
G1 X89.385 Y66.434 E21.75513
G1 X89.8 Y65.812 E21.79244
G0 F3600 X90.197 Y65.951
G1 F1800 X90.674 Y65.403 E21.82868
G1 X91.208 Y64.91 E21.86494
G1 X91.792 Y64.479 E21.90115
G1 X92.421 Y64.115 E21.93741
G1 X93.086 Y63.822 E21.97367
G1 X93.779 Y63.605 E22.00989
G1 X94.491 Y63.464 E22.04611
G1 X95.409 Y63.4 E22.09202
G1 X96.37 Y63.4 E22.13996
G1 X97.095 Y63.44 E22.17619
G1 X97.812 Y63.559 E22.21245
G1 X98.511 Y63.757 E22.24869
G1 X99.184 Y64.03 E22.28493
G1 X99.823 Y64.375 E22.32116
G1 X100.42 Y64.789 E22.3574
G1 X100.968 Y65.265 E22.39361
G1 X101.461 Y65.799 E22.42987
G1 X101.891 Y66.384 E22.4661
G1 X102.255 Y67.013 E22.50235
G1 X102.548 Y67.678 E22.53861
G1 X102.766 Y68.371 E22.57485
G1 X102.906 Y69.083 E22.61105
