;FLAVOR:Marlin
;TIME:137
;Filament used: 0.10925m
;Layer height: 0.15
;MINX:73.194
;MINY:66.401
;MINZ:0.3
;MAXX:100.697
;MAXY:117.6
;MAXZ:1.65
;Generated with Cura_SteamEngine 4.1.0
M140 S60
M105
M190 S60
M104 S200
M105
M109 S200
M82 ;absolute extrusion mode
G28 ;Home
G1 Z15.0 F6000 ;Move the platform down 15mm
;Prime the extruder
G92 E0
G1 F200 E3
G92 E0
G92 E0
G92 E0
G1 F1500 E-6.5
;LAYER_COUNT:10
;LAYER:0
M107
G0 F3600 X75.062 Y71.387 Z0.3
;TYPE:SKIRT
G1 F1500 E0
G1 F1800 X75.479 Y71.05 E0.02675
G1 X75.942 Y70.778 E0.05354
G1 X76.44 Y70.578 E0.08031
G1 X77.012 Y70.447 E0.10959
G1 X78.105 Y70.289 E0.16469
G1 X80.989 Y69.843 E0.31028
G1 X83.65 Y69.351 E0.44529
G1 X86.332 Y68.776 E0.58213
G1 X88.942 Y68.139 E0.71617
G1 X91.602 Y67.41 E0.85377
G1 X94.227 Y66.606 E0.99074
G1 X94.908 Y66.467 E1.02541
G1 X95.359 Y66.42 E1.04804
G1 X95.778 Y66.401 E1.06896
G1 X96.407 Y66.409 E1.10034
G1 X96.941 Y66.456 E1.12709
G1 X97.462 Y66.582 E1.15383
G1 X97.959 Y66.783 E1.18058
G1 X98.421 Y67.056 E1.20735
G1 X98.837 Y67.395 E1.23412
G1 X99.197 Y67.792 E1.26086
G1 X99.495 Y68.238 E1.28762
G1 X99.724 Y68.723 E1.31438
G1 X99.877 Y69.237 E1.34113
G1 X99.952 Y69.756 E1.3673
G1 X100.171 Y72.867 E1.52289
G1 X100.443 Y75.574 E1.65862
G1 X100.554 Y76.438 E1.70208
G1 X100.559 Y76.484 E1.70439
G1 X100.663 Y77.387 E1.74974
G1 X100.685 Y77.693 E1.76504
G1 X100.695 Y78.034 E1.78206
G1 X100.697 Y78.178 E1.78925
G1 X100.688 Y79.033 E1.83191
G1 X100.671 Y79.343 E1.8474
G1 X100.595 Y80.125 E1.88659
G1 X100.366 Y82.85 E2.02302
G1 X100.216 Y85.542 E2.15754
G1 X100.141 Y88.307 E2.29553
G1 X100.143 Y91.037 E2.43174
G1 X100.222 Y93.731 E2.5662
G1 X100.38 Y96.468 E2.70297
G1 X100.488 Y97.833 E2.77129
G1 X100.562 Y98.691 E2.81425
G1 X100.573 Y98.891 E2.82424
G1 X100.583 Y99.221 E2.84072
G1 X100.585 Y99.371 E2.8482
G1 X100.575 Y100.24 E2.89156
G1 X100.574 Y100.3 E2.89455
G1 X100.497 Y103.033 E3.03096
G1 X100.497 Y105.73 E3.16551
G1 X100.541 Y107.292 E3.24347
G1 X100.541 Y107.304 E3.24407
G1 X100.584 Y109.041 E3.33075
G1 X100.585 Y109.168 E3.33709
G1 X100.576 Y110.028 E3.38
G1 X100.53 Y110.562 E3.40674
G1 X100.406 Y111.084 E3.4335
G1 X100.205 Y111.581 E3.46025
G1 X99.933 Y112.043 E3.487
G1 X99.595 Y112.46 E3.51378
G1 X99.199 Y112.821 E3.54051
G1 X98.754 Y113.12 E3.56726
G1 X98.269 Y113.35 E3.59404
G1 X97.756 Y113.504 E3.62076
G1 X97.486 Y113.554 E3.63446
G1 X95.862 Y113.786 E3.7163
G1 X93.127 Y114.224 E3.85449
G1 X90.492 Y114.722 E3.98828
G1 X87.828 Y115.304 E4.12432
G1 X85.173 Y115.963 E4.2608
G1 X82.512 Y116.705 E4.39862
G1 X80.243 Y117.404 E4.51707
G1 X79.491 Y117.551 E4.5553
G1 X79.072 Y117.587 E4.57628
G1 X78.764 Y117.6 E4.59166
G1 X77.567 Y117.6 E4.65138
G1 X76.869 Y117.591 E4.68621
G1 X76.334 Y117.544 E4.713
G1 X75.813 Y117.418 E4.73974
G1 X75.316 Y117.216 E4.76651
G1 X74.855 Y116.943 E4.79324
G1 X74.439 Y116.604 E4.82001
G1 X74.078 Y116.208 E4.84675
G1 X73.78 Y115.762 E4.87351
G1 X73.552 Y115.276 E4.90029
G1 X73.399 Y114.762 E4.92704
G1 X73.316 Y114.088 E4.96092
G1 X73.307 Y113.755 E4.97754
G1 X73.306 Y113.615 E4.98453
G1 X73.317 Y112.701 E5.03013
G1 X73.318 Y112.642 E5.03308
G1 X73.394 Y109.966 E5.16664
G1 X73.394 Y107.27 E5.30114
G1 X73.35 Y105.708 E5.3791
G1 X73.35 Y105.696 E5.3797
G1 X73.307 Y103.959 E5.46638
G1 X73.306 Y103.828 E5.47292
G1 X73.316 Y102.968 E5.51583
G1 X73.325 Y102.755 E5.52646
G1 X73.36 Y102.263 E5.55107
G1 X73.364 Y102.214 E5.55352
G1 X73.52 Y100.372 E5.64575
G1 X73.673 Y97.675 E5.78052
G1 X73.751 Y94.91 E5.91852
G1 X73.751 Y92.216 E6.05293
G1 X73.673 Y89.45 E6.19098
G1 X73.52 Y86.758 E6.3255
G1 X73.288 Y84.031 E6.46204
G1 X73.248 Y83.662 E6.48056
G1 X73.24 Y83.575 E6.48492
G1 X73.217 Y83.302 E6.49859
G1 X73.206 Y83.106 E6.50838
G1 X73.196 Y82.766 E6.52535
G1 X73.194 Y82.622 E6.53253
G1 X73.203 Y81.764 E6.57534
G1 X73.232 Y81.346 E6.59625
G1 X73.292 Y80.876 E6.61989
G1 X73.597 Y78.171 E6.75569
G1 X73.826 Y75.453 E6.89178
G1 X73.859 Y74.863 E6.92126
G1 X73.862 Y74.812 E6.92381
G1 X73.937 Y73.755 E6.97667
G1 X74.015 Y73.225 E7.0034
G1 X74.17 Y72.711 E7.03018
G1 X74.401 Y72.227 E7.05694
G1 X74.7 Y71.782 E7.08369
G1 X75.062 Y71.387 E7.11042
G0 F3600 X75.444 Y71.582
G1 F1800 X75.853 Y71.284 E7.13566
G1 X76.303 Y71.054 E7.16088
G1 X76.784 Y70.898 E7.1861
G1 X77.07 Y70.843 E7.20063
G1 X78.189 Y70.681 E7.25704
G1 X81.018 Y70.244 E7.39986
G1 X83.741 Y69.741 E7.53801
G1 X86.405 Y69.17 E7.67393
G1 X89.062 Y68.521 E7.81039
G1 X91.697 Y67.799 E7.94669
G1 X94.344 Y66.988 E8.08481
G1 X94.949 Y66.865 E8.11561
G1 X95.4 Y66.818 E8.13824
G1 X95.773 Y66.801 E8.15686
G1 X96.402 Y66.809 E8.18825
G1 X96.905 Y66.856 E8.21345
G1 X97.395 Y66.981 E8.23868
G1 X97.859 Y67.181 E8.26389
G1 X98.286 Y67.453 E8.28915
G1 X98.664 Y67.788 E8.31435
G1 X98.985 Y68.178 E8.33955
G1 X99.241 Y68.614 E8.36477
G1 X99.425 Y69.085 E8.39
G1 X99.553 Y69.784 E8.42545
G1 X99.772 Y72.901 E8.58134
G1 X100.047 Y75.629 E8.71813
G1 X100.157 Y76.489 E8.76139
G1 X100.162 Y76.53 E8.76345
G1 X100.266 Y77.433 E8.8088
G1 X100.286 Y77.705 E8.8224
G1 X100.296 Y78.046 E8.83942
G1 X100.297 Y78.174 E8.84581
G1 X100.288 Y79.029 E8.88847
G1 X100.273 Y79.305 E8.90226
G1 X100.197 Y80.087 E8.94146
G1 X99.967 Y82.828 E9.07869
G1 X99.816 Y85.544 E9.2144
G1 X99.741 Y88.296 E9.35175
G1 X99.743 Y91.015 E9.4874
G1 X99.824 Y93.766 E9.6247
G1 X99.983 Y96.524 E9.76253
G1 X100.089 Y97.867 E9.82974
G1 X100.163 Y98.725 E9.87271
G1 X100.174 Y98.903 E9.8816
G1 X100.184 Y99.233 E9.89807
G1 X100.185 Y99.367 E9.90476
G1 X100.175 Y100.236 E9.94812
G1 X100.174 Y100.289 E9.95076
G1 X100.097 Y103.022 E10.08717
G1 X100.097 Y105.741 E10.22282
G1 X100.141 Y107.303 E10.30078
G1 X100.141 Y107.314 E10.30133
G1 X100.184 Y109.051 E10.38801
G1 X100.185 Y109.163 E10.3936
G1 X100.176 Y110.023 E10.43651
G1 X100.131 Y110.527 E10.46175
G1 X100.007 Y111.017 E10.48697
G1 X99.807 Y111.482 E10.51222
G1 X99.537 Y111.909 E10.53743
G1 X99.203 Y112.288 E10.56263
G1 X98.813 Y112.61 E10.58786
G1 X98.377 Y112.867 E10.61311
G1 X97.907 Y113.052 E10.63831
G1 X97.429 Y113.158 E10.66274
G1 X95.807 Y113.39 E10.74448
G1 X93.062 Y113.83 E10.88318
G1 X90.397 Y114.333 E11.01849
G1 X87.759 Y114.909 E11.1532
G1 X85.033 Y115.586 E11.29333
G1 X82.445 Y116.307 E11.42736
G1 X80.126 Y117.022 E11.54843
G1 X79.457 Y117.152 E11.58243
G1 X79.038 Y117.188 E11.60341
G1 X78.764 Y117.2 E11.6171
G1 X77.572 Y117.2 E11.67657
G1 X76.874 Y117.191 E11.71139
G1 X76.37 Y117.144 E11.73665
G1 X75.88 Y117.019 E11.76188
G1 X75.416 Y116.818 E11.7871
G1 X74.99 Y116.547 E11.81229
G1 X74.611 Y116.212 E11.83753
G1 X74.29 Y115.821 E11.86277
G1 X74.035 Y115.385 E11.88797
G1 X73.851 Y114.914 E11.91319
G1 X73.744 Y114.42 E11.93841
G1 X73.716 Y114.077 E11.95558
G1 X73.707 Y113.744 E11.9722
G1 X73.706 Y113.619 E11.97844
G1 X73.717 Y112.705 E12.02404
G1 X73.718 Y112.653 E12.02663
G1 X73.794 Y109.977 E12.16019
G1 X73.794 Y107.259 E12.2958
G1 X73.75 Y105.697 E12.37376
G1 X73.75 Y105.686 E12.3743
G1 X73.707 Y103.949 E12.46099
G1 X73.706 Y103.833 E12.46678
G1 X73.716 Y102.973 E12.50969
G1 X73.724 Y102.783 E12.51917
G1 X73.759 Y102.291 E12.54378
G1 X73.762 Y102.248 E12.54593
G1 X73.919 Y100.392 E12.63886
G1 X74.073 Y97.674 E12.77468
G1 X74.151 Y94.921 E12.91208
G1 X74.151 Y92.204 E13.04763
G1 X74.073 Y89.451 E13.18504
G1 X73.917 Y86.702 E13.3224
G1 X73.687 Y83.998 E13.45779
G1 X73.646 Y83.619 E13.47681
G1 X73.638 Y83.542 E13.48068
G1 X73.615 Y83.269 E13.49434
G1 X73.605 Y83.094 E13.50309
G1 X73.595 Y82.754 E13.52006
G1 X73.594 Y82.626 E13.52644
G1 X73.603 Y81.768 E13.56925
G1 X73.629 Y81.397 E13.58781
G1 X73.683 Y80.973 E13.60913
G1 X73.995 Y78.209 E13.7479
G1 X74.225 Y75.473 E13.88488
G1 X74.258 Y74.886 E13.91422
G1 X74.261 Y74.841 E13.91647
G1 X74.336 Y73.784 E13.96933
G1 X74.412 Y73.284 E13.99456
G1 X74.565 Y72.802 E14.01979
G1 X74.792 Y72.35 E14.04503
G1 X75.088 Y71.94 E14.07026
G1 X75.444 Y71.582 E14.09545
G1 F1500 E7.59545
;MESH:3DFlagchy-dual-pole.stl
G0 F3600 X76.142 Y83.653
G0 X77.732 Y82.786
G0 X78.212 Y103.27
G0 X78.282 Y103.2
;TYPE:WALL-OUTER
G1 F1500 E14.09545
G1 F1800 X78.894 Y103.2 E14.12598
G1 X78.894 Y104 E14.16589
G1 X78.282 Y104 E14.19642
G1 X78.281 Y104.768 E14.23474
G1 X78.282 Y113 E14.64544
G1 X78.894 Y113 E14.67597
G1 X78.894 Y113.8 E14.71588
G1 X77.106 Y113.8 E14.80508
G1 X77.106 Y113 E14.845
G1 X77.718 Y113 E14.87553
G1 X77.719 Y112.232 E14.91384
G1 X77.718 Y104 E15.32454
G1 X77.106 Y104 E15.35507
G1 X77.106 Y103.2 E15.39499
G1 X77.718 Y103.2 E15.42552
G1 X77.719 Y101.679 E15.5014
G1 X77.718 Y82.8 E16.44328
G1 X76.994 Y82.8 E16.4794
G1 X76.993 Y82.2 E16.50933
G1 X76.993 Y82 E16.51931
G1 X77.193 Y82 E16.52577
G1 X77.718 Y82 E16.55196
G1 X77.719 Y81.285 E16.58764
G1 X77.718 Y74.4 E16.93113
G1 X77.718 Y74.2 E16.94111
G1 X77.918 Y74.2 E16.94757
G1 X78.279 Y74.2 E16.96558
G1 X78.282 Y82 E17.35472
G1 X79.006 Y82 E17.39084
G1 X79.007 Y82.6 E17.42078
G1 X79.007 Y82.8 E17.43076
G1 X78.807 Y82.8 E17.43722
G1 X78.282 Y82.8 E17.46341
G1 X78.281 Y84.321 E17.53929
G1 X78.282 Y103.2 E18.48117
G0 F3600 X78.482 Y103.2
G0 X78.504 Y103.394
;TYPE:SKIN
G1 F1800 X78.698 Y103.589 E18.48803
G0 F3600 X78.63 Y103.803
G1 F1800 X78.221 Y103.394 E18.50246
G0 F3600 X78 Y103.173
G1 F1800 X78 Y102.89 E18.50878
G1 X78 Y82.808 E18.95698
G1 X77.59 Y82.399 E18.9699
G1 X77.209 Y82.583 E18.97935
G0 F3600 X77.668 Y82.194
G1 F1800 X78.087 Y82.612 E18.99411
G0 F3600 X78.137 Y82.379
G1 F1800 X78 Y81.96 E19.00471
G1 X77.997 Y75.452 E19.16124
G1 X77.997 Y74.603 E19.18166
G0 F3600 X77.912 Y74.518
G0 X78.234 Y82.194
G1 F1800 X78.644 Y82.604 E19.19612
G0 F3600 X78.812 Y82.488
G1 F1800 X78.517 Y82.194 E19.20651
G0 F3600 X77.913 Y103.369
G1 F1800 X78.348 Y103.803 E19.22184
G0 F3600 X78.087 Y103.825
G1 F1800 X77.655 Y103.394 E19.23706
G0 F3600 X77.373 Y103.394
G1 F1800 X77.783 Y103.804 E19.25153
G0 F3600 X78 Y104.021
G1 F1800 X77.999 Y104.303 E19.25812
G1 X77.999 Y113.072 E19.46313
G1 X78.326 Y113.398 E19.47392
G1 X78.551 Y113.341 E19.47935
G0 F3600 X78.248 Y113.603
G1 F1800 X77.839 Y113.194 E19.49378
G0 F3600 X77.556 Y113.194
G1 F1800 X77.965 Y113.603 E19.5082
G0 F3600 X77.682 Y113.603
G1 F1800 X77.3 Y113.221 E19.52168
G0 F3600 X77.3 Y113.504
G1 F1800 X77.399 Y113.603 E19.52517
G0 F3600 X77.746 Y103.972
G0 X77.5 Y103.804
G1 F1800 X77.3 Y103.605 E19.53221
G0 F3600 X77.506 Y103.6
G1 F1500 E13.03221
;MESH:3DFlagchy.stl
G0 F3600 X78.88 Y103.986
G0 X79.759 Y103.986
G0 X83.019 Y103.694
G0 X83.305 Y104.518
G0 X83.627 Y104.661
;TYPE:WALL-OUTER
G1 F1500 E19.53221
G1 F1800 X83.286 Y104.517 E19.55068
G1 X83.563 Y104.438 E19.55405
G1 X83.886 Y104.346 E19.5708
G1 X83.886 Y104.661 E19.57992
G1 X83.886 Y104.78 E19.58585
G1 X83.722 Y104.705 E19.58984
G1 X83.627 Y104.661 E19.59277
G0 F3600 X83.443 Y104.584
G1 F1500 E13.09277
G0 F3600 X83.5 Y104.56
G0 X85.735 Y104.36
G0 X86.082 Y103.928
;TYPE:WALL-INNER
G1 F1500 E19.59277
G1 F1800 X86.448 Y103.753 E19.61301
G1 X86.644 Y103.66 E19.62384
G1 X86.768 Y103.595 E19.63082
G1 X86.768 Y103.66
G1 X86.768 Y103.878 E19.63854
G1 X86.768 Y104.557 E19.67241
G1 X86.769 Y105.116 E19.7003
G1 X86.769 Y105.117 E19.70035
G1 X86.769 Y105.36 E19.71248
G1 X86.53 Y105.312 E19.71993
G1 X86.309 Y105.267 E19.73119
G1 X85.735 Y105.114 E19.76082
G1 X85.734 Y104.073 E19.81276
G1 X86.082 Y103.928 E19.83157
G0 F3600 X85.919 Y103.563
;TYPE:WALL-OUTER
G1 F1800 X86.465 Y103.302 E19.86176
G1 X86.876 Y103.088 E19.88488
G1 X87.168 Y102.936 E19.9013
G1 X87.168 Y103.265 E19.9107
G1 X87.168 Y104.557 E19.97516
G1 X87.169 Y105.6 E20.0272
G1 X87.169 Y105.601 E20.02725
G1 X87.169 Y105.839 E20.03912
G1 X86.934 Y105.797 E20.04647
G1 X86.736 Y105.761 E20.05651
G1 X86.224 Y105.658 E20.08256
G1 X85.499 Y105.464 E20.12
G1 X85.335 Y105.402 E20.12875
G1 X85.334 Y103.807 E20.20833
G1 X85.919 Y103.563 E20.23995
G0 F3600 X86.099 Y103.477
G0 X86.378 Y104.219
;TYPE:SKIN
G1 F1800 X86.378 Y104.557 E20.25681
G1 X86.379 Y104.883 E20.27308
G1 X86.125 Y104.815 E20.28619
G1 X86.124 Y104.333 E20.31024
G1 X86.242 Y104.284 E20.31662
G1 X86.378 Y104.219 E20.32414
G0 F3600 X86.374 Y104.232
G1 F1500 E13.82414
G0 F3600 X88.033 Y103.612
G0 X89.781 Y103.612
G0 X91.066 Y103.612
G0 X92.371 Y101.761
G0 X92.362 Y101.661
;TYPE:WALL-INNER
G1 F1500 E20.32414
G1 F1800 X92.398 Y101.65 E20.32601
G1 X92.398 Y101.661
G1 X92.398 Y101.86 E20.33594
G1 X92.398 Y105.79 E20.53201
G1 X92.398 Y107.395 E20.61208
G1 X92.398 Y107.449 E20.61478
G1 X92.399 Y107.658 E20.62521
G1 X92.056 Y107.45 E20.6375
G1 X92.012 Y107.42 E20.63999
G1 X91.307 Y106.941 E20.68251
G1 X91.046 Y106.782 E20.69776
G1 X91.046 Y101.744 E20.94911
G1 X91.563 Y101.733 E20.97491
G1 X92.164 Y101.678 E21.00502
G1 X92.362 Y101.661 E21.01159
G0 F3600 X92.287 Y101.266
;TYPE:WALL-OUTER
G1 F1800 X92.543 Y101.191 E21.0249
G1 X92.798 Y101.117 E21.03815
G1 X92.798 Y101.382 E21.04608
G1 X92.798 Y101.383 E21.04613
G1 X92.798 Y105.79 E21.266
G1 X92.799 Y107.967 E21.37461
G1 X92.799 Y108.247 E21.38858
G1 X92.534 Y108.156 E21.39688
G1 X92.336 Y108.087 E21.40734
G1 X91.832 Y107.782 E21.43673
G1 X91.09 Y107.277 E21.48151
G1 X90.646 Y107.007 E21.50743
G1 X90.646 Y101.39 E21.78767
G1 X90.994 Y101.345 E21.80517
G1 X91.541 Y101.333 E21.83247
G1 X92.287 Y101.266 E21.86984
G0 F3600 X92.479 Y101.21
G0 X92.008 Y102.084
;TYPE:SKIN
G1 F1800 X92.008 Y105.79 E22.05473
G1 X92.009 Y106.947 E22.11245
G1 X91.518 Y106.613 E22.14208
G1 X91.436 Y106.563 E22.14687
G1 X91.436 Y102.126 E22.36823
G1 X91.585 Y102.123 E22.37567
G1 X92.008 Y102.084 E22.39686
G0 F3600 X91.616 Y102.364
G1 F1800 X91.828 Y102.576 E22.41182
G0 F3600 X91.616 Y102.929
G1 F1800 X91.828 Y103.142 E22.42681
G0 F3600 X91.616 Y103.495
G1 F1800 X91.828 Y103.707 E22.44177
G0 F3600 X91.616 Y104.061
G1 F1800 X91.828 Y104.273 E22.45673
G0 F3600 X91.616 Y104.627
G1 F1800 X91.828 Y104.839 E22.47169
G0 F3600 X91.616 Y105.192
G1 F1800 X91.828 Y105.404 E22.48664
G0 F3600 X91.616 Y105.758
G1 F1800 X91.829 Y105.971 E22.50167
G0 F3600 X91.616 Y106.324
G1 F1800 X91.829 Y106.536 E22.51666
G1 F1500 E16.01666
G0 F3600 X92.387 Y101.666
G0 X93.663 Y101.666
G0 X94.756 Y100.853
G0 X95.029 Y99.986
G0 X96.103 Y99.27
G0 X96.173 Y99.2
;TYPE:WALL-OUTER
G1 F1500 E22.51666
G1 F1800 X96.785 Y99.2 E22.5472
G1 X96.785 Y100 E22.58711
G1 X96.173 Y100 E22.61764
G1 X96.172 Y100.768 E22.65596
G1 X96.173 Y109 E23.06665
G1 X96.785 Y109 E23.09719
G1 X96.785 Y109.8 E23.1371
G1 X94.997 Y109.8 E23.2263
G1 X94.997 Y109 E23.26622
G1 X95.609 Y109 E23.29675
G1 X95.61 Y108.232 E23.33506
G1 X95.609 Y100 E23.74576
G1 X95.015 Y100 E23.77539
G1 X95.004 Y99.403 E23.80518
G1 X95.003 Y99.402 E23.80525
G1 X95.001 Y99.2 E23.81533
G1 X95.203 Y99.2 E23.82183
G1 X95.204 Y99.2 E23.82188
G1 X95.609 Y99.2 E23.84209
G1 X95.61 Y97.679 E23.91797
G1 X95.609 Y78.8 E24.85985
G1 X94.885 Y78.8 E24.89597
G1 X94.884 Y78.2 E24.9259
G1 X94.884 Y78 E24.93588
G1 X95.084 Y78 E24.94234
G1 X95.609 Y78 E24.96853
G1 X95.61 Y77.285 E25.0042
G1 X95.609 Y70.4 E25.3477
G1 X95.609 Y70.2 E25.35768
G1 X95.809 Y70.2 E25.36414
G1 X96.17 Y70.2 E25.38215
G1 X96.173 Y78 E25.77129
G1 X96.897 Y78 E25.80741
G1 X96.898 Y78.6 E25.83735
G1 X96.898 Y78.8 E25.84732
G1 X96.698 Y78.8 E25.85378
G1 X96.173 Y78.8 E25.87998
G1 X96.172 Y80.321 E25.95586
G1 X96.173 Y99.2 E26.89774
G0 F3600 X96.373 Y99.2
G0 X96.283 Y99.394
;TYPE:SKIN
G1 F1800 X96.59 Y99.701 E26.90857
G0 F3600 X96.41 Y99.804
G1 F1800 X96 Y99.394 E26.92303
G0 F3600 X95.89 Y99.284
G1 F1800 X95.89 Y99.001 E26.92939
G1 X95.89 Y78.919 E27.3803
G1 X95.712 Y78.459 E27.39137
G0 F3600 X95.731 Y78.195
G1 F1800 X96.141 Y78.604 E27.40582
G0 F3600 X96.423 Y78.604
G1 F1800 X96.013 Y78.194 E27.42028
G0 F3600 X95.89 Y78.07
G1 F1800 X95.89 Y77.788 E27.42659
