;FLAVOR:Marlin
;TIME:281
;Filament used: 0.0996934m
;Layer height: 0.15
;MINX:75.6
;MINY:81.6
;MINZ:0.3
;MAXX:104.4
;MAXY:98.4
;MAXZ:14.85
;Generated with Cura_SteamEngine 4.1.0
M140 S60
M105
M190 S60
M104 S200
M105
M109 S200
M82 ;absolute extrusion mode
G28 ;Home
G1 Z15.0 F6000 ;Move the platform down 15mm
;Prime the extruder
G92 E0
G1 F200 E3
G92 E0
G92 E0
G92 E0
G1 F1500 E-6.5
;LAYER_COUNT:113
;LAYER:0
M107
G0 F3600 X77.016 Y82.784 Z0.3
;TYPE:SKIRT
G1 F1500 E0
G1 F1800 X77.477 Y82.411 E0.02958
G1 X77.984 Y82.103 E0.05918
G1 X78.527 Y81.866 E0.08874
G1 X79.098 Y81.704 E0.11835
G1 X79.886 Y81.611 E0.15794
G1 X80.207 Y81.602 E0.17396
G1 X80.33 Y81.6 E0.1801
G1 X99.356 Y81.6 E1.12931
G1 X100.054 Y81.61 E1.16413
G1 X100.645 Y81.659 E1.19372
G1 X101.224 Y81.786 E1.22329
G1 X101.781 Y81.99 E1.25289
G1 X102.305 Y82.268 E1.28248
G1 X102.787 Y82.613 E1.31205
G1 X103.219 Y83.02 E1.34166
G1 X103.591 Y83.481 E1.37122
G1 X103.899 Y83.988 E1.40081
G1 X104.135 Y84.532 E1.4304
G1 X104.296 Y85.102 E1.45995
G1 X104.389 Y85.886 E1.49934
G1 X104.398 Y86.206 E1.51531
G1 X104.4 Y86.33 E1.52149
G1 X104.4 Y93.318 E1.87013
G1 X104.391 Y94.045 E1.9064
G1 X104.343 Y94.637 E1.93603
G1 X104.217 Y95.216 E1.96559
G1 X104.014 Y95.773 E1.99517
G1 X103.738 Y96.298 E2.02476
G1 X103.394 Y96.781 E2.05435
G1 X102.988 Y97.213 E2.08392
G1 X102.527 Y97.586 E2.11351
G1 X102.021 Y97.895 E2.14309
G1 X101.478 Y98.132 E2.17265
G1 X100.907 Y98.295 E2.20227
G1 X100.114 Y98.389 E2.24211
G1 X99.793 Y98.398 E2.25813
G1 X99.67 Y98.4 E2.26427
G1 X80.65 Y98.4 E3.21318
G1 X79.952 Y98.391 E3.24801
G1 X79.361 Y98.343 E3.27759
G1 X78.782 Y98.216 E3.30716
G1 X78.225 Y98.013 E3.33674
G1 X77.7 Y97.737 E3.36633
G1 X77.218 Y97.392 E3.3959
G1 X76.786 Y96.986 E3.42548
G1 X76.412 Y96.525 E3.4551
G1 X76.104 Y96.019 E3.48465
G1 X75.867 Y95.475 E3.51425
G1 X75.705 Y94.905 E3.54382
G1 X75.611 Y94.11 E3.58376
G1 X75.602 Y93.777 E3.60038
G1 X75.6 Y93.658 E3.60631
G1 X75.6 Y86.614 E3.95774
G1 X75.609 Y85.949 E3.99092
G1 X75.657 Y85.358 E4.0205
G1 X75.784 Y84.779 E4.05008
G1 X75.988 Y84.222 E4.07967
G1 X76.265 Y83.698 E4.10924
G1 X76.61 Y83.216 E4.13881
G1 X77.016 Y82.784 E4.16839
G0 F3600 X77.406 Y82.972
G1 F1800 X77.86 Y82.635 E4.1966
G1 X78.357 Y82.366 E4.22479
G1 X78.887 Y82.169 E4.253
G1 X79.44 Y82.05 E4.28122
G1 X79.897 Y82.011 E4.3041
G1 X80.218 Y82.002 E4.32013
G1 X80.33 Y82 E4.32571
G1 X99.35 Y82 E5.27463
G1 X100.048 Y82.01 E5.30945
G1 X100.612 Y82.058 E5.33769
G1 X101.162 Y82.185 E5.36585
G1 X101.69 Y82.389 E5.39409
G1 X102.184 Y82.664 E5.4223
G1 X102.633 Y83.007 E5.45049
G1 X103.03 Y83.409 E5.47868
G1 X103.367 Y83.864 E5.50693
G1 X103.635 Y84.361 E5.5351
G1 X103.831 Y84.891 E5.56329
G1 X103.951 Y85.444 E5.59152
G1 X103.989 Y85.898 E5.61425
G1 X103.998 Y86.218 E5.63022
G1 X104 Y86.33 E5.63581
G1 X104 Y93.314 E5.98424
G1 X103.991 Y94.041 E6.02052
G1 X103.944 Y94.604 E6.0487
G1 X103.818 Y95.155 E6.0769
G1 X103.616 Y95.683 E6.1051
G1 X103.341 Y96.177 E6.13331
G1 X102.999 Y96.627 E6.16151
G1 X102.597 Y97.025 E6.18973
G1 X102.144 Y97.362 E6.2179
G1 X101.647 Y97.632 E6.24612
G1 X101.117 Y97.829 E6.27433
G1 X100.565 Y97.95 E6.30252
G1 X100.103 Y97.989 E6.32565
G1 X99.782 Y97.998 E6.34167
G1 X99.67 Y98 E6.34726
G1 X80.655 Y98 E7.29592
G1 X79.957 Y97.991 E7.33075
G1 X79.394 Y97.943 E7.35894
G1 X78.843 Y97.817 E7.38714
G1 X78.315 Y97.615 E7.41534
G1 X77.821 Y97.34 E7.44355
G1 X77.371 Y96.998 E7.47175
G1 X76.973 Y96.596 E7.49997
G1 X76.637 Y96.142 E7.52815
G1 X76.367 Y95.645 E7.55637
G1 X76.17 Y95.115 E7.58458
G1 X76.05 Y94.563 E7.61276
G1 X76.01 Y94.099 E7.636
G1 X76.001 Y93.766 E7.65262
G1 X76 Y93.658 E7.658
G1 X76 Y86.62 E8.00913
G1 X76.009 Y85.955 E8.04231
G1 X76.057 Y85.392 E8.0705
G1 X76.183 Y84.841 E8.0987
G1 X76.386 Y84.313 E8.12692
G1 X76.662 Y83.819 E8.15515
G1 X77.004 Y83.369 E8.18335
G1 X77.406 Y82.972 E8.21154
G0 F3600 X77.397 Y83.531
G1 F1800 X77.794 Y83.171 E8.23828
G1 X78.241 Y82.873 E8.26508
G1 X78.726 Y82.645 E8.29182
G1 X79.24 Y82.492 E8.31857
G1 X79.908 Y82.41 E8.35215
G1 X80.229 Y82.401 E8.36817
G1 X80.33 Y82.4 E8.37321
G1 X99.345 Y82.4 E9.32187
G1 X100.043 Y82.41 E9.3567
G1 X100.577 Y82.458 E9.38345
G1 X101.098 Y82.584 E9.41019
G1 X101.595 Y82.787 E9.43697
G1 X102.056 Y83.061 E9.46373
G1 X102.471 Y83.4 E9.49046
G1 X102.831 Y83.798 E9.51724
G1 X103.128 Y84.244 E9.54397
G1 X103.356 Y84.73 E9.57075
G1 X103.508 Y85.244 E9.59749
G1 X103.59 Y85.909 E9.63092
G1 X103.599 Y86.229 E9.64689
G1 X103.6 Y86.33 E9.65193
G1 X103.6 Y93.309 E10.00012
G1 X103.591 Y94.036 E10.03639
G1 X103.544 Y94.57 E10.06313
G1 X103.419 Y95.091 E10.08986
G1 X103.217 Y95.588 E10.11663
G1 X102.944 Y96.05 E10.1434
G1 X102.606 Y96.466 E10.17014
G1 X102.209 Y96.827 E10.19691
G1 X101.763 Y97.125 E10.22367
G1 X101.278 Y97.353 E10.25041
G1 X100.764 Y97.507 E10.27718
G1 X100.092 Y97.59 E10.31096
G1 X99.771 Y97.599 E10.32698
G1 X99.67 Y97.6 E10.33202
G1 X80.661 Y97.6 E11.28038
G1 X79.963 Y97.591 E11.31521
G1 X79.428 Y97.544 E11.34201
G1 X78.907 Y97.418 E11.36875
G1 X78.41 Y97.216 E11.39551
G1 X77.949 Y96.943 E11.42224
G1 X77.533 Y96.604 E11.44902
G1 X77.172 Y96.208 E11.47575
G1 X76.874 Y95.762 E11.50251
G1 X76.646 Y95.276 E11.52929
G1 X76.493 Y94.762 E11.55605
G1 X76.41 Y94.088 E11.58993
G1 X76.401 Y93.755 E11.60655
G1 X76.4 Y93.658 E11.61139
G1 X76.4 Y86.625 E11.96226
G1 X76.409 Y85.96 E11.99544
G1 X76.457 Y85.426 E12.02219
G1 X76.583 Y84.905 E12.04894
G1 X76.785 Y84.408 E12.0757
G1 X77.058 Y83.947 E12.10243
G1 X77.397 Y83.531 E12.1292
G0 F3600 X77.789 Y83.704
G1 F1800 X78.18 Y83.383 E12.15444
G1 X78.617 Y83.128 E12.17968
G1 X79.088 Y82.944 E12.20491
G1 X79.582 Y82.838 E12.23012
G1 X79.919 Y82.81 E12.24699
G1 X80.24 Y82.801 E12.26301
G1 X80.33 Y82.8 E12.2675
G1 X99.339 Y82.8 E13.21586
G1 X100.037 Y82.81 E13.25069
G1 X100.54 Y82.857 E13.27589
G1 X101.03 Y82.983 E13.30114
G1 X101.494 Y83.185 E13.32638
G1 X101.92 Y83.457 E13.3516
G1 X102.298 Y83.792 E13.3768
G1 X102.618 Y84.183 E13.40201
G1 X102.873 Y84.62 E13.42725
G1 X103.056 Y85.091 E13.45246
G1 X103.163 Y85.585 E13.47768
G1 X103.19 Y85.92 E13.49444
G1 X103.199 Y86.24 E13.51041
G1 X103.2 Y86.33 E13.5149
G1 X103.2 Y93.304 E13.86284
G1 X103.191 Y94.031 E13.89911
G1 X103.145 Y94.534 E13.92431
G1 X103.02 Y95.024 E13.94954
G1 X102.819 Y95.488 E13.97477
G1 X102.548 Y95.915 E14
G1 X102.213 Y96.294 E14.02524
G1 X101.823 Y96.615 E14.05044
G1 X101.387 Y96.871 E14.07566
G1 X100.916 Y97.054 E14.10087
G1 X100.422 Y97.162 E14.1261
G1 X100.081 Y97.19 E14.14317
G1 X99.76 Y97.199 E14.15919
G1 X99.67 Y97.2 E14.16368
G1 X80.666 Y97.2 E15.11179
G1 X79.968 Y97.191 E15.14662
G1 X79.464 Y97.144 E15.17187
G1 X78.974 Y97.019 E15.1971
G1 X78.51 Y96.818 E15.22233
G1 X78.084 Y96.547 E15.24752
G1 X77.705 Y96.212 E15.27275
G1 X77.384 Y95.821 E15.29799
G1 X77.129 Y95.385 E15.32319
G1 X76.945 Y94.914 E15.34842
G1 X76.838 Y94.42 E15.37364
G1 X76.81 Y94.077 E15.39081
G1 X76.801 Y93.744 E15.40743
G1 X76.8 Y93.658 E15.41172
G1 X76.8 Y86.631 E15.7623
G1 X76.809 Y85.966 E15.79548
G1 X76.856 Y85.462 E15.82073
G1 X76.982 Y84.973 E15.84592
G1 X77.183 Y84.509 E15.87115
G1 X77.454 Y84.082 E15.89638
G1 X77.789 Y83.704 E15.92158
G1 F1500 E9.42158
;MESH:string_test_fast_pyramid.stl
G0 F3600 X80.614 Y85.335
G0 X80.614 Y86.614
G0 X80.67 Y93.33
G0 X80.6 Y93.4
;TYPE:WALL-INNER
G1 F1500 E15.92158
G1 F1800 X80.6 Y86.6 E16.26083
G1 X99.4 Y86.6 E17.19877
G1 X99.4 Y93.4 E17.53802
G1 X80.6 Y93.4 E18.47596
G0 F3600 X80.2 Y93.8
;TYPE:WALL-OUTER
G1 F1800 X80.2 Y86.2 E18.85512
G1 X99.8 Y86.2 E19.83297
G1 X99.8 Y93.8 E20.21214
G1 X80.2 Y93.8 E21.18999
G0 F3600 X80.2 Y93.6
G0 X80.99 Y93.01
;TYPE:SKIN
G1 F1800 X80.99 Y86.99 E21.49032
G1 X99.01 Y86.99 E22.38935
G1 X99.01 Y93.01 E22.68968
G1 X80.99 Y93.01 E23.58871
G0 F3600 X81.515 Y92.828
G1 F1800 X81.17 Y92.483 E23.61305
G0 F3600 X81.17 Y91.918
G1 F1800 X82.08 Y92.828 E23.67725
G0 F3600 X82.646 Y92.828
G1 F1800 X81.17 Y91.352 E23.78139
G0 F3600 X81.17 Y90.786
G1 F1800 X83.212 Y92.828 E23.92547
G0 F3600 X83.778 Y92.828
G1 F1800 X81.17 Y90.221 E24.10944
G0 F3600 X81.17 Y89.655
G1 F1800 X84.343 Y92.828 E24.33331
G0 F3600 X84.909 Y92.828
G1 F1800 X81.17 Y89.089 E24.59712
G0 F3600 X81.17 Y88.524
G1 F1800 X85.475 Y92.828 E24.90083
G0 F3600 X86.04 Y92.828
G1 F1800 X81.17 Y87.958 E25.24443
G0 F3600 X81.17 Y87.392
G1 F1800 X86.606 Y92.828 E25.62797
G0 F3600 X87.172 Y92.828
G1 F1800 X81.513 Y87.17 E26.02721
G0 F3600 X82.078 Y87.17
G1 F1800 X87.737 Y92.828 E26.42644
G0 F3600 X88.303 Y92.828
G1 F1800 X82.644 Y87.17 E26.82568
G0 F3600 X83.21 Y87.17
G1 F1800 X88.869 Y92.828 E27.22492
G0 F3600 X89.434 Y92.828
G1 F1800 X83.775 Y87.17 E27.62416
G0 F3600 X84.341 Y87.17
G1 F1800 X90.001 Y92.829 E28.02347
G0 F3600 X90.566 Y92.829
G1 F1800 X84.907 Y87.17 E28.42274
G0 F3600 X85.472 Y87.17
G1 F1800 X91.132 Y92.829 E28.82205
G0 F3600 X91.698 Y92.829
G1 F1800 X86.038 Y87.17 E29.22136
G0 F3600 X86.604 Y87.17
G1 F1800 X92.263 Y92.829 E29.62063
G0 F3600 X92.829 Y92.829
G1 F1800 X87.17 Y87.17 E30.0199
G0 F3600 X87.735 Y87.17
G1 F1800 X93.395 Y92.829 E30.41921
G0 F3600 X93.961 Y92.829
G1 F1800 X88.301 Y87.17 E30.81852
G0 F3600 X88.867 Y87.17
G1 F1800 X94.526 Y92.829 E31.21779
G0 F3600 X95.092 Y92.829
G1 F1800 X89.432 Y87.17 E31.6171
G0 F3600 X89.998 Y87.17
G1 F1800 X95.658 Y92.829 E32.01641
G0 F3600 X96.223 Y92.829
G1 F1800 X90.564 Y87.17 E32.41568
G0 F3600 X91.129 Y87.17
G1 F1800 X96.789 Y92.829 E32.81499
G0 F3600 X97.355 Y92.829
G1 F1800 X91.695 Y87.17 E33.2143
G0 F3600 X92.261 Y87.17
G1 F1800 X97.92 Y92.829 E33.61357
G0 F3600 X98.486 Y92.829
G1 F1800 X92.826 Y87.17 E34.01288
G0 F3600 X93.392 Y87.17
G1 F1800 X98.829 Y92.606 E34.39645
G0 F3600 X98.829 Y92.041
G1 F1800 X93.958 Y87.17 E34.74013
G0 F3600 X94.523 Y87.17
G1 F1800 X98.829 Y91.475 E35.0439
G0 F3600 X98.829 Y90.909
G1 F1800 X95.089 Y87.17 E35.30775
G0 F3600 X95.655 Y87.17
G1 F1800 X98.829 Y90.344 E35.53169
G0 F3600 X98.829 Y89.778
G1 F1800 X96.22 Y87.17 E35.71573
G0 F3600 X96.786 Y87.17
G1 F1800 X98.829 Y89.212 E35.85984
G0 F3600 X98.829 Y88.647
G1 F1800 X97.352 Y87.17 E35.96405
G0 F3600 X97.918 Y87.17
G1 F1800 X98.829 Y88.081 E36.02833
G0 F3600 X98.829 Y87.515
G1 F1800 X98.483 Y87.17 E36.05271
;MESH:NONMESH
G0 F3600 X80.67 Y93.33
G0 X80.6 Y93.4
;TIME_ELAPSED:29.570932
;LAYER:1
M140 S60
M106 S255
;MESH:string_test_fast_pyramid.stl
G0 F5400 X80.6 Y93.4 Z0.45
;TYPE:WALL-INNER
G1 F3300 X80.6 Y86.6 E36.22233
G1 X99.4 Y86.6 E36.6913
G1 X99.4 Y93.4 E36.86093
G1 X80.6 Y93.4 E37.3299
G0 F5400 X80.2 Y93.8
;TYPE:WALL-OUTER
G1 F2100 X80.2 Y86.2 E37.51948
G1 X99.8 Y86.2 E38.0084
G1 X99.8 Y93.8 E38.19798
G1 X80.2 Y93.8 E38.68691
G0 F5400 X80.2 Y93.6
G0 X80.99 Y93.01
;TYPE:SKIN
G1 F1800 X80.99 Y86.99 E38.83708
G1 X99.01 Y86.99 E39.28659
G1 X99.01 Y93.01 E39.43676
G1 X80.99 Y93.01 E39.88627
G0 F5400 X81.17 Y87.404
G1 F1800 X81.404 Y87.169 E39.89454
G0 F5400 X81.97 Y87.169
G1 F1800 X81.17 Y87.969 E39.92276
G0 F5400 X81.17 Y88.535
G1 F1800 X82.536 Y87.169 E39.97095
G0 F5400 X83.102 Y87.169
G1 F1800 X81.17 Y89.101 E40.03911
G0 F5400 X81.17 Y89.666
G1 F1800 X83.667 Y87.169 E40.1272
G0 F5400 X84.233 Y87.169
G1 F1800 X81.17 Y90.232 E40.23525
G0 F5400 X81.17 Y90.798
G1 F1800 X84.799 Y87.169 E40.36328
G0 F5400 X85.364 Y87.169
G1 F1800 X81.17 Y91.363 E40.51123
G0 F5400 X81.17 Y91.929
G1 F1800 X85.93 Y87.169 E40.67915
G0 F5400 X86.496 Y87.169
G1 F1800 X81.17 Y92.495 E40.86704
G0 F5400 X81.401 Y92.829
G1 F1800 X87.061 Y87.169 E41.06671
G0 F5400 X87.627 Y87.169
G1 F1800 X81.967 Y92.829 E41.26639
G0 F5400 X82.532 Y92.829
G1 F1800 X88.193 Y87.169 E41.46608
G0 F5400 X88.758 Y87.169
G1 F1800 X83.098 Y92.829 E41.66575
G0 F5400 X83.664 Y92.829
G1 F1800 X89.324 Y87.169 E41.86542
G0 F5400 X89.89 Y87.169
G1 F1800 X84.229 Y92.829 E42.06511
G0 F5400 X84.795 Y92.829
G1 F1800 X90.455 Y87.169 E42.26478
G0 F5400 X91.021 Y87.169
G1 F1800 X85.361 Y92.829 E42.46445
G0 F5400 X85.926 Y92.829
G1 F1800 X91.587 Y87.169 E42.66414
G0 F5400 X92.152 Y87.169
G1 F1800 X86.492 Y92.829 E42.86381
G0 F5400 X87.058 Y92.829
G1 F1800 X92.718 Y87.169 E43.06348
G0 F5400 X93.284 Y87.169
G1 F1800 X87.623 Y92.829 E43.26317
G0 F5400 X88.189 Y92.829
G1 F1800 X93.85 Y87.169 E43.46286
G0 F5400 X94.415 Y87.169
G1 F1800 X88.755 Y92.829 E43.66254
G0 F5400 X89.321 Y92.829
G1 F1800 X94.981 Y87.169 E43.86221
G0 F5400 X95.547 Y87.169
G1 F1800 X89.886 Y92.829 E44.0619
G0 F5400 X90.451 Y92.83
G1 F1800 X96.112 Y87.169 E44.2616
G0 F5400 X96.678 Y87.169
G1 F1800 X91.017 Y92.83 E44.46131
G0 F5400 X91.583 Y92.83
G1 F1800 X97.244 Y87.169 E44.66102
G0 F5400 X97.809 Y87.169
G1 F1800 X92.148 Y92.83 E44.86072
G0 F5400 X92.714 Y92.83
G1 F1800 X98.375 Y87.169 E45.06043
G0 F5400 X98.828 Y87.281
G1 F1800 X93.28 Y92.83 E45.25617
G0 F5400 X93.845 Y92.83
G1 F1800 X98.828 Y87.847 E45.43196
G0 F5400 X98.828 Y88.413
G1 F1800 X94.411 Y92.83 E45.58778
G0 F5400 X94.977 Y92.83
G1 F1800 X98.828 Y88.978 E45.72365
G0 F5400 X98.828 Y89.544
G1 F1800 X95.542 Y92.83 E45.83958
G0 F5400 X96.108 Y92.83
G1 F1800 X98.828 Y90.11 E45.93553
G0 F5400 X98.828 Y90.675
G1 F1800 X96.674 Y92.83 E46.01154
G0 F5400 X97.239 Y92.83
G1 F1800 X98.828 Y91.241 E46.06759
G0 F5400 X98.828 Y91.807
G1 F1800 X97.805 Y92.83 E46.10368
G0 F5400 X98.371 Y92.83
G1 F1800 X98.828 Y92.372 E46.11982
;MESH:NONMESH
G0 F5400 X80.67 Y93.33
G0 X80.6 Y93.4
;TIME_ELAPSED:43.299754
;LAYER:2
;MESH:string_test_fast_pyramid.stl
G0 F7200 X80.6 Y93.4 Z0.6
;TYPE:WALL-INNER
G1 F4800 X80.6 Y86.6 E46.28945
G1 X99.4 Y86.6 E46.75842
G1 X99.4 Y93.4 E46.92804
G1 X80.6 Y93.4 E47.39701
G0 F7200 X80.2 Y93.8
;TYPE:WALL-OUTER
G1 F2400 X80.2 Y86.2 E47.58659
G1 X99.8 Y86.2 E48.07552
G1 X99.8 Y93.8 E48.2651
G1 X80.2 Y93.8 E48.75402
G0 F7200 X80.2 Y93.6
G0 X80.99 Y93.01
;TYPE:SKIN
G1 F1800 X80.99 Y86.99 E48.90419
G1 X99.01 Y86.99 E49.3537
G1 X99.01 Y93.01 E49.50387
G1 X80.99 Y93.01 E49.95338
G0 F7200 X81.515 Y92.828
G1 F1800 X81.17 Y92.483 E49.96556
G0 F7200 X81.17 Y91.918
G1 F1800 X82.08 Y92.828 E49.99766
G0 F7200 X82.646 Y92.828
G1 F1800 X81.17 Y91.352 E50.04973
G0 F7200 X81.17 Y90.786
G1 F1800 X83.212 Y92.828 E50.12176
G0 F7200 X83.778 Y92.828
G1 F1800 X81.17 Y90.221 E50.21375
G0 F7200 X81.17 Y89.655
G1 F1800 X84.343 Y92.828 E50.32569
G0 F7200 X84.909 Y92.828
G1 F1800 X81.17 Y89.089 E50.45759
G0 F7200 X81.17 Y88.524
G1 F1800 X85.475 Y92.828 E50.60944
G0 F7200 X86.04 Y92.828
G1 F1800 X81.17 Y87.958 E50.78125
G0 F7200 X81.17 Y87.392
G1 F1800 X86.606 Y92.828 E50.97302
G0 F7200 X87.172 Y92.828
G1 F1800 X81.513 Y87.17 E51.17263
G0 F7200 X82.078 Y87.17
G1 F1800 X87.737 Y92.828 E51.37225
G0 F7200 X88.303 Y92.828
G1 F1800 X82.644 Y87.17 E51.57187
G0 F7200 X83.21 Y87.17
G1 F1800 X88.869 Y92.828 E51.77149
G0 F7200 X89.434 Y92.828
G1 F1800 X83.775 Y87.17 E51.97111
G0 F7200 X84.341 Y87.17
G1 F1800 X90.001 Y92.829 E52.17076
G0 F7200 X90.566 Y92.829
G1 F1800 X84.907 Y87.17 E52.3704
G0 F7200 X85.472 Y87.17
G1 F1800 X91.132 Y92.829 E52.57006
G0 F7200 X91.698 Y92.829
G1 F1800 X86.038 Y87.17 E52.76971
G0 F7200 X86.604 Y87.17
G1 F1800 X92.263 Y92.829 E52.96935
G0 F7200 X92.829 Y92.829
G1 F1800 X87.17 Y87.17 E53.16898
G0 F7200 X87.735 Y87.17
G1 F1800 X93.395 Y92.829 E53.36864
G0 F7200 X93.961 Y92.829
G1 F1800 X88.301 Y87.17 E53.56829
G0 F7200 X88.867 Y87.17
G1 F1800 X94.526 Y92.829 E53.76793
G0 F7200 X95.092 Y92.829
G1 F1800 X89.432 Y87.17 E53.96758
G0 F7200 X89.998 Y87.17
G1 F1800 X95.658 Y92.829 E54.16724
G0 F7200 X96.223 Y92.829
G1 F1800 X90.564 Y87.17 E54.36687
G0 F7200 X91.129 Y87.17
G1 F1800 X96.789 Y92.829 E54.56653
G0 F7200 X97.355 Y92.829
G1 F1800 X91.695 Y87.17 E54.76618
G0 F7200 X92.261 Y87.17
G1 F1800 X97.92 Y92.829 E54.96582
