;FLAVOR:Marlin
;TIME:7855
;Filament used: 5.87842m
;Layer height: 0.15
;MINX:66.853
;MINY:72.351
;MINZ:0.3
;MAXX:116.915
;MAXY:107.663
;MAXZ:101.4
;Generated with Cura_SteamEngine 4.1.0
M140 S60
M105
M190 S60
M104 S200
M105
M109 S200
M82 ;absolute extrusion mode
G28 ;Home
G1 Z15.0 F6000 ;Move the platform down 15mm
;Prime the extruder
G92 E0
G1 F200 E3
G92 E0
G92 E0
G92 E0
G1 F1500 E-6.5
;LAYER_COUNT:675
;LAYER:0
M107
G0 F3600 X68.145 Y73.521 Z0.3
;TYPE:SKIRT
G1 F1500 E0
G1 F1800 X68.561 Y73.183 E0.02674
G1 X68.987 Y72.93 E0.05146
G1 X69.24 Y72.802 E0.06561
G1 X69.735 Y72.596 E0.09235
G1 X70.468 Y72.436 E0.12979
G1 X70.856 Y72.393 E0.14926
G1 X71.315 Y72.372 E0.17218
G1 X71.665 Y72.378 E0.18965
G1 X72.017 Y72.401 E0.20725
G1 X72.311 Y72.435 E0.22201
G1 X72.558 Y72.472 E0.23447
G1 X72.997 Y72.554 E0.25675
G1 X72.997 Y72.555 E0.2568
G1 X75.718 Y73.056 E0.39484
G1 X78.391 Y73.471 E0.52979
G1 X81.126 Y73.816 E0.66732
G1 X83.85 Y74.082 E0.80387
G1 X86.536 Y74.267 E0.93819
G1 X89.269 Y74.38 E1.07466
G1 X91.997 Y74.413 E1.21077
G1 X94.729 Y74.37 E1.34709
G1 X97.453 Y74.25 E1.48312
G1 X100.181 Y74.052 E1.61958
G1 X102.897 Y73.778 E1.75577
G1 X105.57 Y73.431 E1.89024
G1 X108.292 Y72.999 E2.02774
G1 X110.63 Y72.566 E2.14637
G1 X111.079 Y72.477 E2.16921
G1 X111.181 Y72.458 E2.17438
G1 X111.412 Y72.419 E2.18607
G1 X111.717 Y72.381 E2.2014
G1 X112.083 Y72.351 E2.21973
G1 X112.694 Y72.353 E2.25021
G1 X113.294 Y72.406 E2.28026
G1 X113.823 Y72.493 E2.30701
G1 X114.333 Y72.657 E2.33373
G1 X114.776 Y72.874 E2.35834
G1 X114.984 Y72.994 E2.37032
G1 X115.427 Y73.296 E2.39707
G1 X115.821 Y73.66 E2.42383
G1 X116.156 Y74.079 E2.4506
G1 X116.312 Y74.327 E2.46521
G1 X116.437 Y74.546 E2.4778
G1 X116.667 Y75.031 E2.50457
G1 X116.823 Y75.544 E2.53133
G1 X116.901 Y76.074 E2.55805
G1 X116.898 Y76.619 E2.58524
G1 X116.876 Y76.893 E2.59896
G1 X116.866 Y77 E2.60432
G1 X116.804 Y77.562 E2.63253
G1 X116.798 Y77.612 E2.63504
G1 X116.586 Y79.315 E2.72066
G1 X116.322 Y82.07 E2.85874
G1 X116.138 Y84.793 E2.9949
G1 X116.033 Y87.489 E3.1295
G1 X116.003 Y90.242 E3.26686
G1 X116.05 Y92.95 E3.40198
G1 X116.174 Y95.674 E3.53802
G1 X116.377 Y98.398 E3.6743
G1 X116.773 Y102.082 E3.85915
G1 X116.865 Y102.806 E3.89557
G1 X116.887 Y103.028 E3.9067
G1 X116.915 Y103.465 E3.92854
G1 X116.909 Y104.001 E3.95528
G1 X116.824 Y104.531 E3.98206
G1 X116.661 Y105.041 E4.00878
G1 X116.403 Y105.557 E4.03756
G1 X116.296 Y105.734 E4.04788
G1 X115.985 Y106.171 E4.07464
G1 X115.613 Y106.557 E4.10138
G1 X115.187 Y106.884 E4.12817
G1 X114.847 Y107.081 E4.14778
G1 X114.611 Y107.201 E4.16099
G1 X114.116 Y107.408 E4.18776
G1 X113.393 Y107.568 E4.2247
G1 X112.866 Y107.629 E4.25117
G1 X112.197 Y107.644 E4.28455
G1 X111.972 Y107.628 E4.29581
G1 X111.813 Y107.613 E4.30377
G1 X111.519 Y107.579 E4.31854
G1 X111.328 Y107.552 E4.32816
G1 X111.111 Y107.515 E4.33914
G1 X111.02 Y107.498 E4.34376
G1 X110.703 Y107.435 E4.35989
G1 X107.994 Y106.939 E4.49729
G1 X105.291 Y106.522 E4.63374
G1 X102.579 Y106.182 E4.7701
G1 X99.903 Y105.923 E4.90423
G1 X97.136 Y105.734 E5.04259
G1 X94.445 Y105.627 E5.17696
G1 X91.714 Y105.595 E5.31321
G1 X88.951 Y105.641 E5.45108
G1 X86.254 Y105.763 E5.58577
G1 X83.565 Y105.96 E5.72029
G1 X80.818 Y106.239 E5.85804
G1 X78.114 Y106.592 E5.99409
G1 X75.416 Y107.023 E6.1304
G1 X72.758 Y107.522 E6.26532
G1 X72.57 Y107.552 E6.27482
G1 X71.978 Y107.631 E6.30462
G1 X71.452 Y107.663 E6.33091
G1 X71.235 Y107.66 E6.34174
G1 X71.108 Y107.656 E6.34807
G1 X70.823 Y107.642 E6.36231
G1 X70.291 Y107.576 E6.38906
G1 X69.793 Y107.438 E6.41484
G1 X69.484 Y107.328 E6.4312
G1 X68.993 Y107.111 E6.45798
G1 X68.54 Y106.823 E6.48476
G1 X68.07 Y106.404 E6.51618
G1 X67.925 Y106.25 E6.52673
G1 X67.587 Y105.833 E6.55351
G1 X67.316 Y105.371 E6.58023
G1 X67.115 Y104.873 E6.60702
G1 X66.982 Y104.291 E6.63681
G1 X66.945 Y104.032 E6.64986
G1 X66.909 Y103.497 E6.67661
G1 X66.935 Y103.088 E6.69706
G1 X67.27 Y100.335 E6.83542
G1 X67.518 Y97.678 E6.96856
G1 X67.696 Y94.924 E7.10624
G1 X67.795 Y92.192 E7.24263
G1 X67.818 Y89.454 E7.37923
G1 X67.763 Y86.766 E7.51337
G1 X67.629 Y84.005 E7.65128
G1 X67.424 Y81.332 E7.78502
G1 X67.044 Y77.849 E7.95982
G1 X66.945 Y77.068 E7.9991
G1 X66.919 Y76.754 E8.01482
G1 X66.908 Y76.469 E8.02905
G1 X66.927 Y75.933 E8.0558
G1 X67.026 Y75.406 E8.08256
G1 X67.202 Y74.899 E8.10933
G1 X67.376 Y74.549 E8.12883
G1 X67.483 Y74.361 E8.13962
G1 X67.783 Y73.916 E8.1664
G1 X68.145 Y73.521 E8.19313
G0 F3600 X68.461 Y73.773
G1 F1800 X68.861 Y73.463 E8.21838
G1 X69.167 Y73.287 E8.23599
G1 X69.42 Y73.159 E8.25013
G1 X69.888 Y72.967 E8.27537
G1 X70.513 Y72.833 E8.30726
G1 X70.901 Y72.79 E8.32674
G1 X71.308 Y72.771 E8.34707
G1 X71.658 Y72.777 E8.36453
G1 X71.971 Y72.798 E8.38018
G1 X72.265 Y72.832 E8.39495
G1 X72.485 Y72.865 E8.40604
G1 X72.924 Y72.947 E8.42832
G1 X72.924 Y72.948 E8.42837
G1 X75.65 Y73.449 E8.56665
G1 X78.351 Y73.869 E8.70303
G1 X81.073 Y74.212 E8.8399
G1 X83.817 Y74.48 E8.97745
G1 X86.53 Y74.668 E9.11313
G1 X89.247 Y74.779 E9.24879
G1 X91.998 Y74.813 E9.38605
G1 X94.754 Y74.77 E9.52356
G1 X97.464 Y74.651 E9.6589
G1 X100.217 Y74.451 E9.79661
G1 X102.948 Y74.175 E9.93355
G1 X105.652 Y73.824 E10.06959
G1 X108.349 Y73.396 E10.20582
G1 X110.663 Y72.967 E10.32324
G1 X111.157 Y72.869 E10.34836
G1 X111.247 Y72.853 E10.35292
G1 X111.478 Y72.814 E10.36461
G1 X111.75 Y72.78 E10.37829
G1 X112.116 Y72.75 E10.39661
G1 X112.659 Y72.751 E10.4237
G1 X113.259 Y72.804 E10.45375
G1 X113.757 Y72.889 E10.47895
G1 X114.236 Y73.05 E10.50417
G1 X114.576 Y73.22 E10.52313
G1 X114.784 Y73.34 E10.53511
G1 X115.201 Y73.627 E10.56037
G1 X115.567 Y73.975 E10.58556
G1 X115.964 Y74.526 E10.61944
G1 X116.089 Y74.745 E10.63202
G1 X116.304 Y75.202 E10.65722
G1 X116.445 Y75.688 E10.68247
G1 X116.507 Y76.19 E10.7077
G1 X116.5 Y76.587 E10.72751
G1 X116.478 Y76.861 E10.74123
G1 X116.469 Y76.956 E10.74599
G1 X116.407 Y77.518 E10.7742
G1 X116.402 Y77.562 E10.7764
G1 X116.18 Y79.346 E10.8661
G1 X115.925 Y82.006 E10.99941
G1 X115.741 Y84.749 E11.13657
G1 X115.632 Y87.505 E11.27417
G1 X115.604 Y90.221 E11.40968
G1 X115.651 Y92.974 E11.54705
G1 X115.777 Y95.72 E11.68419
G1 X115.977 Y98.412 E11.81887
G1 X116.376 Y102.119 E12.00488
G1 X116.469 Y102.856 E12.04194
G1 X116.487 Y103.053 E12.05181
G1 X116.515 Y103.49 E12.07365
G1 X116.508 Y103.996 E12.0989
G1 X116.421 Y104.494 E12.12412
G1 X116.256 Y104.972 E12.14935
G1 X116.061 Y105.35 E12.17057
G1 X115.954 Y105.527 E12.18089
G1 X115.659 Y105.938 E12.20613
G1 X115.303 Y106.297 E12.23135
G1 X114.895 Y106.596 E12.25659
G1 X114.665 Y106.724 E12.26972
G1 X114.429 Y106.844 E12.28293
G1 X113.962 Y107.037 E12.30814
G1 X113.347 Y107.171 E12.33954
G1 X112.82 Y107.232 E12.36601
G1 X112.225 Y107.245 E12.3957
G1 X112 Y107.229 E12.40696
G1 X111.859 Y107.216 E12.41402
G1 X111.565 Y107.182 E12.42879
G1 X111.395 Y107.157 E12.43736
G1 X111.178 Y107.12 E12.44834
G1 X111.097 Y107.106 E12.45244
G1 X110.774 Y107.042 E12.46887
G1 X108.056 Y106.544 E12.60673
G1 X105.331 Y106.124 E12.74428
G1 X102.634 Y105.786 E12.87989
G1 X99.929 Y105.524 E13.01548
G1 X97.146 Y105.334 E13.15464
G1 X94.465 Y105.227 E13.28851
G1 X91.712 Y105.195 E13.42586
G1 X88.962 Y105.24 E13.56308
G1 X86.207 Y105.365 E13.70067
G1 X83.532 Y105.561 E13.83448
G1 X80.759 Y105.843 E13.97354
G1 X78.071 Y106.194 E14.10878
G1 X75.351 Y106.629 E14.24621
G1 X72.684 Y107.129 E14.38159
G1 X72.517 Y107.156 E14.39003
G1 X71.925 Y107.235 E14.41982
G1 X71.458 Y107.263 E14.44316
G1 X71.241 Y107.26 E14.45399
G1 X71.128 Y107.256 E14.45963
G1 X70.843 Y107.242 E14.47387
G1 X70.342 Y107.178 E14.49907
G1 X69.927 Y107.061 E14.52058
G1 X69.618 Y106.951 E14.53694
G1 X69.156 Y106.744 E14.5622
G1 X68.733 Y106.467 E14.58742
G1 X68.361 Y106.13 E14.61247
G1 X68.216 Y105.976 E14.62302
G1 X67.9 Y105.581 E14.64826
G1 X67.649 Y105.142 E14.67348
G1 X67.471 Y104.669 E14.6987
G1 X67.378 Y104.235 E14.72084
G1 X67.341 Y103.976 E14.73389
G1 X67.309 Y103.471 E14.75914
G1 X67.332 Y103.136 E14.77589
G1 X67.667 Y100.384 E14.9142
G1 X67.921 Y97.67 E15.0502
G1 X68.095 Y94.966 E15.18538
G1 X68.195 Y92.21 E15.32297
G1 X68.218 Y89.454 E15.46047
G1 X68.163 Y86.74 E15.5959
G1 X68.031 Y84.024 E15.73156
G1 X67.819 Y81.26 E15.86986
G1 X67.448 Y77.861 E16.04045
G1 X67.341 Y77.017 E16.08289
G1 X67.318 Y76.738 E16.09686
G1 X67.307 Y76.453 E16.11109
G1 X67.328 Y75.948 E16.1363
G1 X67.428 Y75.453 E16.1615
G1 X67.604 Y74.979 E16.18672
G1 X67.724 Y74.747 E16.19975
G1 X67.831 Y74.559 E16.21055
G1 X68.115 Y74.141 E16.23576
G1 X68.461 Y73.773 E16.26096
G1 F1500 E9.76096
;MESH:SmartTemperatureTower_PLA_180-225.stl
G0 F3600 X69.818 Y76.721
G0 X73 Y82.9
G0 X73.851 Y83.048
G0 X77.123 Y90.009
G0 X77.023 Y90.009
;TYPE:WALL-INNER
G1 F1500 E16.26096
G1 F1800 X76.864 Y89.863 E16.27173
G1 X76.109 Y89.168 E16.32292
G1 X75.687 Y88.736 E16.35305
G1 X75.346 Y88.354 E16.3786
G1 X75.027 Y87.955 E16.40409
G1 X74.762 Y87.577 E16.42712
G1 X74.474 Y87.085 E16.45556
G1 X74.261 Y86.618 E16.48117
G1 X74.115 Y86.168 E16.50477
G1 X74.029 Y85.729 E16.52709
G1 X73.996 Y85.301 E16.5485
G1 X74.01 Y84.749 E16.57605
G1 X74.064 Y84.278 E16.59971
G1 X74.178 Y83.572 E16.63538
G1 X74.257 Y83.047 E16.66187
G1 X74.302 Y82.458 E16.69134
G1 X74.27 Y81.833 E16.72256
G1 X74.121 Y81.171 E16.75642
G1 X73.856 Y80.504 E16.79222
G1 X73.584 Y79.992 E16.82115
G1 X73.263 Y79.489 E16.85092
G1 X72.91 Y78.991 E16.88137
G1 X72.549 Y78.523 E16.91086
G1 X71.81 Y77.591 E16.9702
G1 X71.514 Y77.2 E16.99467
G1 X71.315 Y76.901 E17.01259
G1 X71.247 Y76.798 E17.01874
G1 X71.179 Y76.647 E17.02701
G1 X71.147 Y76.575 E17.03094
G1 X71.225 Y76.568 E17.03169
G1 X71.388 Y76.553 E17.03628
G1 X71.511 Y76.565 E17.04244
G1 X71.808 Y76.596 E17.05734
G1 X72.266 Y76.691 E17.08068
G1 X72.731 Y76.827 E17.10485
G1 X73.208 Y77.005 E17.13025
G1 X73.663 Y77.214 E17.15523
G1 X74.068 Y77.441 E17.17839
G1 X74.451 Y77.702 E17.20151
G1 X74.866 Y78.056 E17.22873
G1 X75.204 Y78.423 E17.25362
G1 X75.477 Y78.805 E17.27704
G1 X75.699 Y79.203 E17.29978
G1 X75.907 Y79.686 E17.32602
G1 X76.365 Y80.978 E17.39441
G1 X76.636 Y81.603 E17.42839
G1 X76.964 Y82.189 E17.4619
G1 X77.344 Y82.729 E17.49484
G1 X77.784 Y83.225 E17.52792
G1 X78.221 Y83.614 E17.55711
G1 X78.711 Y83.96 E17.58703
G1 X79.269 Y84.268 E17.61883
G1 X79.782 Y84.491 E17.64674
G1 X80.353 Y84.689 E17.67689
G1 X80.992 Y84.865 E17.70996
G1 X81.525 Y84.984 E17.7372
G1 X82.105 Y85.09 E17.76662
G1 X82.738 Y85.188 E17.79857
G1 X83.427 Y85.274 E17.83322
G1 X83.95 Y85.329 E17.85945
G1 X84.476 Y85.377 E17.8858
G1 X85.577 Y85.454 E17.94087
G1 X86.838 Y85.519 E18.00386
G1 X88.229 Y85.564 E18.07329
G1 X89.756 Y85.593 E18.14949
G1 X91.425 Y85.605 E18.23276
G1 X93.576 Y85.598 E18.34007
G1 X95.146 Y85.572 E18.41841
G1 X95.88 Y85.553 E18.45504
G1 X96.58 Y85.529 E18.48999
G1 X97.877 Y85.469 E18.55476
G1 X98.479 Y85.432 E18.58486
G1 X99.048 Y85.391 E18.61332
G1 X100.099 Y85.297 E18.66596
G1 X100.61 Y85.238 E18.69162
G1 X101.255 Y85.152 E18.72409
G1 X101.875 Y85.053 E18.75541
G1 X102.442 Y84.94 E18.78426
G1 X102.963 Y84.818 E18.81095
G1 X103.588 Y84.637 E18.84341
G1 X104.146 Y84.432 E18.87307
G1 X104.659 Y84.198 E18.9012
G1 X105.193 Y83.89 E18.93196
G1 X105.673 Y83.537 E18.96168
G1 X106.157 Y83.081 E18.99486
G1 X106.581 Y82.574 E19.02783
G1 X106.948 Y82.019 E19.06103
G1 X107.258 Y81.421 E19.09463
G1 X107.516 Y80.791 E19.1286
G1 X107.733 Y80.156 E19.16208
G1 X107.971 Y79.509 E19.19647
G1 X108.157 Y79.102 E19.2188
G1 X108.388 Y78.705 E19.24171
G1 X108.67 Y78.329 E19.26516
G1 X109.03 Y77.954 E19.29109
G1 X109.474 Y77.595 E19.31958
G1 X109.841 Y77.359 E19.34135
G1 X110.266 Y77.132 E19.36539
G1 X110.726 Y76.93 E19.39045
G1 X111.212 Y76.758 E19.41617
G1 X111.677 Y76.631 E19.44022
G1 X112.121 Y76.55 E19.46274
G1 X112.406 Y76.531 E19.47699
G1 X112.526 Y76.523 E19.48299
G1 X112.583 Y76.53 E19.48585
G1 X112.671 Y76.543 E19.49029
G1 X112.653 Y76.582
G1 X112.546 Y76.806 E19.49838
G1 X112.479 Y76.905 E19.50355
G1 X112.232 Y77.264 E19.52529
G1 X111.914 Y77.678 E19.55134
G1 X111.553 Y78.132 E19.58027
G1 X111.069 Y78.75 E19.61944
G1 X110.692 Y79.262 E19.65116
G1 X110.359 Y79.765 E19.68125
G1 X110.068 Y80.271 E19.71038
G1 X109.821 Y80.8 E19.7395
G1 X109.619 Y81.448 E19.77337
G1 X109.526 Y82.092 E19.80583
G1 X109.53 Y82.697 E19.83601
G1 X109.599 Y83.264 E19.86451
G1 X109.681 Y83.767 E19.88994
G1 X109.788 Y84.477 E19.92576
G1 X109.827 Y84.917 E19.9478
G1 X109.822 Y85.469 E19.97534
G1 X109.767 Y85.9 E19.99701
G1 X109.656 Y86.343 E20.0198
G1 X109.483 Y86.799 E20.04413
G1 X109.235 Y87.282 E20.07122
G1 X109.001 Y87.652 E20.09306
G1 X108.715 Y88.045 E20.11731
G1 X108.403 Y88.424 E20.1418
G1 X108.034 Y88.83 E20.16917
G1 X107.613 Y89.249 E20.1988
G1 X106.97 Y89.849 E20.24268
G1 X106.814 Y89.995 E20.25334
G1 X106.97 Y90.141 E20.2601
G1 X107.716 Y90.838 E20.31103
G1 X108.14 Y91.272 E20.3413
G1 X108.489 Y91.662 E20.36741
G1 X108.8 Y92.053 E20.39234
G1 X109.068 Y92.434 E20.41558
G1 X109.355 Y92.921 E20.44378
G1 X109.569 Y93.391 E20.46954
G1 X109.716 Y93.843 E20.49326
G1 X109.801 Y94.279 E20.51542
G1 X109.835 Y94.709 E20.53694
G1 X109.82 Y95.263 E20.56459
G1 X109.767 Y95.731 E20.58808
G1 X109.652 Y96.437 E20.62377
G1 X109.573 Y96.963 E20.65031
G1 X109.528 Y97.551 E20.67973
G1 X109.559 Y98.177 E20.711
G1 X109.706 Y98.838 E20.74478
G1 X109.97 Y99.506 E20.78062
G1 X110.243 Y100.017 E20.80952
G1 X110.562 Y100.52 E20.83924
G1 X110.915 Y101.019 E20.86973
G1 X111.276 Y101.487 E20.89922
G1 X112.007 Y102.409 E20.95792
G1 X112.311 Y102.81 E20.98303
G1 X112.511 Y103.11 E21.00101
G1 X112.579 Y103.212 E21.00713
G1 X112.649 Y103.368 E21.01566
G1 X112.681 Y103.439 E21.01955
G1 X112.602 Y103.446 E21.02029
G1 X112.442 Y103.461 E21.02473
G1 X112.32 Y103.449 E21.03085
G1 X112.02 Y103.418 E21.04589
G1 X111.565 Y103.325 E21.06906
G1 X111.099 Y103.188 E21.0933
G1 X110.622 Y103.01 E21.1187
G1 X110.172 Y102.803 E21.14341
G1 X109.747 Y102.565 E21.16771
G1 X109.398 Y102.329 E21.18873
G1 X108.968 Y101.963 E21.2169
G1 X108.622 Y101.587 E21.24239
G1 X108.352 Y101.209 E21.26557
G1 X108.13 Y100.811 E21.28831
G1 X107.918 Y100.317 E21.31512
G1 X107.465 Y99.036 E21.38291
G1 X107.194 Y98.411 E21.4169
G1 X106.867 Y97.824 E21.45042
G1 X106.486 Y97.284 E21.48339
G1 X106.046 Y96.788 E21.51647
G1 X105.61 Y96.399 E21.54562
G1 X105.12 Y96.052 E21.57558
G1 X104.561 Y95.744 E21.60742
G1 X104.049 Y95.521 E21.63528
G1 X103.479 Y95.323 E21.66539
G1 X102.839 Y95.146 E21.69851
G1 X102.306 Y95.027 E21.72576
G1 X101.727 Y94.92 E21.75514
G1 X101.093 Y94.822 E21.78714
G1 X100.404 Y94.736 E21.82178
G1 X99.881 Y94.681 E21.84802
G1 X99.357 Y94.633 E21.87427
G1 X98.835 Y94.593 E21.90039
G1 X98.251 Y94.555 E21.92959
G1 X96.996 Y94.49 E21.99228
G1 X96.315 Y94.465 E22.02628
G1 X95.602 Y94.444 E22.06187
G1 X94.076 Y94.415 E22.13802
G1 X93.257 Y94.406 E22.17888
G1 X91.526 Y94.401 E22.26524
G1 X89.848 Y94.413 E22.34896
G1 X88.313 Y94.443 E22.42555
G1 X87.596 Y94.464 E22.46134
G1 X86.268 Y94.519 E22.52765
G1 X85.65 Y94.554 E22.55853
G1 X85.062 Y94.593 E22.58793
G1 X83.985 Y94.682 E22.64185
G1 X83.459 Y94.738 E22.66824
G1 X82.793 Y94.821 E22.70172
G1 X82.156 Y94.917 E22.73386
G1 X81.572 Y95.024 E22.76348
G1 X81.036 Y95.144 E22.79088
G1 X80.393 Y95.318 E22.82412
G1 X79.82 Y95.516 E22.85436
G1 X79.303 Y95.738 E22.88243
G1 X78.741 Y96.046 E22.91441
G1 X78.251 Y96.391 E22.9443
G1 X77.811 Y96.78 E22.9736
G1 X77.384 Y97.255 E23.00547
G1 X76.999 Y97.793 E23.03848
G1 X76.669 Y98.376 E23.0719
G1 X76.394 Y98.998 E23.10583
G1 X75.95 Y100.259 E23.17252
G1 X75.758 Y100.722 E23.19753
G1 X75.563 Y101.099 E23.21871
G1 X75.306 Y101.487 E23.24193
G1 X74.993 Y101.857 E23.2661
