;FLAVOR:Marlin
;TIME:860
;Filament used: 0.653609m
;Layer height: 0.15
;MINX:67.956
;MINY:81.249
;MINZ:0.3
;MAXX:112.542
;MAXY:98.751
;MAXZ:9.9
;Generated with Cura_SteamEngine 4.1.0
M140 S60
M105
M190 S60
M104 S200
M105
M109 S200
M82 ;absolute extrusion mode
G28 ;Home
G1 Z15.0 F6000 ;Move the platform down 15mm
;Prime the extruder
G92 E0
G1 F200 E3
G92 E0
G92 E0
G92 E0
G1 F1500 E-6.5
;LAYER_COUNT:65
;LAYER:0
M107
G0 F3600 X74.791 Y82.222 Z0.3
;TYPE:SKIRT
G1 F1500 E0
G1 F1800 X75.245 Y81.885 E0.02821
G1 X75.742 Y81.616 E0.0564
G1 X76.272 Y81.42 E0.08459
G1 X76.825 Y81.3 E0.11283
G1 X77.276 Y81.261 E0.13541
G1 X77.58 Y81.252 E0.15058
G1 X77.698 Y81.25 E0.15647
G1 X107.077 Y81.249 E1.6222
G1 X107.133 Y81.249 E1.62499
G1 X107.774 Y81.258 E1.65697
G1 X108.044 Y81.271 E1.67046
G1 X108.85 Y81.337 E1.7108
G1 X109.409 Y81.423 E1.73902
G1 X109.95 Y81.587 E1.76722
G1 X110.463 Y81.825 E1.79544
G1 X110.937 Y82.134 E1.82367
G1 X111.362 Y82.506 E1.85185
G1 X111.731 Y82.934 E1.88004
G1 X112.036 Y83.41 E1.90824
G1 X112.271 Y83.924 E1.93644
G1 X112.431 Y84.467 E1.96468
G1 X112.523 Y85.246 E2.00382
G1 X112.541 Y86.173 E2.05007
G1 X112.542 Y86.251 E2.05397
G1 X112.542 Y94.003 E2.44071
G1 X112.532 Y94.719 E2.47644
G1 X112.484 Y95.282 E2.50463
G1 X112.357 Y95.833 E2.53284
G1 X112.154 Y96.361 E2.56106
G1 X111.878 Y96.854 E2.58925
G1 X111.536 Y97.304 E2.61745
G1 X111.134 Y97.701 E2.64564
G1 X110.679 Y98.038 E2.67388
G1 X110.182 Y98.307 E2.70208
G1 X109.652 Y98.503 E2.73027
G1 X109.082 Y98.625 E2.75935
G1 X108.592 Y98.693 E2.78403
G1 X108.102 Y98.731 E2.80855
G1 X107.363 Y98.742 E2.84542
G1 X107.305 Y98.742 E2.84832
G1 X88.95 Y98.751 E3.76405
G1 X88.948 Y98.751 E3.76415
G1 X78.087 Y98.75 E4.30601
G1 X78.029 Y98.75 E4.3089
G1 X77.337 Y98.74 E4.34343
G1 X76.774 Y98.691 E4.37163
G1 X76.223 Y98.564 E4.39984
G1 X75.696 Y98.361 E4.42801
G1 X75.202 Y98.085 E4.45624
G1 X74.752 Y97.743 E4.48444
G1 X74.355 Y97.34 E4.51266
G1 X74.019 Y96.886 E4.54084
G1 X73.75 Y96.388 E4.56908
G1 X73.554 Y95.858 E4.59727
G1 X73.435 Y95.305 E4.62549
G1 X73.397 Y94.859 E4.64783
G1 X73.387 Y94.523 E4.6646
G1 X73.385 Y94.404 E4.67053
G1 X73.385 Y85.874 E5.0961
G1 X73.394 Y85.205 E5.12948
G1 X73.442 Y84.642 E5.15767
G1 X73.568 Y84.091 E5.18587
G1 X73.771 Y83.563 E5.21409
G1 X74.047 Y83.069 E5.24232
G1 X74.389 Y82.619 E5.27052
G1 X74.791 Y82.222 E5.29871
G0 F3600 X75.179 Y82.421
G1 F1800 X75.625 Y82.123 E5.32547
G1 X76.111 Y81.896 E5.35223
G1 X76.625 Y81.742 E5.379
G1 X77.287 Y81.661 E5.41227
G1 X77.591 Y81.652 E5.42744
G1 X77.698 Y81.65 E5.43278
G1 X107.077 Y81.649 E6.89851
G1 X107.128 Y81.649 E6.90105
G1 X107.769 Y81.658 E6.93304
G1 X108.012 Y81.67 E6.94517
G1 X108.818 Y81.736 E6.98552
G1 X109.348 Y81.819 E7.01228
G1 X109.859 Y81.981 E7.03903
G1 X110.341 Y82.216 E7.06578
G1 X110.782 Y82.521 E7.09253
G1 X111.174 Y82.887 E7.11929
G1 X111.506 Y83.308 E7.14604
G1 X111.773 Y83.773 E7.17279
G1 X111.967 Y84.273 E7.19954
G1 X112.085 Y84.796 E7.22629
G1 X112.123 Y85.254 E7.24922
G1 X112.141 Y86.181 E7.29548
G1 X112.142 Y86.251 E7.29897
G1 X112.142 Y93.997 E7.68542
G1 X112.132 Y94.713 E7.72115
G1 X112.084 Y95.247 E7.74789
G1 X111.958 Y95.769 E7.77469
G1 X111.756 Y96.265 E7.8014
G1 X111.482 Y96.726 E7.82816
G1 X111.143 Y97.142 E7.85493
G1 X110.745 Y97.502 E7.88171
G1 X110.299 Y97.799 E7.90844
G1 X109.814 Y98.027 E7.93518
G1 X109.3 Y98.18 E7.96193
G1 X109.027 Y98.229 E7.97577
G1 X108.537 Y98.297 E8.00045
G1 X108.096 Y98.331 E8.02252
G1 X107.357 Y98.342 E8.05939
G1 X107.305 Y98.342 E8.06198
G1 X88.95 Y98.351 E8.97772
G1 X88.948 Y98.351 E8.97782
G1 X78.087 Y98.35 E9.51968
G1 X78.035 Y98.35 E9.52227
G1 X77.343 Y98.34 E9.5568
G1 X76.809 Y98.292 E9.58355
G1 X76.288 Y98.165 E9.6103
G1 X75.791 Y97.963 E9.63707
G1 X75.33 Y97.689 E9.66382
G1 X74.915 Y97.349 E9.69059
G1 X74.555 Y96.952 E9.71732
G1 X74.258 Y96.506 E9.74406
G1 X74.03 Y96.02 E9.77084
G1 X73.877 Y95.506 E9.79759
G1 X73.797 Y94.847 E9.83071
G1 X73.787 Y94.511 E9.84748
G1 X73.785 Y94.404 E9.85282
G1 X73.785 Y85.88 E10.27809
G1 X73.794 Y85.211 E10.31147
G1 X73.841 Y84.676 E10.33826
G1 X73.967 Y84.155 E10.365
G1 X74.169 Y83.658 E10.39177
G1 X74.443 Y83.197 E10.41852
G1 X74.782 Y82.782 E10.44526
G1 X75.179 Y82.421 E10.47203
G0 F3600 X75.174 Y82.954
G1 F1800 X75.565 Y82.633 E10.49727
G1 X76.001 Y82.378 E10.52247
G1 X76.473 Y82.195 E10.54772
G1 X76.967 Y82.088 E10.57294
G1 X77.299 Y82.06 E10.58956
G1 X77.603 Y82.051 E10.60474
G1 X77.698 Y82.05 E10.60948
G1 X107.077 Y82.049 E12.0752
G1 X107.122 Y82.049 E12.07744
G1 X107.763 Y82.058 E12.10943
G1 X107.979 Y82.069 E12.12022
G1 X108.785 Y82.135 E12.16056
G1 X109.284 Y82.216 E12.18579
G1 X109.764 Y82.374 E12.211
G1 X110.213 Y82.606 E12.23621
G1 X110.62 Y82.906 E12.26144
G1 X110.975 Y83.267 E12.2867
G1 X111.268 Y83.678 E12.31188
G1 X111.493 Y84.131 E12.33711
G1 X111.644 Y84.614 E12.36236
G1 X111.723 Y85.262 E12.39493
G1 X111.741 Y86.189 E12.44118
G1 X111.742 Y86.251 E12.44428
G1 X111.742 Y93.992 E12.83048
G1 X111.732 Y94.708 E12.8662
G1 X111.685 Y95.211 E12.89141
G1 X111.559 Y95.701 E12.91665
G1 X111.358 Y96.165 E12.94188
G1 X111.086 Y96.591 E12.96709
G1 X110.751 Y96.969 E12.99229
G1 X110.36 Y97.29 E13.01753
G1 X109.923 Y97.545 E13.04277
G1 X109.452 Y97.728 E13.06798
G1 X108.972 Y97.833 E13.0925
G1 X108.482 Y97.901 E13.11718
G1 X108.09 Y97.931 E13.13679
G1 X107.351 Y97.942 E13.17366
G1 X107.305 Y97.942 E13.17596
G1 X88.95 Y97.951 E14.09169
G1 X88.948 Y97.951 E14.09179
G1 X78.087 Y97.95 E14.63365
G1 X78.041 Y97.95 E14.63594
G1 X77.349 Y97.94 E14.67047
G1 X76.845 Y97.892 E14.69573
G1 X76.356 Y97.767 E14.72091
G1 X75.892 Y97.565 E14.74616
G1 X75.466 Y97.293 E14.77138
G1 X75.088 Y96.957 E14.79661
G1 X74.767 Y96.566 E14.82185
G1 X74.513 Y96.13 E14.84702
G1 X74.33 Y95.658 E14.87228
G1 X74.223 Y95.164 E14.89749
G1 X74.196 Y94.835 E14.91396
G1 X74.186 Y94.499 E14.93073
G1 X74.185 Y94.404 E14.93547
G1 X74.185 Y85.885 E15.36049
G1 X74.194 Y85.216 E15.39387
G1 X74.241 Y84.713 E15.41907
G1 X74.366 Y84.223 E15.4443
G1 X74.567 Y83.759 E15.46953
G1 X74.839 Y83.332 E15.49479
G1 X75.174 Y82.954 E15.51998
G1 F1500 E9.01998
;MESH:SmartTemperatureTower.stl
G0 F3600 X77.998 Y84.585
G0 X77.999 Y85.864
G0 X107.842 Y85.97
G0 X107.942 Y85.97
;TYPE:WALL-INNER
G1 F1500 E15.51998
G1 F1800 X107.942 Y94.142 E15.92769
G1 X88.948 Y94.151 E16.8753
G1 X77.985 Y94.15 E17.42225
G1 X77.985 Y85.85 E17.83634
G1 X107.651 Y85.849 E19.31638
G1 X107.76 Y85.849 E19.32182
G1 X107.942 Y85.861 E19.33092
G1 X107.942 Y85.97 E19.33636
G0 F3600 X108.342 Y85.489
;TYPE:WALL-OUTER
G1 F1800 X108.342 Y94.505 E19.78617
G1 X108.023 Y94.542 E19.80219
G1 X88.948 Y94.551 E20.75384
G1 X77.585 Y94.55 E21.32075
G1 X77.585 Y85.45 E21.77475
G1 X107.772 Y85.449 E23.28078
G1 X108.316 Y85.486 E23.30798
G1 X108.342 Y85.489 E23.30929
G0 F3600 X108.342 Y85.689
G0 X107.552 Y86.239
;TYPE:SKIN
G1 F1800 X107.552 Y93.752 E23.68412
G1 X88.948 Y93.761 E24.61227
G1 X78.375 Y93.76 E25.13976
G1 X78.375 Y86.24 E25.51494
G1 X107.552 Y86.239 E26.97058
G0 F3600 X107.371 Y87.006
G1 F1800 X106.783 Y86.419 E27.01203
G0 F3600 X106.218 Y86.419
G1 F1800 X107.371 Y87.572 E27.09338
G0 F3600 X107.371 Y88.138
G1 F1800 X105.652 Y86.419 E27.21467
G0 F3600 X105.086 Y86.419
G1 F1800 X107.371 Y88.703 E27.37585
G0 F3600 X107.371 Y89.269
G1 F1800 X104.52 Y86.419 E27.57697
G0 F3600 X103.955 Y86.419
G1 F1800 X107.371 Y89.835 E27.81799
G0 F3600 X107.371 Y90.4
G1 F1800 X103.389 Y86.419 E28.09891
G0 F3600 X102.823 Y86.419
G1 F1800 X107.371 Y90.966 E28.41976
G0 F3600 X107.371 Y91.532
G1 F1800 X102.258 Y86.419 E28.78051
G0 F3600 X101.692 Y86.419
G1 F1800 X107.371 Y92.097 E29.18115
G0 F3600 X107.371 Y92.663
G1 F1800 X101.126 Y86.419 E29.62174
G0 F3600 X100.561 Y86.419
G1 F1800 X107.371 Y93.229 E30.10222
G0 F3600 X107.147 Y93.571
G1 F1800 X99.995 Y86.419 E30.60683
G0 F3600 X99.429 Y86.419
G1 F1800 X106.582 Y93.571 E31.11148
G0 F3600 X106.016 Y93.571
G1 F1800 X98.864 Y86.419 E31.61609
G0 F3600 X98.298 Y86.419
G1 F1800 X105.451 Y93.572 E32.12077
G0 F3600 X104.885 Y93.572
G1 F1800 X97.732 Y86.419 E32.62546
G0 F3600 X97.167 Y86.419
G1 F1800 X104.32 Y93.572 E33.13014
G0 F3600 X103.755 Y93.572
G1 F1800 X96.601 Y86.419 E33.63486
G0 F3600 X96.035 Y86.419
G1 F1800 X103.189 Y93.572 E34.13958
G0 F3600 X102.624 Y93.573
G1 F1800 X95.47 Y86.419 E34.64433
G0 F3600 X94.904 Y86.419
G1 F1800 X102.058 Y93.573 E35.14908
G0 F3600 X101.493 Y93.574
G1 F1800 X94.338 Y86.419 E35.65391
G0 F3600 X93.772 Y86.419
G1 F1800 X100.928 Y93.574 E36.15877
G0 F3600 X100.362 Y93.574
G1 F1800 X93.207 Y86.419 E36.66359
G0 F3600 X92.641 Y86.419
G1 F1800 X99.797 Y93.574 E37.16845
G0 F3600 X99.231 Y93.574
G1 F1800 X92.075 Y86.419 E37.67331
G0 F3600 X91.51 Y86.419
G1 F1800 X98.666 Y93.575 E38.1782
G0 F3600 X98.101 Y93.575
G1 F1800 X90.944 Y86.419 E38.68313
G0 F3600 X90.378 Y86.419
G1 F1800 X97.535 Y93.575 E39.18806
G0 F3600 X96.97 Y93.576
G1 F1800 X89.813 Y86.419 E39.69303
G0 F3600 X89.247 Y86.419
G1 F1800 X96.404 Y93.576 E40.19799
G0 F3600 X95.839 Y93.577
G1 F1800 X88.681 Y86.419 E40.70303
G0 F3600 X88.116 Y86.419
G1 F1800 X95.274 Y93.577 E41.20806
G0 F3600 X94.708 Y93.577
G1 F1800 X87.55 Y86.419 E41.7131
G0 F3600 X86.984 Y86.419
G1 F1800 X94.143 Y93.577 E42.21817
G0 F3600 X93.577 Y93.577
G1 F1800 X86.419 Y86.419 E42.72321
G0 F3600 X85.853 Y86.419
G1 F1800 X93.012 Y93.578 E43.22831
G0 F3600 X92.447 Y93.578
G1 F1800 X85.287 Y86.419 E43.73345
G0 F3600 X84.721 Y86.419
G1 F1800 X91.881 Y93.578 E44.23859
G0 F3600 X91.316 Y93.579
G1 F1800 X84.156 Y86.419 E44.74377
G0 F3600 X83.59 Y86.419
G1 F1800 X90.75 Y93.579 E45.24895
G0 F3600 X90.185 Y93.579
G1 F1800 X83.024 Y86.419 E45.75416
G0 F3600 X82.459 Y86.419
G1 F1800 X89.62 Y93.579 E46.25937
G0 F3600 X89.054 Y93.579
G1 F1800 X81.893 Y86.419 E46.76458
G0 F3600 X81.327 Y86.419
G1 F1800 X88.488 Y93.579 E47.2698
G0 F3600 X87.923 Y93.579
G1 F1800 X80.762 Y86.419 E47.77501
G0 F3600 X80.196 Y86.419
G1 F1800 X87.357 Y93.579 E48.28022
G0 F3600 X86.791 Y93.579
G1 F1800 X79.63 Y86.419 E48.78543
G0 F3600 X79.065 Y86.419
G1 F1800 X86.226 Y93.579 E49.29064
G0 F3600 X85.66 Y93.579
G1 F1800 X78.554 Y86.474 E49.79197
G0 F3600 X78.554 Y87.039
G1 F1800 X85.094 Y93.579 E50.25341
G0 F3600 X84.528 Y93.579
G1 F1800 X78.554 Y87.605 E50.6749
G0 F3600 X78.554 Y88.171
G1 F1800 X83.963 Y93.579 E51.0565
G0 F3600 X83.396 Y93.579
G1 F1800 X78.554 Y88.736 E51.39817
G0 F3600 X78.554 Y89.302
G1 F1800 X82.831 Y93.579 E51.69993
G0 F3600 X82.265 Y93.579
G1 F1800 X78.554 Y89.868 E51.96176
G0 F3600 X78.554 Y90.434
G1 F1800 X81.699 Y93.579 E52.18366
G0 F3600 X81.134 Y93.579
G1 F1800 X78.554 Y90.999 E52.36569
G0 F3600 X78.554 Y91.565
G1 F1800 X80.568 Y93.579 E52.50779
G0 F3600 X80.002 Y93.579
G1 F1800 X78.554 Y92.131 E52.60996
G0 F3600 X78.554 Y92.696
G1 F1800 X79.437 Y93.579 E52.67226
G0 F3600 X78.871 Y93.579
G1 F1800 X78.554 Y93.262 E52.69462
;MESH:NONMESH
G0 F3600 X107.842 Y90.493
G0 X108.24 Y90.493
;TIME_ELAPSED:41.658476
;LAYER:1
M140 S60
M106 S255
;MESH:SmartTemperatureTower.stl
G0 F5400 X108.24 Y90.493 Z0.45
;TYPE:WALL-INNER
G1 F3300 X108.239 Y94.346 E52.79074
G1 X107.764 Y94.375 E52.80261
G1 X105.902 Y94.376 E52.84906
G1 X77.628 Y94.375 E53.55435
G1 X77.628 Y85.625 E53.77262
G1 X107.764 Y85.624 E54.52437
G1 X108.228 Y85.653 E54.53597
G1 X108.24 Y90.493 E54.6567
G0 F5400 X108.14 Y90.493
G0 X108.156 Y85.721
G0 X108.627 Y85.312
;TYPE:WALL-OUTER
G1 F2100 X108.64 Y90.493 E54.78594
G1 X108.639 Y94.686 E54.89054
G1 X108.308 Y94.742 E54.89891
G1 X107.773 Y94.775 E54.91228
G1 X105.902 Y94.776 E54.95895
G1 X77.228 Y94.775 E55.67423
G1 X77.228 Y85.225 E55.91246
G1 X107.773 Y85.224 E56.6744
G1 X108.297 Y85.257 E56.6875
G1 X108.627 Y85.312 E56.69585
G0 F5400 X108.627 Y85.512
G0 X107.838 Y86.02
;TYPE:SKIN
G1 F1800 X107.85 Y90.493 E56.80743
G1 X107.849 Y93.978 E56.89436
G1 X107.74 Y93.985 E56.89708
G1 X103.988 Y93.986 E56.99068
G1 X78.018 Y93.985 E57.6385
G1 X78.018 Y86.015 E57.83732
G1 X107.74 Y86.014 E58.57873
G1 X107.838 Y86.02 E58.58118
G0 F5400 X107.668 Y93.715
G1 F1800 X107.578 Y93.805 E58.58436
G0 F5400 X107.012 Y93.805
G1 F1800 X107.668 Y93.15 E58.60748
G0 F5400 X107.668 Y92.584
G1 F1800 X106.447 Y93.805 E58.65056
G0 F5400 X105.881 Y93.805
G1 F1800 X107.669 Y92.017 E58.71363
G0 F5400 X107.669 Y91.452
G1 F1800 X105.315 Y93.806 E58.79668
G0 F5400 X104.749 Y93.806
G1 F1800 X107.669 Y90.886 E58.89969
G0 F5400 X107.669 Y90.32
G1 F1800 X104.183 Y93.806 E59.02267
G0 F5400 X103.618 Y93.806
G1 F1800 X107.667 Y89.756 E59.16552
G0 F5400 X107.666 Y89.192
G1 F1800 X103.052 Y93.806 E59.32829
G0 F5400 X102.486 Y93.806
G1 F1800 X107.664 Y88.628 E59.51096
G0 F5400 X107.662 Y88.064
G1 F1800 X101.92 Y93.806 E59.71353
G0 F5400 X101.355 Y93.806
G1 F1800 X107.661 Y87.5 E59.93599
G0 F5400 X107.659 Y86.935
G1 F1800 X100.789 Y93.806 E60.17836
G0 F5400 X100.223 Y93.806
G1 F1800 X107.658 Y86.371 E60.44065
G0 F5400 X107.27 Y86.193
G1 F1800 X99.658 Y93.806 E60.7092
G0 F5400 X99.092 Y93.806
G1 F1800 X106.705 Y86.193 E60.97777
G0 F5400 X106.139 Y86.193
G1 F1800 X98.526 Y93.806 E61.24634
G0 F5400 X97.961 Y93.806
G1 F1800 X105.573 Y86.193 E61.51489
G0 F5400 X105.008 Y86.193
G1 F1800 X97.395 Y93.806 E61.78346
G0 F5400 X96.829 Y93.806
G1 F1800 X104.442 Y86.193 E62.05203
G0 F5400 X103.876 Y86.193
G1 F1800 X96.264 Y93.806 E62.32058
G0 F5400 X95.698 Y93.806
G1 F1800 X103.311 Y86.193 E62.58915
G0 F5400 X102.745 Y86.193
G1 F1800 X95.133 Y93.805 E62.85769
G0 F5400 X94.567 Y93.805
G1 F1800 X102.179 Y86.193 E63.12622
G0 F5400 X101.614 Y86.193
G1 F1800 X94.002 Y93.805 E63.39475
G0 F5400 X93.436 Y93.805
G1 F1800 X101.048 Y86.193 E63.66329
G0 F5400 X100.482 Y86.193
G1 F1800 X92.87 Y93.805 E63.93182
G0 F5400 X92.305 Y93.805
G1 F1800 X99.917 Y86.193 E64.20036
G0 F5400 X99.351 Y86.193
G1 F1800 X91.739 Y93.805 E64.46889
G0 F5400 X91.173 Y93.805
G1 F1800 X98.785 Y86.193 E64.73742
G0 F5400 X98.219 Y86.193
G1 F1800 X90.607 Y93.805 E65.00596
G0 F5400 X90.042 Y93.805
G1 F1800 X97.654 Y86.193 E65.27449
G0 F5400 X97.088 Y86.193
G1 F1800 X89.476 Y93.805 E65.54303
G0 F5400 X88.91 Y93.805
G1 F1800 X96.522 Y86.193 E65.81156
G0 F5400 X95.957 Y86.193
G1 F1800 X88.345 Y93.805 E66.08009
G0 F5400 X87.779 Y93.805
G1 F1800 X95.391 Y86.193 E66.34863
G0 F5400 X94.825 Y86.193
G1 F1800 X87.213 Y93.805 E66.61716
G0 F5400 X86.648 Y93.804
G1 F1800 X94.26 Y86.193 E66.88568
G0 F5400 X93.694 Y86.193
G1 F1800 X86.083 Y93.804 E67.15418
G0 F5400 X85.517 Y93.804
G1 F1800 X93.128 Y86.193 E67.42267
G0 F5400 X92.563 Y86.193
G1 F1800 X84.951 Y93.804 E67.69119
G0 F5400 X84.386 Y93.804
G1 F1800 X91.997 Y86.193 E67.95969
G0 F5400 X91.431 Y86.193
G1 F1800 X83.82 Y93.804 E68.22819
G0 F5400 X83.254 Y93.804
G1 F1800 X90.866 Y86.193 E68.4967
G0 F5400 X90.3 Y86.193
G1 F1800 X82.689 Y93.804 E68.7652
G0 F5400 X82.123 Y93.804
G1 F1800 X89.734 Y86.193 E69.0337
G0 F5400 X89.168 Y86.193
G1 F1800 X81.557 Y93.804 E69.3022
G0 F5400 X80.992 Y93.804
G1 F1800 X88.603 Y86.193 E69.5707
G0 F5400 X88.037 Y86.193
G1 F1800 X80.426 Y93.804 E69.8392
G0 F5400 X79.86 Y93.804
G1 F1800 X87.471 Y86.193 E70.1077
G0 F5400 X86.906 Y86.193
G1 F1800 X79.294 Y93.804 E70.37621
G0 F5400 X78.729 Y93.804
G1 F1800 X86.34 Y86.193 E70.64471
G0 F5400 X85.774 Y86.193
G1 F1800 X78.198 Y93.77 E70.91199
G0 F5400 X78.198 Y93.204
G1 F1800 X85.209 Y86.193 E71.15932
G0 F5400 X84.643 Y86.193
G1 F1800 X78.198 Y92.638 E71.38669
G0 F5400 X78.198 Y92.073
G1 F1800 X84.077 Y86.193 E71.5941
G0 F5400 X83.512 Y86.193
G1 F1800 X78.198 Y91.507 E71.78157
G0 F5400 X78.198 Y90.941
G1 F1800 X82.946 Y86.193 E71.94907
G0 F5400 X82.38 Y86.193
G1 F1800 X78.198 Y90.376 E72.09662
G0 F5400 X78.198 Y89.81
G1 F1800 X81.815 Y86.193 E72.22422
