;FLAVOR:Marlin
;TIME:1137
;Filament used: 1.16375m
;Layer height: 0.15
;MINX:76
;MINY:76
;MINZ:0.3
;MAXX:104
;MAXY:104
;MAXZ:19.95
;Generated with Cura_SteamEngine 4.1.0
M140 S60
M105
M190 S60
M104 S200
M105
M109 S200
M82 ;absolute extrusion mode
G28 ;Home
G1 Z15.0 F6000 ;Move the platform down 15mm
;Prime the extruder
G92 E0
G1 F200 E3
G92 E0
G92 E0
G92 E0
G1 F1500 E-6.5
;LAYER_COUNT:132
;LAYER:0
M107
G0 F3600 X77.004 Y77.369 Z0.3
;TYPE:SKIRT
G1 F1500 E0
G1 F1800 X77.406 Y76.972 E0.02819
G1 X77.86 Y76.635 E0.0564
G1 X78.357 Y76.366 E0.08459
G1 X78.887 Y76.169 E0.1128
G1 X79.44 Y76.05 E0.14102
G1 X79.897 Y76.011 E0.1639
G1 X80.218 Y76.002 E0.17992
G1 X80.33 Y76 E0.18551
G1 X99.35 Y76 E1.13442
G1 X100.048 Y76.01 E1.16925
G1 X100.612 Y76.058 E1.19749
G1 X101.162 Y76.185 E1.22565
G1 X101.69 Y76.389 E1.25389
G1 X102.184 Y76.664 E1.2821
G1 X102.633 Y77.007 E1.31029
G1 X103.03 Y77.409 E1.33848
G1 X103.367 Y77.864 E1.36672
G1 X103.635 Y78.361 E1.3949
G1 X103.831 Y78.891 E1.42309
G1 X103.951 Y79.444 E1.45132
G1 X103.989 Y79.898 E1.47405
G1 X103.998 Y80.218 E1.49002
G1 X104 Y80.33 E1.49561
G1 X104 Y99.314 E2.44272
G1 X103.991 Y100.041 E2.479
G1 X103.944 Y100.604 E2.50718
G1 X103.818 Y101.155 E2.53538
G1 X103.616 Y101.683 E2.56359
G1 X103.341 Y102.177 E2.59179
G1 X102.999 Y102.627 E2.61999
G1 X102.597 Y103.025 E2.64821
G1 X102.144 Y103.362 E2.67638
G1 X101.647 Y103.632 E2.7046
G1 X101.117 Y103.829 E2.73281
G1 X100.565 Y103.95 E2.761
G1 X100.103 Y103.989 E2.78413
G1 X99.782 Y103.998 E2.80015
G1 X99.67 Y104 E2.80574
G1 X80.655 Y104 E3.75441
G1 X79.957 Y103.991 E3.78923
G1 X79.394 Y103.943 E3.81742
G1 X78.843 Y103.817 E3.84562
G1 X78.315 Y103.615 E3.87382
G1 X77.821 Y103.34 E3.90203
G1 X77.371 Y102.998 E3.93023
G1 X76.973 Y102.596 E3.95845
G1 X76.637 Y102.142 E3.98663
G1 X76.367 Y101.645 E4.01485
G1 X76.17 Y101.115 E4.04306
G1 X76.05 Y100.563 E4.07124
G1 X76.01 Y100.099 E4.09448
G1 X76.001 Y99.766 E4.1111
G1 X76 Y99.658 E4.11648
G1 X76 Y80.62 E5.06629
G1 X76.009 Y79.955 E5.09947
G1 X76.057 Y79.392 E5.12766
G1 X76.183 Y78.841 E5.15586
G1 X76.386 Y78.313 E5.18409
G1 X76.662 Y77.819 E5.21232
G1 X77.004 Y77.369 E5.24052
G0 F3600 X77.397 Y77.531
G1 F1800 X77.794 Y77.171 E5.26725
G1 X78.241 Y76.873 E5.29405
G1 X78.726 Y76.645 E5.32079
G1 X79.24 Y76.492 E5.34755
G1 X79.908 Y76.41 E5.38112
G1 X80.229 Y76.401 E5.39715
G1 X80.33 Y76.4 E5.40218
G1 X99.345 Y76.4 E6.35085
G1 X100.043 Y76.41 E6.38567
G1 X100.577 Y76.458 E6.41242
G1 X101.098 Y76.584 E6.43916
G1 X101.595 Y76.787 E6.46595
G1 X102.056 Y77.061 E6.4927
G1 X102.471 Y77.4 E6.51944
G1 X102.831 Y77.798 E6.54621
G1 X103.128 Y78.244 E6.57294
G1 X103.356 Y78.73 E6.59973
G1 X103.508 Y79.244 E6.62647
G1 X103.59 Y79.909 E6.6599
G1 X103.599 Y80.229 E6.67587
G1 X103.6 Y80.33 E6.68091
G1 X103.6 Y99.309 E7.62777
G1 X103.591 Y100.036 E7.66405
G1 X103.544 Y100.57 E7.69079
G1 X103.419 Y101.091 E7.71752
G1 X103.217 Y101.588 E7.74429
G1 X102.944 Y102.05 E7.77106
G1 X102.606 Y102.466 E7.7978
G1 X102.209 Y102.827 E7.82457
G1 X101.763 Y103.125 E7.85133
G1 X101.278 Y103.353 E7.87807
G1 X100.764 Y103.507 E7.90484
G1 X100.092 Y103.59 E7.93862
G1 X99.771 Y103.599 E7.95464
G1 X99.67 Y103.6 E7.95968
G1 X80.661 Y103.6 E8.90804
G1 X79.963 Y103.591 E8.94287
G1 X79.428 Y103.544 E8.96966
G1 X78.907 Y103.418 E8.99641
G1 X78.41 Y103.216 E9.02317
G1 X77.949 Y102.943 E9.0499
G1 X77.533 Y102.604 E9.07667
G1 X77.172 Y102.208 E9.10341
G1 X76.874 Y101.762 E9.13017
G1 X76.646 Y101.276 E9.15695
G1 X76.493 Y100.762 E9.18371
G1 X76.41 Y100.088 E9.21759
G1 X76.401 Y99.755 E9.2342
G1 X76.4 Y99.658 E9.23904
G1 X76.4 Y80.625 E10.1886
G1 X76.409 Y79.96 E10.22178
G1 X76.457 Y79.426 E10.24853
G1 X76.583 Y78.905 E10.27528
G1 X76.785 Y78.408 E10.30204
G1 X77.058 Y77.947 E10.32877
G1 X77.397 Y77.531 E10.35554
G0 F3600 X77.454 Y78.082
G1 F1800 X77.789 Y77.704 E10.38074
G1 X78.18 Y77.383 E10.40598
G1 X78.617 Y77.128 E10.43122
G1 X79.088 Y76.944 E10.45645
G1 X79.582 Y76.838 E10.48166
G1 X79.919 Y76.81 E10.49853
G1 X80.24 Y76.801 E10.51455
G1 X80.33 Y76.8 E10.51904
G1 X99.339 Y76.8 E11.4674
G1 X100.037 Y76.81 E11.50223
G1 X100.54 Y76.857 E11.52743
G1 X101.03 Y76.983 E11.55268
G1 X101.494 Y77.185 E11.57792
G1 X101.92 Y77.457 E11.60314
G1 X102.298 Y77.792 E11.62834
G1 X102.618 Y78.183 E11.65354
G1 X102.873 Y78.62 E11.67879
G1 X103.056 Y79.091 E11.704
G1 X103.163 Y79.585 E11.72921
G1 X103.19 Y79.92 E11.74598
G1 X103.199 Y80.24 E11.76195
G1 X103.2 Y80.33 E11.76644
G1 X103.2 Y99.304 E12.71306
G1 X103.191 Y100.031 E12.74933
G1 X103.145 Y100.534 E12.77453
G1 X103.02 Y101.024 E12.79976
G1 X102.819 Y101.488 E12.82499
G1 X102.548 Y101.915 E12.85022
G1 X102.213 Y102.294 E12.87546
G1 X101.823 Y102.615 E12.90066
G1 X101.387 Y102.871 E12.92588
G1 X100.916 Y103.054 E12.95109
G1 X100.422 Y103.162 E12.97632
G1 X100.081 Y103.19 E12.99339
G1 X99.76 Y103.199 E13.00941
G1 X99.67 Y103.2 E13.0139
G1 X80.666 Y103.2 E13.96201
G1 X79.968 Y103.191 E13.99684
G1 X79.464 Y103.144 E14.02209
G1 X78.974 Y103.019 E14.04732
G1 X78.51 Y102.818 E14.07255
G1 X78.084 Y102.547 E14.09774
G1 X77.705 Y102.212 E14.12298
G1 X77.384 Y101.821 E14.14821
G1 X77.129 Y101.385 E14.17341
G1 X76.945 Y100.914 E14.19864
G1 X76.838 Y100.42 E14.22386
G1 X76.81 Y100.077 E14.24103
G1 X76.801 Y99.744 E14.25765
G1 X76.8 Y99.658 E14.26194
G1 X76.8 Y80.631 E15.2112
G1 X76.809 Y79.966 E15.24438
G1 X76.856 Y79.462 E15.26963
G1 X76.982 Y78.973 E15.29483
G1 X77.183 Y78.509 E15.32005
G1 X77.454 Y78.082 E15.34529
G1 F1500 E8.84529
;MESH:xyzCalibration_cube.stl
G0 F3600 X79.335 Y80.614
G0 X80.614 Y80.614
G0 X80.67 Y99.33
G0 X80.6 Y99.4
;TYPE:WALL-INNER
G1 F1500 E15.34529
G1 F1800 X80.6 Y80.6 E16.28322
G1 X99.4 Y80.6 E17.22116
G1 X99.4 Y99.4 E18.15909
G1 X80.6 Y99.4 E19.09703
G0 F3600 X80.2 Y99.8
;TYPE:WALL-OUTER
G1 F1800 X80.2 Y80.2 E20.07488
G1 X99.8 Y80.2 E21.05272
G1 X99.8 Y99.8 E22.03057
G1 X80.2 Y99.8 E23.00842
G0 F3600 X80.2 Y99.6
G0 X80.99 Y99.01
;TYPE:SKIN
G1 F1800 X80.99 Y80.99 E23.90744
G1 X99.01 Y80.99 E24.80646
G1 X99.01 Y99.01 E25.70548
G1 X80.99 Y99.01 E26.60451
G0 F3600 X81.293 Y98.829
G1 F1800 X81.169 Y98.705 E26.61325
G0 F3600 X81.169 Y98.14
G1 F1800 X81.858 Y98.829 E26.66187
G0 F3600 X82.424 Y98.829
G1 F1800 X81.169 Y97.574 E26.75041
G0 F3600 X81.169 Y97.008
G1 F1800 X82.99 Y98.829 E26.8789
G0 F3600 X83.555 Y98.829
G1 F1800 X81.169 Y96.443 E27.04724
G0 F3600 X81.169 Y95.877
G1 F1800 X84.121 Y98.829 E27.25552
G0 F3600 X84.687 Y98.829
G1 F1800 X81.169 Y95.311 E27.50373
G0 F3600 X81.169 Y94.745
G1 F1800 X85.253 Y98.829 E27.79188
G0 F3600 X85.818 Y98.829
G1 F1800 X81.169 Y94.18 E28.11989
G0 F3600 X81.169 Y93.614
G1 F1800 X86.384 Y98.829 E28.48784
G0 F3600 X86.95 Y98.829
G1 F1800 X81.169 Y93.048 E28.89572
G0 F3600 X81.169 Y92.483
G1 F1800 X87.515 Y98.829 E29.34347
G0 F3600 X88.081 Y98.829
G1 F1800 X81.169 Y91.917 E29.83115
G0 F3600 X81.169 Y91.351
G1 F1800 X88.647 Y98.829 E30.35876
G0 F3600 X89.212 Y98.829
G1 F1800 X81.169 Y90.786 E30.92624
G0 F3600 X81.169 Y90.22
G1 F1800 X89.778 Y98.829 E31.53365
G0 F3600 X90.344 Y98.829
G1 F1800 X81.169 Y89.654 E32.18099
G0 F3600 X81.169 Y89.089
G1 F1800 X90.909 Y98.829 E32.8682
G0 F3600 X91.475 Y98.829
G1 F1800 X81.169 Y88.523 E33.59535
G0 F3600 X81.169 Y87.957
G1 F1800 X92.041 Y98.829 E34.36243
G0 F3600 X92.606 Y98.829
G1 F1800 X81.169 Y87.392 E35.16937
G0 F3600 X81.169 Y86.826
G1 F1800 X93.172 Y98.829 E36.01624
G0 F3600 X93.738 Y98.829
G1 F1800 X81.169 Y86.26 E36.90305
G0 F3600 X81.169 Y85.694
G1 F1800 X94.304 Y98.829 E37.8298
G0 F3600 X94.869 Y98.829
G1 F1800 X81.169 Y85.129 E38.79641
G0 F3600 X81.169 Y84.563
G1 F1800 X95.435 Y98.829 E39.80295
G0 F3600 X96.001 Y98.829
G1 F1800 X81.169 Y83.997 E40.84943
G0 F3600 X81.169 Y83.432
G1 F1800 X96.566 Y98.829 E41.93577
G0 F3600 X97.132 Y98.829
G1 F1800 X81.169 Y82.866 E43.06205
G0 F3600 X81.169 Y82.3
G1 F1800 X97.698 Y98.829 E44.22826
G0 F3600 X98.263 Y98.829
G1 F1800 X81.169 Y81.735 E45.43433
G0 F3600 X81.169 Y81.169
G1 F1800 X98.829 Y98.829 E46.68034
G0 F3600 X98.829 Y98.263
G1 F1800 X81.735 Y81.17 E47.88638
G0 F3600 X82.301 Y81.17
G1 F1800 X98.829 Y97.698 E49.05252
G0 F3600 X98.829 Y97.132
G1 F1800 X82.867 Y81.17 E50.17872
G0 F3600 X83.432 Y81.17
G1 F1800 X98.829 Y96.566 E51.26503
G0 F3600 X98.829 Y96.001
G1 F1800 X83.998 Y81.17 E52.31144
G0 F3600 X84.564 Y81.17
G1 F1800 X98.829 Y95.435 E53.31791
G0 F3600 X98.829 Y94.869
G1 F1800 X85.129 Y81.17 E54.28448
G0 F3600 X85.695 Y81.17
G1 F1800 X98.829 Y94.304 E55.21116
G0 F3600 X98.829 Y93.738
G1 F1800 X86.261 Y81.17 E56.0979
G0 F3600 X86.827 Y81.17
G1 F1800 X98.829 Y93.172 E56.9447
G0 F3600 X98.829 Y92.606
G1 F1800 X87.392 Y81.17 E57.75161
G0 F3600 X87.958 Y81.17
G1 F1800 X98.829 Y92.041 E58.51862
G0 F3600 X98.829 Y91.475
G1 F1800 X88.524 Y81.17 E59.24569
G0 F3600 X89.089 Y81.17
G1 F1800 X98.829 Y90.909 E59.93287
G0 F3600 X98.829 Y90.344
G1 F1800 X89.655 Y81.17 E60.58014
G0 F3600 X90.221 Y81.17
G1 F1800 X98.829 Y89.778 E61.18748
G0 F3600 X98.829 Y89.212
G1 F1800 X90.786 Y81.17 E61.75492
G0 F3600 X91.352 Y81.17
G1 F1800 X98.829 Y88.647 E62.28247
G0 F3600 X98.829 Y88.081
G1 F1800 X91.918 Y81.17 E62.77008
G0 F3600 X92.483 Y81.17
G1 F1800 X98.829 Y87.515 E63.21779
G0 F3600 X98.829 Y86.95
G1 F1800 X93.049 Y81.17 E63.6256
G0 F3600 X93.615 Y81.17
G1 F1800 X98.829 Y86.384 E63.99347
G0 F3600 X98.829 Y85.818
G1 F1800 X94.18 Y81.17 E64.32145
G0 F3600 X94.746 Y81.17
G1 F1800 X98.829 Y85.253 E64.60953
G0 F3600 X98.829 Y84.687
G1 F1800 X95.312 Y81.17 E64.85767
G0 F3600 X95.878 Y81.17
G1 F1800 X98.829 Y84.121 E65.06588
G0 F3600 X98.829 Y83.555
G1 F1800 X96.443 Y81.17 E65.23419
G0 F3600 X97.009 Y81.17
G1 F1800 X98.829 Y82.99 E65.3626
G0 F3600 X98.829 Y82.424
G1 F1800 X97.575 Y81.17 E65.45108
G0 F3600 X98.14 Y81.17
G1 F1800 X98.829 Y81.858 E65.49965
G0 F3600 X98.829 Y81.293
G1 F1800 X98.706 Y81.17 E65.50833
;MESH:NONMESH
G0 F3600 X80.67 Y99.33
G0 X80.6 Y99.4
;TIME_ELAPSED:49.918998
;LAYER:1
M140 S60
M106 S255
;MESH:xyzCalibration_cube.stl
G0 F5400 X80.6 Y99.4 Z0.45
;TYPE:WALL-INNER
G1 F3300 X80.6 Y80.6 E65.9773
G1 X99.4 Y80.6 E66.44627
G1 X99.4 Y99.4 E66.91523
G1 X80.6 Y99.4 E67.3842
G0 F5400 X80.2 Y99.8
;TYPE:WALL-OUTER
G1 F2100 X80.2 Y80.2 E67.87313
G1 X99.8 Y80.2 E68.36205
G1 X99.8 Y99.8 E68.85097
G1 X80.2 Y99.8 E69.3399
G0 F5400 X80.2 Y99.6
G0 X80.99 Y99.01
;TYPE:SKIN
G1 F1800 X80.99 Y80.99 E69.78941
G1 X99.01 Y80.99 E70.23892
G1 X99.01 Y99.01 E70.68843
G1 X80.99 Y99.01 E71.13794
G0 F5400 X81.17 Y81.747
G1 F1800 X81.747 Y81.169 E71.15831
G0 F5400 X82.313 Y81.169
G1 F1800 X81.17 Y82.312 E71.19864
G0 F5400 X81.17 Y82.878
G1 F1800 X82.879 Y81.169 E71.25893
G0 F5400 X83.444 Y81.169
G1 F1800 X81.17 Y83.444 E71.33917
G0 F5400 X81.17 Y84.009
G1 F1800 X84.01 Y81.169 E71.43935
G0 F5400 X84.576 Y81.169
G1 F1800 X81.17 Y84.575 E71.55951
G0 F5400 X81.17 Y85.141
G1 F1800 X85.142 Y81.169 E71.69963
G0 F5400 X85.707 Y81.169
G1 F1800 X81.17 Y85.706 E71.85969
G0 F5400 X81.17 Y86.272
G1 F1800 X86.273 Y81.169 E72.03971
G0 F5400 X86.839 Y81.169
G1 F1800 X81.17 Y86.838 E72.2397
G0 F5400 X81.17 Y87.404
G1 F1800 X87.404 Y81.169 E72.45964
G0 F5400 X87.97 Y81.169
G1 F1800 X81.17 Y87.969 E72.69953
G0 F5400 X81.17 Y88.535
G1 F1800 X88.536 Y81.169 E72.95938
G0 F5400 X89.101 Y81.169
G1 F1800 X81.17 Y89.101 E73.23919
G0 F5400 X81.17 Y89.666
G1 F1800 X89.667 Y81.169 E73.53894
G0 F5400 X90.233 Y81.169
G1 F1800 X81.17 Y90.232 E73.85866
G0 F5400 X81.17 Y90.798
G1 F1800 X90.798 Y81.169 E74.19833
G0 F5400 X91.364 Y81.169
G1 F1800 X81.17 Y91.363 E74.55796
G0 F5400 X81.17 Y91.929
G1 F1800 X91.93 Y81.169 E74.93754
G0 F5400 X92.495 Y81.169
G1 F1800 X81.17 Y92.495 E75.33708
G0 F5400 X81.17 Y93.06
G1 F1800 X93.061 Y81.169 E75.75657
G0 F5400 X93.627 Y81.169
G1 F1800 X81.17 Y93.626 E76.19602
G0 F5400 X81.17 Y94.192
G1 F1800 X94.192 Y81.169 E76.65543
G0 F5400 X94.758 Y81.169
G1 F1800 X81.17 Y94.757 E77.13478
G0 F5400 X81.17 Y95.323
G1 F1800 X95.324 Y81.169 E77.6341
G0 F5400 X95.89 Y81.169
G1 F1800 X81.17 Y95.889 E78.15339
G0 F5400 X81.17 Y96.455
G1 F1800 X96.455 Y81.169 E78.69263
G0 F5400 X97.021 Y81.169
G1 F1800 X81.17 Y97.02 E79.25181
G0 F5400 X81.17 Y97.586
G1 F1800 X97.587 Y81.169 E79.83097
G0 F5400 X98.152 Y81.169
G1 F1800 X81.17 Y98.152 E80.43007
G0 F5400 X81.17 Y98.717
G1 F1800 X98.718 Y81.169 E81.04912
G0 F5400 X98.829 Y81.624
G1 F1800 X81.624 Y98.829 E81.65608
G0 F5400 X82.189 Y98.829
G1 F1800 X98.829 Y82.189 E82.2431
G0 F5400 X98.829 Y82.755
G1 F1800 X82.755 Y98.829 E82.81015
G0 F5400 X83.321 Y98.829
G1 F1800 X98.829 Y83.321 E83.35724
G0 F5400 X98.829 Y83.886
G1 F1800 X83.886 Y98.829 E83.88439
G0 F5400 X84.452 Y98.829
G1 F1800 X98.829 Y84.452 E84.39158
G0 F5400 X98.829 Y85.018
G1 F1800 X85.018 Y98.829 E84.8788
G0 F5400 X85.583 Y98.829
G1 F1800 X98.829 Y85.583 E85.34609
G0 F5400 X98.829 Y86.149
G1 F1800 X86.149 Y98.829 E85.79341
G0 F5400 X86.715 Y98.829
G1 F1800 X98.829 Y86.715 E86.22076
G0 F5400 X98.829 Y87.281
G1 F1800 X87.281 Y98.829 E86.62815
G0 F5400 X87.846 Y98.829
G1 F1800 X98.829 Y87.846 E87.01561
G0 F5400 X98.829 Y88.412
G1 F1800 X88.412 Y98.829 E87.38309
G0 F5400 X88.978 Y98.829
G1 F1800 X98.829 Y88.978 E87.73061
G0 F5400 X98.829 Y89.543
G1 F1800 X89.543 Y98.829 E88.0582
G0 F5400 X90.109 Y98.829
G1 F1800 X98.829 Y90.109 E88.36582
G0 F5400 X98.829 Y90.675
G1 F1800 X90.675 Y98.829 E88.65348
G0 F5400 X91.24 Y98.829
G1 F1800 X98.829 Y91.24 E88.9212
G0 F5400 X98.829 Y91.806
G1 F1800 X91.806 Y98.829 E89.16896
G0 F5400 X92.372 Y98.829
G1 F1800 X98.829 Y92.372 E89.39674
G0 F5400 X98.829 Y92.937
G1 F1800 X92.937 Y98.829 E89.6046
G0 F5400 X93.503 Y98.829
G1 F1800 X98.829 Y93.503 E89.79249
G0 F5400 X98.829 Y94.069
G1 F1800 X94.069 Y98.829 E89.96041
G0 F5400 X94.634 Y98.829
G1 F1800 X98.829 Y94.634 E90.1084
G0 F5400 X98.829 Y95.2
G1 F1800 X95.2 Y98.829 E90.23642
G0 F5400 X95.766 Y98.829
G1 F1800 X98.829 Y95.766 E90.34448
G0 F5400 X98.829 Y96.331
G1 F1800 X96.331 Y98.829 E90.4326
G0 F5400 X96.897 Y98.829
G1 F1800 X98.829 Y96.897 E90.50076
G0 F5400 X98.829 Y97.463
G1 F1800 X97.463 Y98.829 E90.54895
G0 F5400 X98.029 Y98.829
G1 F1800 X98.829 Y98.029 E90.57717
G0 F5400 X98.829 Y98.594
G1 F1800 X98.594 Y98.829 E90.58546
;MESH:NONMESH
G0 F5400 X80.67 Y99.33
G0 X80.6 Y99.4
;TIME_ELAPSED:83.794817
;LAYER:2
;MESH:xyzCalibration_cube.stl
G0 F7200 X80.6 Y99.4 Z0.6
;TYPE:WALL-INNER
G1 F4800 X80.6 Y80.6 E91.05443
G1 X99.4 Y80.6 E91.5234
G1 X99.4 Y99.4 E91.99237
G1 X80.6 Y99.4 E92.46133
G0 F7200 X80.2 Y99.8
;TYPE:WALL-OUTER
G1 F2400 X80.2 Y80.2 E92.95026
G1 X99.8 Y80.2 E93.43918
G1 X99.8 Y99.8 E93.92811
G1 X80.2 Y99.8 E94.41703
G0 F7200 X80.2 Y99.6
G0 X80.99 Y99.01
;TYPE:SKIN
G1 F1800 X80.99 Y80.99 E94.86654
G1 X99.01 Y80.99 E95.31605
G1 X99.01 Y99.01 E95.76556
G1 X80.99 Y99.01 E96.21507
G0 F7200 X81.293 Y98.829
G1 F1800 X81.169 Y98.705 E96.21945
G0 F7200 X81.169 Y98.14
G1 F1800 X81.858 Y98.829 E96.24375
G0 F7200 X82.424 Y98.829
G1 F1800 X81.169 Y97.574 E96.28803
G0 F7200 X81.169 Y97.008
G1 F1800 X82.99 Y98.829 E96.35227
G0 F7200 X83.555 Y98.829
G1 F1800 X81.169 Y96.443 E96.43644
G0 F7200 X81.169 Y95.877
G1 F1800 X84.121 Y98.829 E96.54058
G0 F7200 X84.687 Y98.829
G1 F1800 X81.169 Y95.311 E96.66469
G0 F7200 X81.169 Y94.745
G1 F1800 X85.253 Y98.829 E96.80876
G0 F7200 X85.818 Y98.829
G1 F1800 X81.169 Y94.18 E96.97277
G0 F7200 X81.169 Y93.614
G1 F1800 X86.384 Y98.829 E97.15674
G0 F7200 X86.95 Y98.829
G1 F1800 X81.169 Y93.048 E97.36068
G0 F7200 X81.169 Y92.483
G1 F1800 X87.515 Y98.829 E97.58455
G0 F7200 X88.081 Y98.829
G1 F1800 X81.169 Y91.917 E97.82839
G0 F7200 X81.169 Y91.351
G1 F1800 X88.647 Y98.829 E98.0922
G0 F7200 X89.212 Y98.829
