; G-Code generated by Simplify3D(R) Version 4.0.0
; Aug 10, 2019 at 3:09:34 PM
; Settings Summary
;   processName,Process1
;   applyToModels,Cs_Euro_Drehscheibe
;   profileName,Default
;   profileVersion,2017-03-01 08:00:00
;   baseProfile,
;   printMaterial,PLA
;   printQuality,Medium
;   printExtruders,
;   extruderName,Primary Extruder
;   extruderToolheadNumber,0
;   extruderDiameter,0.35
;   extruderAutoWidth,0
;   extruderWidth,0.4
;   extrusionMultiplier,0.9
;   extruderUseRetract,1
;   extruderRetractionDistance,1
;   extruderExtraRestartDistance,0
;   extruderRetractionZLift,0
;   extruderRetractionSpeed,1800
;   extruderUseCoasting,0
;   extruderCoastingDistance,0.2
;   extruderUseWipe,0
;   extruderWipeDistance,5
;   primaryExtruder,0
;   layerHeight,0.2
;   topSolidLayers,3
;   bottomSolidLayers,3
;   perimeterOutlines,2
;   printPerimetersInsideOut,1
;   startPointOption,2
;   startPointOriginX,0
;   startPointOriginY,0
;   sequentialIslands,0
;   spiralVaseMode,0
;   firstLayerHeightPercentage,90
;   firstLayerWidthPercentage,100
;   firstLayerUnderspeed,0.5
;   useRaft,0
;   raftExtruder,0
;   raftTopLayers,3
;   raftBaseLayers,2
;   raftOffset,3
;   raftSeparationDistance,0.14
;   raftTopInfill,100
;   aboveRaftSpeedMultiplier,0.3
;   useSkirt,1
;   skirtExtruder,0
;   skirtLayers,1
;   skirtOutlines,2
;   skirtOffset,4
;   usePrimePillar,0
;   primePillarExtruder,999
;   primePillarWidth,12
;   primePillarLocation,7
;   primePillarSpeedMultiplier,1
;   useOozeShield,0
;   oozeShieldExtruder,999
;   oozeShieldOffset,2
;   oozeShieldOutlines,1
;   oozeShieldSidewallShape,1
;   oozeShieldSidewallAngle,30
;   oozeShieldSpeedMultiplier,1
;   infillExtruder,0
;   internalInfillPattern,Rectilinear
;   externalInfillPattern,Rectilinear
;   infillPercentage,20
;   outlineOverlapPercentage,15
;   infillExtrusionWidthPercentage,100
;   minInfillLength,5
;   infillLayerInterval,1
;   internalInfillAngles,45,-45
;   overlapInternalInfillAngles,0
;   externalInfillAngles,45,-45
;   generateSupport,0
;   supportExtruder,0
;   supportInfillPercentage,30
;   supportExtraInflation,0
;   supportBaseLayers,0
;   denseSupportExtruder,0
;   denseSupportLayers,0
;   denseSupportInfillPercentage,70
;   supportLayerInterval,1
;   supportHorizontalPartOffset,0.3
;   supportUpperSeparationLayers,1
;   supportLowerSeparationLayers,1
;   supportType,0
;   supportGridSpacing,4
;   maxOverhangAngle,45
;   supportAngles,0
;   temperatureName,Primary Extruder
;   temperatureNumber,0
;   temperatureSetpointCount,1
;   temperatureSetpointLayers,1
;   temperatureSetpointTemperatures,190
;   temperatureStabilizeAtStartup,1
;   temperatureHeatedBed,0
;   temperatureRelayBetweenLayers,0
;   temperatureRelayBetweenLoops,0
;   fanLayers,1,2
;   fanSpeeds,0,100
;   blipFanToFullPower,0
;   adjustSpeedForCooling,1
;   minSpeedLayerTime,15
;   minCoolingSpeedSlowdown,20
;   increaseFanForCooling,0
;   minFanLayerTime,45
;   maxCoolingFanSpeed,100
;   increaseFanForBridging,0
;   bridgingFanSpeed,100
;   use5D,1
;   relativeEdistances,0
;   allowEaxisZeroing,1
;   independentExtruderAxes,0
;   includeM10123,0
;   stickySupport,1
;   applyToolheadOffsets,0
;   gcodeXoffset,0
;   gcodeYoffset,0
;   gcodeZoffset,0
;   overrideMachineDefinition,0
;   machineTypeOverride,0
;   strokeXoverride,200
;   strokeYoverride,200
;   strokeZoverride,200
;   originOffsetXoverride,0
;   originOffsetYoverride,0
;   originOffsetZoverride,0
;   homeXdirOverride,-1
;   homeYdirOverride,-1
;   homeZdirOverride,-1
;   flipXoverride,1
;   flipYoverride,-1
;   flipZoverride,1
;   toolheadOffsets,0,0|0,0|0,0|0,0|0,0|0,0
;   overrideFirmwareConfiguration,0
;   firmwareTypeOverride,RepRap (Marlin/Repetier/Sprinter)
;   GPXconfigOverride,r2
;   baudRateOverride,115200
;   overridePrinterModels,0
;   printerModelsOverride
;   startingGcode,G28 ; home all axes
;   layerChangeGcode,
;   retractionGcode,
;   toolChangeGcode,
;   endingGcode,M104 S0 ; turn off extruder,M140 S0 ; turn off bed,M84 ; disable motors
;   exportFileFormat,gcode
;   celebration,0
;   celebrationSong,Random Song
;   postProcessing,
;   defaultSpeed,3600
;   outlineUnderspeed,0.5
;   solidInfillUnderspeed,0.8
;   supportUnderspeed,0.8
;   rapidXYspeed,4800
;   rapidZspeed,1000
;   minBridgingArea,50
;   bridgingExtraInflation,0
;   bridgingExtrusionMultiplier,1
;   bridgingSpeedMultiplier,1
;   useFixedBridgingAngle,0
;   fixedBridgingAngle,0
;   applyBridgingToPerimeters,0
;   filamentDiameters,1.75|1.75|1.75|1.75|1.75|1.75
;   filamentPricesPerKg,46|46|46|46|46|46
;   filamentDensities,1.25|1.25|1.25|1.25|1.25|1.25
;   useMinPrintHeight,0
;   minPrintHeight,0
;   useMaxPrintHeight,0
;   maxPrintHeight,0
;   useDiaphragm,0
;   diaphragmLayerInterval,20
;   robustSlicing,1
;   mergeAllIntoSolid,0
;   onlyRetractWhenCrossingOutline,1
;   retractBetweenLayers,1
;   useRetractionMinTravel,0
;   retractionMinTravel,3
;   retractWhileWiping,0
;   onlyWipeOutlines,1
;   avoidCrossingOutline,0
;   maxMovementDetourFactor,3
;   toolChangeRetractionDistance,12
;   toolChangeExtraRestartDistance,-0.5
;   toolChangeRetractionSpeed,600
;   externalThinWallType,0
;   internalThinWallType,2
;   thinWallAllowedOverlapPercentage,10
;   singleExtrusionMinLength,1
;   singleExtrusionMinPrintingWidthPercentage,50
;   singleExtrusionMaxPrintingWidthPercentage,200
;   singleExtrusionEndpointExtension,0.2
;   horizontalSizeCompensation,0
G90
M82
M106 S0
M104 S190 T0
M109 S190 T0
G28 ; home all axes
G92 E0
G1 E-1.0000 F1800
G1 Z0.180 F1000
; process Process1
; layer 1, Z = 0.180
T0
; tool H0.200 W0.400
; skirt
G1 X49.139 Y49.136 F4800
G1 E0.0000 F540
G92 E0
G1 X49.146 Y49.129 E0.0003 F1800
G1 X49.245 Y49.029 E0.0045
G1 X49.252 Y49.023 E0.0048
G1 X52.567 Y45.918 E0.1407
G1 X52.574 Y45.912 E0.1410
G1 X52.680 Y45.819 E0.1452
G1 X52.687 Y45.813 E0.1455
G1 X56.198 Y42.931 E0.2815
G1 X56.206 Y42.925 E0.2818
G1 X56.319 Y42.839 E0.2860
G1 X56.326 Y42.833 E0.2863
G1 X60.018 Y40.190 E0.4222
G1 X60.026 Y40.184 E0.4225
G1 X60.142 Y40.107 E0.4267
G1 X60.150 Y40.102 E0.4270
G1 X64.005 Y37.702 E0.5629
G1 X64.013 Y37.696 E0.5632
G1 X64.136 Y37.625 E0.5675
G1 X64.145 Y37.621 E0.5678
G1 X68.150 Y35.480 E0.7037
G1 X68.158 Y35.475 E0.7040
G1 X68.285 Y35.413 E0.7082
G1 X68.294 Y35.409 E0.7085
G1 X72.432 Y33.535 E0.8445
G1 X72.441 Y33.531 E0.8448
G1 X72.571 Y33.477 E0.8490
G1 X72.580 Y33.474 E0.8493
G1 X76.830 Y31.874 E0.9852
G1 X76.839 Y31.871 E0.9855
G1 X76.973 Y31.825 E0.9897
G1 X76.983 Y31.822 E0.9900
G1 X81.329 Y30.505 E1.1260
G1 X81.339 Y30.503 E1.1263
G1 X81.473 Y30.467 E1.1305
G1 X81.483 Y30.464 E1.1307
G1 X85.905 Y29.432 E1.2667
G1 X85.915 Y29.430 E1.2670
G1 X86.052 Y29.403 E1.2712
G1 X86.062 Y29.401 E1.2715
G1 X90.541 Y28.660 E1.4074
G1 X90.551 Y28.659 E1.4077
G1 X90.691 Y28.640 E1.4119
G1 X90.701 Y28.639 E1.4122
G1 X98.062 Y27.915 E1.6336
G1 X98.432 Y28.184 E1.6473
G1 X99.999 Y35.410 E1.8686
G1 X101.582 Y28.184 E2.0901
G1 X101.951 Y27.915 E2.1037
G1 X109.301 Y28.639 E2.3248
G1 X109.311 Y28.640 E2.3251
G1 X109.451 Y28.659 E2.3293
G1 X109.461 Y28.660 E2.3296
G1 X113.940 Y29.401 E2.4655
G1 X113.950 Y29.403 E2.4658
G1 X114.087 Y29.430 E2.4700
G1 X114.097 Y29.432 E2.4703
G1 X118.521 Y30.464 E2.6063
G1 X118.531 Y30.467 E2.6066
G1 X118.666 Y30.503 E2.6108
G1 X118.676 Y30.506 E2.6111
G1 X123.018 Y31.822 E2.7469
G1 X123.027 Y31.825 E2.7472
G1 X123.160 Y31.870 E2.7514
G1 X123.169 Y31.874 E2.7517
G1 X127.423 Y33.473 E2.8877
G1 X127.432 Y33.477 E2.8880
G1 X127.563 Y33.531 E2.8923
G1 X127.572 Y33.535 E2.8926
G1 X131.709 Y35.409 E3.0285
G1 X131.717 Y35.413 E3.0288
G1 X131.844 Y35.476 E3.0330
G1 X131.852 Y35.480 E3.0333
G1 X135.857 Y37.621 E3.1692
G1 X135.866 Y37.625 E3.1695
G1 X135.988 Y37.696 E3.1738
G1 X135.996 Y37.701 E3.1740
G1 X139.854 Y40.101 E3.3100
G1 X139.862 Y40.107 E3.3103
G1 X139.978 Y40.184 E3.3145
G1 X139.986 Y40.190 E3.3148
G1 X143.676 Y42.834 E3.4507
G1 X143.684 Y42.840 E3.4510
G1 X143.796 Y42.925 E3.4552
G1 X143.804 Y42.931 E3.4555
G1 X147.315 Y45.813 E3.5915
G1 X147.322 Y45.819 E3.5918
G1 X147.428 Y45.912 E3.5960
G1 X147.435 Y45.918 E3.5963
G1 X150.750 Y49.023 E3.7322
G1 X150.757 Y49.030 E3.7325
G1 X150.857 Y49.130 E3.7367
G1 X150.864 Y49.137 E3.7370
G1 X155.000 Y53.556 E3.9182
G1 X155.013 Y54.010 E3.9318
G1 X150.207 Y59.787 E4.1568
G1 X149.758 Y59.856 E4.1704
G1 X146.467 Y57.749 E4.2873
G1 X145.235 Y57.169 E4.3281
G1 X143.941 Y56.757 E4.3687
G1 X142.603 Y56.517 E4.4095
G1 X141.243 Y56.453 E4.4502
G1 X139.889 Y56.567 E4.4909
G1 X138.563 Y56.856 E4.5315
G1 X137.288 Y57.316 E4.5721
G1 X136.078 Y57.942 E4.6128
G1 X134.961 Y58.719 E4.6536
G1 X133.955 Y59.633 E4.6943
G1 X133.081 Y60.670 E4.7349
G1 X132.346 Y61.817 E4.7757
G1 X131.765 Y63.048 E4.8164
G1 X131.355 Y64.337 E4.8569
G1 X131.114 Y65.680 E4.8977
G1 X131.049 Y67.037 E4.9384
G1 X131.164 Y68.389 E4.9790
G1 X131.454 Y69.718 E5.0197
G1 X131.915 Y70.997 E5.0604
G1 X132.539 Y72.206 E5.1011
G1 X133.313 Y73.319 E5.1417
G1 X134.230 Y74.324 E5.1824
G1 X135.268 Y75.202 E5.2232
G1 X136.411 Y75.935 E5.2638
G1 X137.643 Y76.513 E5.3045
G1 X138.939 Y76.928 E5.3453
G1 X140.273 Y77.167 E5.3858
G1 X141.633 Y77.229 E5.4266
G1 X142.986 Y77.116 E5.4672
G1 X144.314 Y76.825 E5.5079
G1 X145.595 Y76.364 E5.5487
G1 X146.800 Y75.742 E5.5893
G1 X147.916 Y74.964 E5.6300
G1 X148.923 Y74.049 E5.6707
G1 X149.798 Y73.011 E5.7113
G1 X150.532 Y71.868 E5.7520
G1 X151.111 Y70.636 E5.7928
G1 X151.524 Y69.345 E5.8333
G1 X151.763 Y68.007 E5.8740
G1 X151.827 Y66.649 E5.9147
G1 X151.712 Y65.293 E5.9554
G1 X151.421 Y63.960 E5.9963
G1 X150.119 Y60.328 E6.1118
G1 X150.277 Y59.913 E6.1251
G1 X156.700 Y56.428 E6.3438
G1 X157.134 Y56.522 E6.3571
G1 X159.639 Y59.819 E6.4811
G1 X159.648 Y59.830 E6.4815
G1 X159.762 Y59.996 E6.4875
G1 X159.769 Y60.008 E6.4879
G1 X162.184 Y63.891 E6.6248
G1 X162.189 Y63.899 E6.6251
G1 X162.259 Y64.020 E6.6293
G1 X162.263 Y64.029 E6.6296
G1 X164.406 Y68.035 E6.7656
G1 X164.410 Y68.044 E6.7659
G1 X164.473 Y68.170 E6.7701
G1 X164.477 Y68.179 E6.7704
G1 X166.351 Y72.316 E6.9063
G1 X166.355 Y72.325 E6.9066
G1 X166.409 Y72.455 E6.9108
G1 X166.412 Y72.464 E6.9111
G1 X168.012 Y76.713 E7.0470
G1 X168.015 Y76.723 E7.0473
G1 X168.060 Y76.856 E7.0515
G1 X168.063 Y76.865 E7.0518
G1 X169.382 Y81.212 E7.1878
G1 X169.385 Y81.221 E7.1881
G1 X169.421 Y81.357 E7.1923
G1 X169.424 Y81.366 E7.1926
G1 X170.456 Y85.787 E7.3285
G1 X170.458 Y85.797 E7.3288
G1 X170.485 Y85.936 E7.3330
G1 X170.487 Y85.946 E7.3333
G1 X171.226 Y90.429 E7.4694
G1 X171.228 Y90.439 E7.4696
G1 X171.246 Y90.579 E7.4739
G1 X171.247 Y90.588 E7.4742
G1 X171.691 Y95.106 E7.6100
G1 X171.692 Y95.116 E7.6103
G1 X171.701 Y95.256 E7.6145
G1 X171.701 Y95.266 E7.6148
G1 X171.850 Y99.806 E7.7508
G1 X171.850 Y99.816 E7.7511
G1 X171.850 Y99.956 E7.7553
G1 X171.850 Y99.966 E7.7556
G1 X171.701 Y104.505 E7.8915
G1 X171.701 Y104.514 E7.8918
G1 X171.692 Y104.654 E7.8960
G1 X171.691 Y104.664 E7.8963
G1 X171.247 Y109.181 E8.0322
G1 X171.246 Y109.190 E8.0325
G1 X171.228 Y109.328 E8.0366
G1 X171.227 Y109.338 E8.0369
G1 X170.445 Y114.104 E8.1815
G1 X170.096 Y114.391 E8.1950
G1 X162.631 Y114.153 E8.4186
G1 X162.301 Y113.844 E8.4321
G1 X161.913 Y109.933 E8.5498
G1 X161.601 Y108.620 E8.5901
G1 X161.116 Y107.351 E8.6308
G1 X160.469 Y106.155 E8.6715
G1 X159.671 Y105.051 E8.7123
G1 X158.740 Y104.065 E8.7529
G1 X157.685 Y103.208 E8.7936
G1 X156.529 Y102.497 E8.8342
G1 X155.287 Y101.942 E8.8749
G1 X153.981 Y101.552 E8.9157
G1 X152.641 Y101.336 E8.9563
G1 X151.286 Y101.299 E8.9969
G1 X149.932 Y101.439 E9.0377
G1 X148.609 Y101.753 E9.0784
G1 X147.340 Y102.238 E9.1190
G1 X146.145 Y102.883 E9.1597
G1 X145.044 Y103.681 E9.2004
G1 X144.054 Y104.617 E9.2412
G1 X143.197 Y105.669 E9.2818
G1 X142.485 Y106.826 E9.3225
G1 X141.930 Y108.066 E9.3631
G1 X141.542 Y109.369 E9.4038
G1 X141.326 Y110.711 E9.4445
G1 X141.288 Y112.068 E9.4852
G1 X141.427 Y113.422 E9.5259
G1 X141.743 Y114.744 E9.5666
G1 X142.227 Y116.015 E9.6073
G1 X142.873 Y117.209 E9.6479
G1 X143.670 Y118.311 E9.6887
G1 X144.602 Y119.297 E9.7293
G1 X145.660 Y120.155 E9.7700
G1 X146.816 Y120.869 E9.8107
G1 X148.053 Y121.421 E9.8513
G1 X149.358 Y121.810 E9.8920
G1 X150.703 Y122.026 E9.9328
G1 X152.060 Y122.065 E9.9734
G1 X153.410 Y121.925 E10.0141
G1 X154.733 Y121.611 E10.0548
G1 X156.000 Y121.127 E10.0954
G1 X157.197 Y120.479 E10.1361
G1 X158.299 Y119.682 E10.1768
G1 X159.287 Y118.748 E10.2175
G1 X160.147 Y117.691 E10.2583
G1 X162.196 Y114.372 E10.3751
G1 X162.628 Y114.240 E10.3886
G1 X169.445 Y117.313 E10.6124
G1 X169.632 Y117.725 E10.6260
G1 X168.064 Y122.903 E10.7879
G1 X168.061 Y122.913 E10.7882
G1 X168.015 Y123.047 E10.7925
G1 X168.012 Y123.056 E10.7928
G1 X166.412 Y127.306 E10.9287
G1 X166.409 Y127.315 E10.9290
G1 X166.355 Y127.445 E10.9332
G1 X166.351 Y127.454 E10.9335
G1 X164.477 Y131.591 E11.0694
G1 X164.473 Y131.600 E11.0697
G1 X164.410 Y131.726 E11.0740
G1 X164.406 Y131.735 E11.0743
G1 X162.263 Y135.741 E11.2103
G1 X162.258 Y135.750 E11.2105
G1 X162.188 Y135.872 E11.2148
G1 X162.183 Y135.880 E11.2151
G1 X159.785 Y139.735 E11.3509
G1 X159.780 Y139.743 E11.3512
G1 X159.703 Y139.859 E11.3554
G1 X159.697 Y139.867 E11.3557
G1 X157.053 Y143.561 E11.4917
G1 X157.047 Y143.569 E11.4920
G1 X156.960 Y143.682 E11.4963
G1 X156.954 Y143.690 E11.4966
G1 X154.073 Y147.199 E11.6325
G1 X154.066 Y147.207 E11.6328
G1 X153.974 Y147.312 E11.6370
G1 X153.967 Y147.319 E11.6373
G1 X150.863 Y150.634 E11.7732
G1 X150.857 Y150.641 E11.7735
G1 X150.757 Y150.741 E11.7777
G1 X150.750 Y150.747 E11.7780
G1 X147.435 Y153.852 E11.9139
G1 X147.428 Y153.858 E11.9142
G1 X147.322 Y153.951 E11.9184
G1 X147.315 Y153.957 E11.9187
G1 X143.804 Y156.838 E12.0547
G1 X143.796 Y156.844 E12.0550
G1 X143.685 Y156.930 E12.0592
G1 X143.677 Y156.936 E12.0595
G1 X139.984 Y159.584 E12.1955
G1 X139.975 Y159.590 E12.1958
G1 X139.851 Y159.673 E12.2003
G1 X139.842 Y159.678 E12.2006
G1 X132.993 Y163.902 E12.4415
G1 X132.542 Y163.821 E12.4552
G1 X127.890 Y157.886 E12.6809
G1 X129.652 Y165.137 E12.9043
G1 X129.440 Y165.539 E12.9179
G1 X123.170 Y167.896 E13.1184
G1 X123.160 Y167.900 E13.1187
G1 X123.029 Y167.944 E13.1229
G1 X123.019 Y167.947 E13.1232
G1 X118.677 Y169.266 E13.2590
G1 X118.667 Y169.269 E13.2593
G1 X118.530 Y169.306 E13.2636
G1 X118.520 Y169.308 E13.2639
G1 X114.095 Y170.338 E13.3999
G1 X114.086 Y170.340 E13.4002
G1 X113.949 Y170.367 E13.4044
G1 X113.939 Y170.369 E13.4046
G1 X109.461 Y171.110 E13.5405
G1 X109.451 Y171.111 E13.5408
G1 X109.311 Y171.130 E13.5450
G1 X109.302 Y171.131 E13.5453
G1 X104.779 Y171.577 E13.6814
G1 X104.769 Y171.577 E13.6817
G1 X104.629 Y171.587 E13.6859
G1 X104.619 Y171.587 E13.6862
G1 X100.080 Y171.736 E13.8221
G1 X100.070 Y171.736 E13.8224
G1 X99.930 Y171.736 E13.8266
G1 X99.920 Y171.736 E13.8269
G1 X95.381 Y171.587 E13.9628
G1 X95.371 Y171.587 E13.9631
G1 X95.230 Y171.577 E13.9674
G1 X95.221 Y171.577 E13.9677
G1 X90.700 Y171.131 E14.1036
G1 X90.691 Y171.130 E14.1039
G1 X90.551 Y171.111 E14.1081
G1 X90.541 Y171.110 E14.1084
G1 X86.062 Y170.369 E14.2443
G1 X86.053 Y170.367 E14.2446
G1 X85.916 Y170.340 E14.2488
G1 X85.907 Y170.338 E14.2491
G1 X81.484 Y169.308 E14.3850
G1 X81.474 Y169.306 E14.3853
G1 X81.338 Y169.269 E14.3895
G1 X81.328 Y169.266 E14.3898
G1 X76.985 Y167.948 E14.5257
G1 X76.976 Y167.946 E14.5260
G1 X76.850 Y167.903 E14.5300
G1 X76.841 Y167.900 E14.5303
G1 X70.511 Y165.542 E14.7324
G1 X70.297 Y165.140 E14.7461
G1 X72.041 Y157.941 E14.9678
G1 X67.451 Y163.814 E15.1909
G1 X67.000 Y163.895 E15.2046
G1 X60.162 Y159.678 E15.4451
G1 X60.153 Y159.673 E15.4454
