; G-Code generated by Simplify3D(R) Version 4.0.0
; Aug 10, 2019 at 3:07:54 PM
; Settings Summary
;   processName,Process1
;   applyToModels,Cs_Euro_Abstandhülse_Kurbel
;   profileName,Default
;   profileVersion,2017-03-01 08:00:00
;   baseProfile,
;   printMaterial,PLA
;   printQuality,Medium
;   printExtruders,
;   extruderName,Primary Extruder
;   extruderToolheadNumber,0
;   extruderDiameter,0.35
;   extruderAutoWidth,0
;   extruderWidth,0.4
;   extrusionMultiplier,0.9
;   extruderUseRetract,1
;   extruderRetractionDistance,1
;   extruderExtraRestartDistance,0
;   extruderRetractionZLift,0
;   extruderRetractionSpeed,1800
;   extruderUseCoasting,0
;   extruderCoastingDistance,0.2
;   extruderUseWipe,0
;   extruderWipeDistance,5
;   primaryExtruder,0
;   layerHeight,0.2
;   topSolidLayers,3
;   bottomSolidLayers,3
;   perimeterOutlines,2
;   printPerimetersInsideOut,1
;   startPointOption,2
;   startPointOriginX,0
;   startPointOriginY,0
;   sequentialIslands,0
;   spiralVaseMode,0
;   firstLayerHeightPercentage,90
;   firstLayerWidthPercentage,100
;   firstLayerUnderspeed,0.5
;   useRaft,0
;   raftExtruder,0
;   raftTopLayers,3
;   raftBaseLayers,2
;   raftOffset,3
;   raftSeparationDistance,0.14
;   raftTopInfill,100
;   aboveRaftSpeedMultiplier,0.3
;   useSkirt,1
;   skirtExtruder,0
;   skirtLayers,1
;   skirtOutlines,2
;   skirtOffset,4
;   usePrimePillar,0
;   primePillarExtruder,999
;   primePillarWidth,12
;   primePillarLocation,7
;   primePillarSpeedMultiplier,1
;   useOozeShield,0
;   oozeShieldExtruder,999
;   oozeShieldOffset,2
;   oozeShieldOutlines,1
;   oozeShieldSidewallShape,1
;   oozeShieldSidewallAngle,30
;   oozeShieldSpeedMultiplier,1
;   infillExtruder,0
;   internalInfillPattern,Rectilinear
;   externalInfillPattern,Rectilinear
;   infillPercentage,20
;   outlineOverlapPercentage,15
;   infillExtrusionWidthPercentage,100
;   minInfillLength,5
;   infillLayerInterval,1
;   internalInfillAngles,45,-45
;   overlapInternalInfillAngles,0
;   externalInfillAngles,45,-45
;   generateSupport,0
;   supportExtruder,0
;   supportInfillPercentage,30
;   supportExtraInflation,0
;   supportBaseLayers,0
;   denseSupportExtruder,0
;   denseSupportLayers,0
;   denseSupportInfillPercentage,70
;   supportLayerInterval,1
;   supportHorizontalPartOffset,0.3
;   supportUpperSeparationLayers,1
;   supportLowerSeparationLayers,1
;   supportType,0
;   supportGridSpacing,4
;   maxOverhangAngle,45
;   supportAngles,0
;   temperatureName,Primary Extruder
;   temperatureNumber,0
;   temperatureSetpointCount,1
;   temperatureSetpointLayers,1
;   temperatureSetpointTemperatures,190
;   temperatureStabilizeAtStartup,1
;   temperatureHeatedBed,0
;   temperatureRelayBetweenLayers,0
;   temperatureRelayBetweenLoops,0
;   fanLayers,1,2
;   fanSpeeds,0,100
;   blipFanToFullPower,0
;   adjustSpeedForCooling,1
;   minSpeedLayerTime,15
;   minCoolingSpeedSlowdown,20
;   increaseFanForCooling,0
;   minFanLayerTime,45
;   maxCoolingFanSpeed,100
;   increaseFanForBridging,0
;   bridgingFanSpeed,100
;   use5D,1
;   relativeEdistances,0
;   allowEaxisZeroing,1
;   independentExtruderAxes,0
;   includeM10123,0
;   stickySupport,1
;   applyToolheadOffsets,0
;   gcodeXoffset,0
;   gcodeYoffset,0
;   gcodeZoffset,0
;   overrideMachineDefinition,0
;   machineTypeOverride,0
;   strokeXoverride,200
;   strokeYoverride,200
;   strokeZoverride,200
;   originOffsetXoverride,0
;   originOffsetYoverride,0
;   originOffsetZoverride,0
;   homeXdirOverride,-1
;   homeYdirOverride,-1
;   homeZdirOverride,-1
;   flipXoverride,1
;   flipYoverride,-1
;   flipZoverride,1
;   toolheadOffsets,0,0|0,0|0,0|0,0|0,0|0,0
;   overrideFirmwareConfiguration,0
;   firmwareTypeOverride,RepRap (Marlin/Repetier/Sprinter)
;   GPXconfigOverride,r2
;   baudRateOverride,115200
;   overridePrinterModels,0
;   printerModelsOverride
;   startingGcode,G28 ; home all axes
;   layerChangeGcode,
;   retractionGcode,
;   toolChangeGcode,
;   endingGcode,M104 S0 ; turn off extruder,M140 S0 ; turn off bed,M84 ; disable motors
;   exportFileFormat,gcode
;   celebration,0
;   celebrationSong,Random Song
;   postProcessing,
;   defaultSpeed,3600
;   outlineUnderspeed,0.5
;   solidInfillUnderspeed,0.8
;   supportUnderspeed,0.8
;   rapidXYspeed,4800
;   rapidZspeed,1000
;   minBridgingArea,50
;   bridgingExtraInflation,0
;   bridgingExtrusionMultiplier,1
;   bridgingSpeedMultiplier,1
;   useFixedBridgingAngle,0
;   fixedBridgingAngle,0
;   applyBridgingToPerimeters,0
;   filamentDiameters,1.75|1.75|1.75|1.75|1.75|1.75
;   filamentPricesPerKg,46|46|46|46|46|46
;   filamentDensities,1.25|1.25|1.25|1.25|1.25|1.25
;   useMinPrintHeight,0
;   minPrintHeight,0
;   useMaxPrintHeight,0
;   maxPrintHeight,0
;   useDiaphragm,0
;   diaphragmLayerInterval,20
;   robustSlicing,1
;   mergeAllIntoSolid,0
;   onlyRetractWhenCrossingOutline,1
;   retractBetweenLayers,1
;   useRetractionMinTravel,0
;   retractionMinTravel,3
;   retractWhileWiping,0
;   onlyWipeOutlines,1
;   avoidCrossingOutline,0
;   maxMovementDetourFactor,3
;   toolChangeRetractionDistance,12
;   toolChangeExtraRestartDistance,-0.5
;   toolChangeRetractionSpeed,600
;   externalThinWallType,0
;   internalThinWallType,2
;   thinWallAllowedOverlapPercentage,10
;   singleExtrusionMinLength,1
;   singleExtrusionMinPrintingWidthPercentage,50
;   singleExtrusionMaxPrintingWidthPercentage,200
;   singleExtrusionEndpointExtension,0.2
;   horizontalSizeCompensation,0
G90
M82
M106 S0
M104 S190 T0
M109 S190 T0
G28 ; home all axes
G92 E0
G1 E-1.0000 F1800
G1 Z0.180 F1000
; process Process1
; layer 1, Z = 0.180
T0
; tool H0.200 W0.400
; skirt
G1 X91.598 Y91.997 F4800
G1 E0.0000 F540
G92 E0
G1 X91.997 Y91.598 E0.0169 F1019
G1 X92.026 Y91.572 E0.0180
G1 X93.923 Y90.117 E0.0896
G1 X93.956 Y90.095 E0.0908
G1 X94.444 Y89.813 E0.1077
G1 X94.479 Y89.796 E0.1088
G1 X96.688 Y88.881 E0.1804
G1 X96.725 Y88.868 E0.1816
G1 X97.270 Y88.722 E0.1985
G1 X97.308 Y88.715 E0.1996
G1 X99.679 Y88.403 E0.2712
G1 X99.718 Y88.400 E0.2724
G1 X100.282 Y88.400 E0.2893
G1 X100.321 Y88.403 E0.2904
G1 X102.692 Y88.715 E0.3620
G1 X102.730 Y88.722 E0.3632
G1 X103.275 Y88.868 E0.3801
G1 X103.312 Y88.881 E0.3812
G1 X105.521 Y89.796 E0.4528
G1 X105.556 Y89.813 E0.4540
G1 X106.044 Y90.095 E0.4709
G1 X106.077 Y90.117 E0.4720
G1 X107.974 Y91.572 E0.5436
G1 X108.003 Y91.598 E0.5448
G1 X108.402 Y91.997 E0.5616
G1 X108.428 Y92.026 E0.5628
G1 X109.883 Y93.923 E0.6344
G1 X109.905 Y93.956 E0.6356
G1 X110.187 Y94.444 E0.6524
G1 X110.204 Y94.479 E0.6536
G1 X111.119 Y96.688 E0.7252
G1 X111.132 Y96.725 E0.7264
G1 X111.278 Y97.270 E0.7432
G1 X111.285 Y97.308 E0.7444
G1 X111.597 Y99.679 E0.8160
G1 X111.600 Y99.718 E0.8172
G1 X111.600 Y100.282 E0.8340
G1 X111.597 Y100.321 E0.8352
G1 X111.285 Y102.692 E0.9068
G1 X111.278 Y102.730 E0.9080
G1 X111.132 Y103.275 E0.9248
G1 X111.119 Y103.312 E0.9260
G1 X110.204 Y105.521 E0.9976
G1 X110.187 Y105.556 E0.9988
G1 X109.905 Y106.044 E1.0156
G1 X109.883 Y106.077 E1.0168
G1 X108.428 Y107.974 E1.0884
G1 X108.402 Y108.003 E1.0896
G1 X108.003 Y108.402 E1.1064
G1 X107.974 Y108.428 E1.1076
G1 X106.077 Y109.883 E1.1792
G1 X106.044 Y109.905 E1.1803
G1 X105.556 Y110.187 E1.1972
G1 X105.521 Y110.204 E1.1984
G1 X103.312 Y111.119 E1.2700
G1 X103.275 Y111.132 E1.2711
G1 X102.730 Y111.278 E1.2880
G1 X102.692 Y111.285 E1.2892
G1 X100.321 Y111.597 E1.3608
G1 X100.282 Y111.600 E1.3619
G1 X99.718 Y111.600 E1.3788
G1 X99.679 Y111.597 E1.3800
G1 X97.308 Y111.285 E1.4516
G1 X97.270 Y111.278 E1.4527
G1 X96.725 Y111.132 E1.4696
G1 X96.688 Y111.119 E1.4708
G1 X94.479 Y110.204 E1.5424
G1 X94.444 Y110.187 E1.5435
G1 X93.956 Y109.905 E1.5604
G1 X93.923 Y109.883 E1.5616
G1 X92.026 Y108.428 E1.6332
G1 X91.997 Y108.402 E1.6343
G1 X91.598 Y108.003 E1.6512
G1 X91.572 Y107.974 E1.6524
G1 X90.117 Y106.077 E1.7239
G1 X90.095 Y106.044 E1.7251
G1 X89.813 Y105.556 E1.7420
G1 X89.796 Y105.521 E1.7432
G1 X88.881 Y103.312 E1.8147
G1 X88.868 Y103.275 E1.8159
G1 X88.722 Y102.730 E1.8328
G1 X88.715 Y102.692 E1.8340
G1 X88.403 Y100.321 E1.9055
G1 X88.400 Y100.282 E1.9067
G1 X88.400 Y99.718 E1.9236
G1 X88.403 Y99.679 E1.9248
G1 X88.715 Y97.308 E1.9963
G1 X88.722 Y97.270 E1.9975
G1 X88.868 Y96.725 E2.0144
G1 X88.881 Y96.688 E2.0156
G1 X89.796 Y94.479 E2.0871
G1 X89.813 Y94.444 E2.0883
G1 X90.095 Y93.956 E2.1052
G1 X90.117 Y93.923 E2.1064
G1 X91.572 Y92.026 E2.1779
G1 X91.598 Y91.997 E2.1791
G1 X91.890 Y92.270 F4800
G92 E0
G1 X92.270 Y91.890 E0.0161 F1019
G1 X92.280 Y91.882 E0.0165
G1 X94.156 Y90.442 E0.0873
G1 X94.167 Y90.435 E0.0877
G1 X94.633 Y90.166 E0.1037
G1 X94.644 Y90.160 E0.1041
G1 X96.829 Y89.255 E0.1749
G1 X96.842 Y89.251 E0.1753
G1 X97.361 Y89.112 E0.1914
G1 X97.374 Y89.110 E0.1918
G1 X99.718 Y88.801 E0.2626
G1 X99.731 Y88.800 E0.2630
G1 X100.269 Y88.800 E0.2791
G1 X100.282 Y88.801 E0.2795
G1 X102.626 Y89.110 E0.3502
G1 X102.639 Y89.112 E0.3506
G1 X103.158 Y89.251 E0.3667
G1 X103.171 Y89.255 E0.3671
G1 X105.356 Y90.160 E0.4379
G1 X105.367 Y90.166 E0.4383
G1 X105.833 Y90.435 E0.4544
G1 X105.844 Y90.442 E0.4548
G1 X107.720 Y91.882 E0.5256
G1 X107.730 Y91.890 E0.5260
G1 X108.110 Y92.270 E0.5420
G1 X108.118 Y92.280 E0.5424
G1 X109.558 Y94.156 E0.6132
G1 X109.565 Y94.167 E0.6136
G1 X109.834 Y94.633 E0.6297
G1 X109.840 Y94.644 E0.6301
G1 X110.745 Y96.829 E0.7009
G1 X110.749 Y96.842 E0.7013
G1 X110.888 Y97.361 E0.7174
G1 X110.890 Y97.374 E0.7178
G1 X111.199 Y99.718 E0.7886
G1 X111.200 Y99.731 E0.7889
G1 X111.200 Y100.269 E0.8050
G1 X111.199 Y100.282 E0.8054
G1 X110.890 Y102.626 E0.8762
G1 X110.888 Y102.639 E0.8766
G1 X110.749 Y103.158 E0.8927
G1 X110.745 Y103.171 E0.8931
G1 X109.840 Y105.356 E0.9639
G1 X109.834 Y105.367 E0.9643
G1 X109.565 Y105.833 E0.9804
G1 X109.558 Y105.844 E0.9807
G1 X108.118 Y107.720 E1.0515
G1 X108.110 Y107.730 E1.0519
G1 X107.730 Y108.110 E1.0680
G1 X107.720 Y108.118 E1.0684
G1 X105.844 Y109.558 E1.1392
G1 X105.833 Y109.565 E1.1396
G1 X105.367 Y109.834 E1.1557
G1 X105.356 Y109.840 E1.1561
G1 X103.171 Y110.745 E1.2269
G1 X103.158 Y110.749 E1.2272
G1 X102.639 Y110.888 E1.2433
G1 X102.626 Y110.890 E1.2437
G1 X100.282 Y111.199 E1.3145
G1 X100.269 Y111.200 E1.3149
G1 X99.731 Y111.200 E1.3310
G1 X99.718 Y111.199 E1.3314
G1 X97.374 Y110.890 E1.4022
G1 X97.361 Y110.888 E1.4026
G1 X96.842 Y110.749 E1.4187
G1 X96.829 Y110.745 E1.4190
G1 X94.644 Y109.840 E1.4898
G1 X94.633 Y109.834 E1.4902
G1 X94.167 Y109.565 E1.5063
G1 X94.156 Y109.558 E1.5067
G1 X92.280 Y108.118 E1.5775
G1 X92.270 Y108.110 E1.5779
G1 X91.890 Y107.730 E1.5940
G1 X91.882 Y107.720 E1.5944
G1 X90.442 Y105.844 E1.6652
G1 X90.435 Y105.833 E1.6655
G1 X90.166 Y105.367 E1.6816
G1 X90.160 Y105.356 E1.6820
G1 X89.255 Y103.171 E1.7528
G1 X89.251 Y103.158 E1.7532
G1 X89.112 Y102.639 E1.7693
G1 X89.110 Y102.626 E1.7697
G1 X88.801 Y100.282 E1.8405
G1 X88.800 Y100.269 E1.8409
G1 X88.800 Y99.731 E1.8570
G1 X88.801 Y99.718 E1.8573
G1 X89.110 Y97.374 E1.9281
G1 X89.112 Y97.361 E1.9285
G1 X89.251 Y96.842 E1.9446
G1 X89.255 Y96.829 E1.9450
G1 X90.160 Y94.644 E2.0158
G1 X90.166 Y94.633 E2.0162
G1 X90.435 Y94.167 E2.0323
G1 X90.442 Y94.156 E2.0327
G1 X91.882 Y92.280 E2.1035
G1 X91.890 Y92.270 E2.1038
G92 E0
G1 E-1.0000 F1800
; inner perimeter
G1 X95.478 Y95.478 F4800
G1 E0.0000 F1800
G92 E0
G1 X96.803 Y94.462 E0.0500 F764
G1 X98.345 Y93.823 E0.0999
G1 X100.000 Y93.605 E0.1499
G1 X101.655 Y93.823 E0.1999
G1 X103.197 Y94.462 E0.2499
G1 X104.522 Y95.478 E0.2998
G1 X105.538 Y96.803 E0.3498
G1 X106.177 Y98.345 E0.3998
G1 X106.395 Y100.000 E0.4497
G1 X106.177 Y101.655 E0.4997
G1 X105.538 Y103.197 E0.5497
G1 X104.522 Y104.522 E0.5997
G1 X103.197 Y105.538 E0.6496
G1 X101.655 Y106.177 E0.6996
G1 X100.000 Y106.395 E0.7496
G1 X98.345 Y106.177 E0.7995
G1 X96.803 Y105.538 E0.8495
G1 X95.478 Y104.522 E0.8995
G1 X94.462 Y103.197 E0.9495
G1 X93.823 Y101.655 E0.9994
G1 X93.605 Y100.000 E1.0494
G1 X93.823 Y98.345 E1.0994
G1 X94.462 Y96.803 E1.1493
G1 X95.478 Y95.478 E1.1993
; outer perimeter
G1 X95.193 Y95.193 F4800
G92 E0
G1 X96.601 Y94.113 E0.0531 F510
G1 X98.240 Y93.433 E0.1062
G1 X100.000 Y93.202 E0.1594
G1 X101.760 Y93.433 E0.2125
G1 X103.399 Y94.113 E0.2656
G1 X104.807 Y95.193 E0.3187
G1 X105.887 Y96.601 E0.3719
G1 X106.567 Y98.240 E0.4250
G1 X106.798 Y100.000 E0.4781
G1 X106.567 Y101.760 E0.5312
G1 X105.887 Y103.399 E0.5844
G1 X104.807 Y104.807 E0.6375
G1 X103.399 Y105.887 E0.6906
G1 X101.760 Y106.567 E0.7437
G1 X100.000 Y106.798 E0.7969
G1 X98.240 Y106.567 E0.8500
G1 X96.601 Y105.887 E0.9031
G1 X95.193 Y104.807 E0.9562
G1 X94.113 Y103.399 E1.0094
G1 X93.433 Y101.760 E1.0625
G1 X93.202 Y100.000 E1.1156
G1 X93.433 Y98.240 E1.1687
G1 X94.113 Y96.601 E1.2219
G1 X95.193 Y95.193 E1.2750
; inner perimeter
G1 X95.895 Y95.895 F4800
G92 E0
G1 X94.973 Y97.097 E0.0454 F764
G1 X94.393 Y98.498 E0.0907
G1 X94.195 Y100.000 E0.1361
G1 X94.393 Y101.502 E0.1815
G1 X94.973 Y102.903 E0.2268
G1 X95.895 Y104.105 E0.2722
G1 X97.097 Y105.027 E0.3175
G1 X98.498 Y105.607 E0.3629
G1 X100.000 Y105.805 E0.4083
G1 X101.502 Y105.607 E0.4536
G1 X102.903 Y105.027 E0.4990
G1 X104.105 Y104.105 E0.5444
G1 X105.027 Y102.903 E0.5897
G1 X105.607 Y101.502 E0.6351
G1 X105.805 Y100.000 E0.6805
G1 X105.607 Y98.498 E0.7258
G1 X105.027 Y97.097 E0.7712
G1 X104.105 Y95.895 E0.8165
G1 X102.903 Y94.973 E0.8619
G1 X101.502 Y94.393 E0.9073
G1 X100.000 Y94.195 E0.9526
G1 X98.498 Y94.393 E0.9980
G1 X97.097 Y94.973 E1.0434
G1 X95.895 Y95.895 E1.0887
; outer perimeter
G1 X96.180 Y96.180 F4800
G92 E0
G1 X95.322 Y97.299 E0.0422 F510
G1 X94.782 Y98.602 E0.0844
G1 X94.598 Y100.000 E0.1266
G1 X94.782 Y101.398 E0.1688
G1 X95.322 Y102.701 E0.2111
G1 X96.180 Y103.820 E0.2533
G1 X97.299 Y104.678 E0.2955
G1 X98.602 Y105.218 E0.3377
G1 X100.000 Y105.402 E0.3799
G1 X101.398 Y105.218 E0.4221
G1 X102.701 Y104.678 E0.4643
G1 X103.820 Y103.820 E0.5065
G1 X104.678 Y102.701 E0.5487
G1 X105.218 Y101.398 E0.5910
G1 X105.402 Y100.000 E0.6332
G1 X105.218 Y98.602 E0.6754
G1 X104.678 Y97.299 E0.7176
G1 X103.820 Y96.180 E0.7598
G1 X102.701 Y95.322 E0.8020
G1 X101.398 Y94.782 E0.8442
G1 X100.000 Y94.598 E0.8864
G1 X98.602 Y94.782 E0.9286
G1 X97.299 Y95.322 E0.9709
G1 X96.180 Y96.180 E1.0131
G92 E0
G1 E-1.0000 F1800
; layer 2, Z = 0.380
M106 S255
; inner perimeter
G1 X95.478 Y95.478 F4800
G1 Z0.380 F1000
G1 E0.0000 F1800
G92 E0
G1 X96.803 Y94.462 E0.0500 F764
G1 X98.345 Y93.823 E0.0999
G1 X100.000 Y93.605 E0.1499
G1 X101.655 Y93.823 E0.1999
G1 X103.197 Y94.462 E0.2499
G1 X104.522 Y95.478 E0.2998
G1 X105.538 Y96.803 E0.3498
G1 X106.177 Y98.345 E0.3998
G1 X106.395 Y100.000 E0.4497
G1 X106.177 Y101.655 E0.4997
G1 X105.538 Y103.197 E0.5497
G1 X104.522 Y104.522 E0.5997
G1 X103.197 Y105.538 E0.6496
G1 X101.655 Y106.177 E0.6996
G1 X100.000 Y106.395 E0.7496
G1 X98.345 Y106.177 E0.7995
G1 X96.803 Y105.538 E0.8495
G1 X95.478 Y104.522 E0.8995
G1 X94.462 Y103.197 E0.9495
G1 X93.823 Y101.655 E0.9994
G1 X93.605 Y100.000 E1.0494
G1 X93.823 Y98.345 E1.0994
G1 X94.462 Y96.803 E1.1493
G1 X95.478 Y95.478 E1.1993
; outer perimeter
G1 X95.193 Y95.193 F4800
G92 E0
G1 X96.601 Y94.113 E0.0531 F510
G1 X98.240 Y93.433 E0.1062
G1 X100.000 Y93.202 E0.1594
G1 X101.760 Y93.433 E0.2125
G1 X103.399 Y94.113 E0.2656
G1 X104.807 Y95.193 E0.3187
G1 X105.887 Y96.601 E0.3719
G1 X106.567 Y98.240 E0.4250
G1 X106.798 Y100.000 E0.4781
G1 X106.567 Y101.760 E0.5312
G1 X105.887 Y103.399 E0.5844
G1 X104.807 Y104.807 E0.6375
G1 X103.399 Y105.887 E0.6906
G1 X101.760 Y106.567 E0.7437
G1 X100.000 Y106.798 E0.7969
G1 X98.240 Y106.567 E0.8500
G1 X96.601 Y105.887 E0.9031
G1 X95.193 Y104.807 E0.9562
