;FLAVOR:Marlin
;TIME:3961
;Filament used: 3.30774m
;Layer height: 0.15
;MINX:2.724
;MINY:60.055
;MINZ:0.3
;MAXX:177.634
;MAXY:114.771
;MAXZ:5.4
;Generated with Cura_SteamEngine 4.1.0
M140 S60
M105
M190 S60
M104 S200
M105
M109 S200
M82 ;absolute extrusion mode
G28 ;Home
G1 Z15.0 F6000 ;Move the platform down 15mm
;Prime the extruder
G92 E0
G1 F200 E3
G92 E0
G92 E0
G92 E0
G1 F1500 E-6.5
;LAYER_COUNT:36
;LAYER:0
M107
G0 F3600 X8.751 Y66.851 Z0.3
;TYPE:SKIRT
G1 F1500 E0
G1 F1800 X9.065 Y66.83 E0.0157
G1 X9.171 Y66.825 E0.02099
G1 X9.825 Y66.803 E0.05364
G1 X9.903 Y66.801 E0.05753
G1 X10.117 Y66.799 E0.06821
G1 X10.147 Y66.799 E0.06971
G1 X65.463 Y66.801 E2.82943
G1 X124.292 Y66.801 E5.76442
G1 X127.089 Y66.761 E5.90398
G1 X129.788 Y66.647 E6.03876
G1 X133.684 Y66.349 E6.2337
G1 X144.491 Y65.308 E6.77535
G1 X144.533 Y65.304 E6.77746
G1 X145.208 Y65.248 E6.81125
G1 X145.303 Y65.242 E6.816
G1 X145.782 Y65.217 E6.83993
G1 X145.782 Y65.216 E6.83998
G1 X148.576 Y65.026 E6.9797
G1 X151.288 Y64.764 E7.11563
G1 X153.985 Y64.426 E7.25123
G1 X156.702 Y64.009 E7.38837
G1 X159.413 Y63.513 E7.52587
G1 X162.078 Y62.946 E7.6618
G1 X164.703 Y62.311 E7.79654
G1 X167.403 Y61.576 E7.93615
G1 X169.972 Y60.798 E8.07006
G1 X170.372 Y60.662 E8.09114
G1 X170.431 Y60.643 E8.09423
G1 X171.779 Y60.215 E8.1648
G1 X172.271 Y60.101 E8.18999
G1 X172.648 Y60.067 E8.20888
G1 X172.97 Y60.057 E8.22495
G1 X173.11 Y60.055 E8.23193
G1 X173.739 Y60.063 E8.26332
G1 X174.242 Y60.11 E8.28852
G1 X174.732 Y60.235 E8.31375
G1 X175.196 Y60.435 E8.33896
G1 X175.623 Y60.707 E8.36422
G1 X176.001 Y61.042 E8.38942
G1 X176.322 Y61.432 E8.41462
G1 X176.578 Y61.868 E8.43984
G1 X176.762 Y62.339 E8.46507
G1 X176.893 Y63.079 E8.50256
G1 X176.91 Y63.381 E8.51765
G1 X177.11 Y66.165 E8.6569
G1 X177.381 Y68.86 E8.79204
G1 X177.493 Y69.731 E8.83585
G1 X177.498 Y69.774 E8.83801
G1 X177.603 Y70.689 E8.88396
G1 X177.623 Y70.96 E8.89751
G1 X177.633 Y71.3 E8.91448
G1 X177.634 Y71.428 E8.92087
G1 X177.625 Y72.282 E8.96348
G1 X177.61 Y72.557 E8.97722
G1 X177.538 Y73.299 E9.01441
G1 X177.304 Y76.082 E9.15375
G1 X177.153 Y78.798 E9.28946
G1 X177.078 Y81.55 E9.42681
G1 X177.08 Y84.269 E9.56246
G1 X177.161 Y87.02 E9.69976
G1 X177.32 Y89.778 E9.83759
G1 X177.426 Y91.121 E9.9048
G1 X177.5 Y91.979 E9.94777
G1 X177.511 Y92.157 E9.95666
G1 X177.521 Y92.487 E9.97313
G1 X177.522 Y92.621 E9.97982
G1 X177.512 Y93.49 E10.02318
G1 X177.511 Y93.543 E10.02582
G1 X177.434 Y96.276 E10.16223
G1 X177.434 Y98.995 E10.29788
G1 X177.478 Y100.557 E10.37584
G1 X177.478 Y100.568 E10.37639
G1 X177.521 Y102.305 E10.46307
G1 X177.522 Y102.421 E10.46886
G1 X177.512 Y103.289 E10.51217
G1 X177.509 Y103.389 E10.51716
G1 X177.494 Y103.74 E10.53469
G1 X177.492 Y103.784 E10.53688
G1 X177.376 Y105.836 E10.63942
G1 X177.298 Y108.598 E10.77727
G1 X177.288 Y109.975 E10.84597
G1 X177.288 Y110.883 E10.89127
G1 X177.277 Y111.61 E10.92755
G1 X177.229 Y112.114 E10.95281
G1 X177.103 Y112.603 E10.978
G1 X176.901 Y113.067 E11.00325
G1 X176.629 Y113.493 E11.02846
G1 X176.293 Y113.871 E11.0537
G1 X175.902 Y114.191 E11.0789
G1 X175.465 Y114.445 E11.10412
G1 X174.993 Y114.628 E11.12938
G1 X174.499 Y114.734 E11.15458
G1 X174.167 Y114.761 E11.1712
G1 X173.848 Y114.77 E11.18712
G1 X173.758 Y114.771 E11.19161
G1 X155.661 Y114.771 E12.09448
G1 X155.109 Y114.763 E12.12202
G1 X154.912 Y114.754 E12.13186
G1 X153.769 Y114.667 E12.18905
G1 X153.705 Y114.661 E12.19225
G1 X143.153 Y113.646 E12.72112
G1 X140.408 Y113.421 E12.85853
G1 X137.683 Y113.274 E12.99468
G1 X133.854 Y113.199 E13.18575
G1 X16.164 Y113.199 E19.05732
G1 X15.466 Y113.189 E19.09215
G1 X15.191 Y113.173 E19.10589
G1 X14.963 Y113.15 E19.11733
G1 X14.82 Y113.132 E19.12452
G1 X14.52 Y113.088 E19.13964
G1 X14.22 Y113.029 E19.1549
G1 X13.533 Y112.86 E19.19019
G1 X13.162 Y112.745 E19.20957
G1 X12.635 Y112.545 E19.23769
G1 X12.317 Y112.404 E19.25505
G1 X11.789 Y112.135 E19.28461
G1 X11.5 Y111.968 E19.30127
G1 X11.027 Y111.661 E19.3294
G1 X10.75 Y111.46 E19.34647
G1 X10.317 Y111.108 E19.37431
G1 X10.076 Y110.89 E19.39053
G1 X9.664 Y110.479 E19.41956
G1 X9.44 Y110.232 E19.4362
G1 X9.102 Y109.816 E19.46294
G1 X8.974 Y109.647 E19.47351
G1 X8.848 Y109.469 E19.48439
G1 X8.745 Y109.313 E19.49372
G1 X8.543 Y108.989 E19.51277
G1 X8.401 Y108.738 E19.52716
G1 X8.132 Y108.205 E19.55694
G1 X7.995 Y107.894 E19.5739
G1 X7.799 Y107.375 E19.60157
G1 X7.698 Y107.056 E19.61827
G1 X7.529 Y106.412 E19.65149
G1 X7.501 Y106.298 E19.65734
G1 X7.39 Y105.801 E19.68275
G1 X7.381 Y105.759 E19.68489
G1 X7.278 Y105.267 E19.70997
G1 X7.267 Y105.214 E19.71267
G1 X6.97 Y103.667 E19.79126
G1 X6.962 Y103.62 E19.79364
G1 X5.461 Y95.106 E20.22495
G1 X5.452 Y95.057 E20.22744
G1 X5.2 Y93.487 E20.30677
G1 X5.193 Y93.436 E20.30934
G1 X3.956 Y84.847 E20.74227
G1 X3.949 Y84.796 E20.74483
G1 X3.754 Y83.267 E20.82173
G1 X3.748 Y83.219 E20.82415
G1 X2.832 Y75.068 E21.23336
G1 X2.827 Y75.025 E21.23552
G1 X2.757 Y74.315 E21.27112
G1 X2.744 Y74.105 E21.28161
G1 X2.724 Y73.487 E21.31246
G1 X2.747 Y72.982 E21.33768
G1 X2.812 Y72.468 E21.36353
G1 X2.895 Y72.046 E21.38499
G1 X3.018 Y71.584 E21.40884
G1 X3.141 Y71.214 E21.42829
G1 X3.223 Y71.01 E21.43926
G1 X3.272 Y70.894 E21.44554
G1 X3.385 Y70.642 E21.45932
G1 X3.553 Y70.318 E21.47753
G1 X3.801 Y69.9 E21.50178
G1 X4.049 Y69.541 E21.52355
G1 X4.337 Y69.179 E21.54663
G1 X4.628 Y68.86 E21.56817
G1 X4.983 Y68.52 E21.59269
G1 X5.387 Y68.191 E21.61868
G1 X5.638 Y68.019 E21.63386
G1 X5.749 Y67.947 E21.64047
G1 X6.158 Y67.691 E21.66454
G1 X6.574 Y67.471 E21.68802
G1 X6.789 Y67.377 E21.69972
G1 X6.908 Y67.328 E21.70614
G1 X7.295 Y67.177 E21.72687
G1 X7.756 Y67.036 E21.75092
G1 X8.263 Y66.922 E21.77685
G1 X8.751 Y66.851 E21.80145
G1 F1500 E15.30145
;MESH:Cs_Euro_Sortierkanal_links.stl
G0 F3600 X8.993 Y69.367
G0 X9.053 Y70.649
G0 X7.973 Y72.485
G0 X7.472 Y73.506
G0 X7.571 Y73.518
;TYPE:WALL-INNER
G1 F1500 E21.80145
G1 F1800 X7.61 Y74.288 E21.83991
G1 X8.667 Y83.707 E22.31278
G1 X10.129 Y93.864 E22.82474
G1 X11.883 Y103.801 E23.32816
G1 X12.27 Y105.682 E23.42397
G1 X12.354 Y106.249 E23.45256
G1 X12.595 Y106.828 E23.48385
G1 X12.934 Y107.27 E23.51164
G1 X13.395 Y107.623 E23.54061
G1 X13.932 Y107.848 E23.56966
G1 X14.512 Y107.925 E23.59885
G1 X15.088 Y107.847 E23.62785
G1 X15.624 Y107.623 E23.65683
G1 X16.087 Y107.272 E23.68582
G1 X16.445 Y106.803 E23.71525
G1 X16.67 Y106.236 E23.74569
G1 X16.738 Y105.661 E23.77457
G1 X16.662 Y105.122 E23.80173
G1 X16.581 Y104.884 E23.81427
G1 X16.34 Y103.732 E23.87299
G1 X14.565 Y93.665 E24.38298
G1 X13.108 Y83.558 E24.89244
G1 X12.026 Y73.917 E25.37645
G1 X11.891 Y73.117 E25.41692
G1 X11.592 Y72.565 E25.44824
G1 X11.191 Y72.14 E25.47739
G1 X10.693 Y71.836 E25.5065
G1 X10.136 Y71.669 E25.53551
G1 X9.551 Y71.652 E25.56471
G1 X8.985 Y71.789 E25.59377
G1 X8.477 Y72.063 E25.62256
G1 X8.067 Y72.442 E25.65042
G1 X7.755 Y72.932 E25.6794
G1 X7.571 Y73.518 E25.71004
G0 F3600 X7.472 Y73.506
G0 X8.037 Y72.417
G0 X8.971 Y71.752
G0 X10.142 Y71.63
G0 X11.216 Y72.109
G0 X15.496 Y77.934
G0 X16.103 Y83.399
G0 X17.553 Y93.538
G0 X18.505 Y98.929
G0 X53.591 Y98.962
G0 X53.514 Y98.899
G1 F1800 X53.464 Y98.659 E25.72227
G1 X52.87 Y95.819 E25.86703
G1 X51.283 Y86.864 E26.32075
G1 X50.02 Y78.096 E26.76271
G1 X49.495 Y73.401 E26.9984
G1 X15.245 Y73.401 E28.70714
G1 X15.244 Y73.401 E28.70719
G1 X15.022 Y73.401 E28.71827
G1 X15.046 Y73.622 E28.72524
G1 X16.142 Y83.394 E29.21582
G1 X17.592 Y93.532 E29.72675
G1 X18.53 Y98.899 E29.99857
G1 X53.268 Y98.899 E31.73166
G1 X53.269 Y98.899 E31.73171
G1 X53.514 Y98.899 E31.73919
G0 F3600 X53.591 Y98.962
G0 X87.997 Y97.412
G0 X87.92 Y97.349
G1 F1800 X87.87 Y97.109 E31.75142
G1 X86.21 Y89.172 E32.15597
G1 X84.857 Y81.487 E32.54527
G1 X83.689 Y73.401 E32.95287
G1 X50.519 Y73.401 E34.60773
G1 X50.518 Y73.401 E34.60778
G1 X50.296 Y73.401 E34.61885
G1 X50.321 Y73.622 E34.62581
G1 X50.815 Y77.991 E34.84517
G1 X52.073 Y86.748 E35.28655
G1 X53.611 Y95.459 E35.72786
G1 X54.007 Y97.349 E35.8242
G1 X87.674 Y97.349 E37.50386
G1 X87.675 Y97.349 E37.50391
G1 X87.92 Y97.349 E37.51139
G0 F3600 X87.997 Y97.412
G0 X121.195 Y96.36
G0 X121.117 Y96.299
G1 F1800 X121.058 Y96.053 E37.52401
G1 X119.51 Y89.672 E37.85159
G1 X118.124 Y83.026 E38.1903
G1 X116.947 Y76.347 E38.52865
G1 X116.521 Y73.401 E38.67715
G1 X84.727 Y73.401 E40.26336
G1 X84.726 Y73.401 E40.26341
G1 X84.497 Y73.401 E40.27484
G1 X84.529 Y73.628 E40.28197
G1 X85.647 Y81.37 E40.67222
G1 X86.997 Y89.031 E41.06032
G1 X88.516 Y96.299 E41.43076
G1 X120.863 Y96.299 E43.04456
G1 X120.865 Y96.299 E43.04466
G1 X121.117 Y96.299 E43.05229
G0 F3600 X121.195 Y96.36
G0 X118.363 Y80.061
G0 X117.254 Y73.336
G0 X117.329 Y73.401
G1 F1800 X117.361 Y73.628 E43.06373
G1 X117.737 Y76.23 E43.19489
G1 X118.911 Y82.885 E43.53203
G1 X120.293 Y89.499 E43.86914
G1 X121.698 Y95.299 E44.16687
G1 X150.44 Y95.299 E45.60081
G1 X154.4 Y108.091 E46.26889
G1 X154.4 Y109.999 E46.36408
G1 X173.488 Y109.999 E47.31638
G1 X173.488 Y110.971 E47.36488
G1 X155.026 Y110.971 E48.28595
G1 X141.036 Y109.625 E48.98714
G1 X140.165 Y109.399 E49.03203
G1 X15.538 Y109.399 E55.24969
G1 X14.963 Y109.321 E55.27864
G1 X14.481 Y109.193 E55.30352
G1 X13.997 Y109.008 E55.32938
G1 X13.553 Y108.781 E55.35425
G1 X13.114 Y108.496 E55.38037
G1 X12.72 Y108.177 E55.40566
G1 X12.361 Y107.818 E55.43099
G1 X12.05 Y107.432 E55.45572
G1 X11.762 Y106.989 E55.48208
G1 X11.535 Y106.538 E55.50727
G1 X11.353 Y106.06 E55.53279
G1 X11.223 Y105.565 E55.55832
G1 X10.84 Y103.732 E55.65174
G1 X9.065 Y93.665 E56.16174
G1 X7.61 Y83.558 E56.67117
G1 X6.53 Y73.946 E57.15374
G1 X6.513 Y73.407 E57.18064
G1 X6.567 Y72.984 E57.20192
G1 X6.672 Y72.594 E57.22207
G1 X6.833 Y72.216 E57.24256
G1 X7.048 Y71.857 E57.26344
G1 X7.28 Y71.567 E57.28197
G1 X7.571 Y71.289 E57.30205
G1 X8.134 Y70.928 E57.33541
G1 X8.646 Y70.719 E57.363
G1 X9.051 Y70.63 E57.38369
G1 X9.716 Y70.599 E57.4169
G1 X65.463 Y70.601 E60.19813
G1 X130.656 Y70.601 E63.45062
G1 X131.539 Y70.373 E63.49612
G1 X145.515 Y69.026 E64.19662
G1 X146.582 Y69.027 E64.24985
G1 X163.78 Y69.026 E65.10786
G1 X163.98 Y69.026 E65.11784
G1 X163.98 Y69.226 E65.1243
G1 X163.98 Y69.977 E65.16177
G1 X144.89 Y70.002 E66.11417
G1 X144.89 Y72.022 E66.21495
G1 X145.146 Y73.158 E66.27305
G1 X145.2 Y73.401 E66.28547
G1 X144.952 Y73.401 E66.29301
G1 X144.951 Y73.401 E66.29306
G1 X117.559 Y73.401 E67.65966
G1 X117.558 Y73.401 E67.65971
G1 X117.329 Y73.401 E67.66683
G0 F3600 X117.791 Y73.801
;TYPE:WALL-OUTER
G1 F1800 X117.823 Y74.028 E67.67827
G1 X118.132 Y76.167 E67.78609
G1 X119.304 Y82.809 E68.12258
G1 X120.683 Y89.411 E68.45906
G1 X122.013 Y94.899 E68.74079
G1 X150.735 Y94.899 E70.17373
G1 X154.8 Y108.031 E70.85956
G1 X154.8 Y109.599 E70.93779
G1 X173.888 Y109.599 E71.89009
G1 X173.888 Y111.371 E71.9785
G1 X155.009 Y111.371 E72.92038
G1 X140.967 Y110.02 E73.62417
G1 X140.114 Y109.799 E73.66813
G1 X15.515 Y109.799 E79.8844
G1 X14.885 Y109.714 E79.91611
G1 X14.353 Y109.572 E79.94359
G1 X13.836 Y109.375 E79.97119
G1 X13.347 Y109.125 E79.99859
G1 X12.88 Y108.822 E80.02636
G1 X12.457 Y108.479 E80.05353
G1 X12.063 Y108.084 E80.08136
G1 X11.721 Y107.661 E80.1085
G1 X11.418 Y107.194 E80.13628
G1 X11.168 Y106.698 E80.16399
G1 X10.971 Y106.181 E80.19159
G1 X10.832 Y105.652 E80.21888
G1 X10.448 Y103.814 E80.31256
G1 X8.671 Y93.734 E80.8232
G1 X7.212 Y83.603 E81.33386
G1 X6.131 Y73.979 E81.81702
G1 X6.112 Y73.389 E81.84647
G1 X6.173 Y72.909 E81.87061
G1 X6.294 Y72.461 E81.89376
G1 X6.476 Y72.034 E81.91692
G1 X6.718 Y71.63 E81.94041
G1 X6.987 Y71.294 E81.96189
G1 X7.322 Y70.973 E81.98503
G1 X7.95 Y70.57 E82.02226
G1 X8.526 Y70.336 E82.05328
G1 X8.999 Y70.232 E82.07744
G1 X9.697 Y70.199 E82.1123
G1 X65.463 Y70.201 E84.89448
G1 X130.605 Y70.201 E88.14443
G1 X131.47 Y69.978 E88.18899
G1 X145.498 Y68.626 E88.8921
G1 X146.582 Y68.627 E88.94618
G1 X164.18 Y68.626 E89.82414
G1 X164.38 Y68.626 E89.83412
G1 X164.38 Y68.826 E89.84058
G1 X164.38 Y70.376 E89.91791
G1 X145.29 Y70.401 E90.87032
G1 X145.29 Y71.978 E90.94899
G1 X145.646 Y73.558 E91.0298
G1 X145.7 Y73.801 E91.04222
G1 X145.452 Y73.801 E91.04976
G1 X145.451 Y73.801 E91.04981
G1 X118.021 Y73.801 E92.4183
G1 X118.02 Y73.801 E92.41835
G1 X117.791 Y73.801 E92.42547
G0 F3600 X117.818 Y73.999
G0 X117.325 Y74.069
G0 X121.148 Y96.323
G0 X120.608 Y95.899
G1 F1800 X120.549 Y95.653 E92.43809
G1 X119.121 Y89.766 E92.74031
G1 X117.732 Y83.108 E93.07963
G1 X116.553 Y76.416 E93.41864
G1 X116.175 Y73.801 E93.55046
G1 X85.189 Y73.801 E95.09636
G1 X85.188 Y73.801 E95.09641
G1 X84.959 Y73.801 E95.10783
G1 X84.991 Y74.028 E95.11496
G1 X86.042 Y81.307 E95.48188
G1 X87.39 Y88.955 E95.86932
G1 X88.841 Y95.899 E96.22324
G1 X120.354 Y95.899 E97.79543
G1 X120.356 Y95.899 E97.79553
G1 X120.608 Y95.899 E97.80316
G0 F3600 X120.562 Y95.704
G0 X121.047 Y95.587
G0 X87.428 Y97.449
G0 X87.428 Y96.949
G1 F1800 X87.378 Y96.709 E97.81539
G1 X85.818 Y89.254 E98.19538
G1 X84.463 Y81.556 E98.58534
G1 X83.343 Y73.801 E98.97625
G1 X50.967 Y73.801 E100.5915
G1 X50.966 Y73.801 E100.59155
G1 X50.744 Y73.801 E100.60262
G1 X50.769 Y74.022 E100.60958
G1 X51.212 Y77.94 E100.8063
G1 X52.468 Y86.685 E101.24707
G1 X54.004 Y95.383 E101.68773
G1 X54.332 Y96.949 E101.76755
G1 X87.182 Y96.949 E103.40644
G1 X87.183 Y96.949 E103.40649
G1 X87.428 Y96.949 E103.41398
G0 F3600 X87.388 Y96.754
G0 X87.876 Y96.653
G0 X53.022 Y98.999
G0 X53.022 Y98.499
G1 F1800 X52.972 Y98.259 E103.42621
G1 X52.478 Y95.901 E103.5464
G1 X50.889 Y86.934 E104.00074
G1 X49.622 Y78.14 E104.444
G1 X49.137 Y73.801 E104.66182
G1 X15.692 Y73.801 E106.3304
G1 X15.691 Y73.801 E106.33045
G1 X15.469 Y73.801 E106.34153
G1 X15.493 Y74.022 E106.3485
G1 X16.539 Y83.343 E106.81644
G1 X17.987 Y93.469 E107.32677
G1 X18.866 Y98.499 E107.58152
G1 X52.776 Y98.499 E109.2733
G1 X52.777 Y98.499 E109.27335
G1 X53.022 Y98.499 E109.28083
G0 F3600 X52.982 Y98.304
G0 X53.47 Y98.203
G0 X18.505 Y98.929
G0 X11.928 Y73.104
G0 X11.216 Y72.109
G0 X10.142 Y71.63
G0 X8.971 Y71.752
G0 X8.037 Y72.417
G0 X7.498 Y73.42
G0 X7.974 Y73.569
G1 F1800 X8.009 Y74.255 E109.3151
G1 X9.064 Y83.656 E109.78706
G1 X10.524 Y93.801 E110.29841
G1 X12.276 Y103.726 E110.80123
G1 X12.664 Y105.611 E110.89724
G1 X12.742 Y106.141 E110.92397
G1 X12.944 Y106.626 E110.95018
G1 X13.219 Y106.985 E110.97274
G1 X13.597 Y107.274 E110.99648
G1 X14.037 Y107.458 E111.02027
G1 X14.512 Y107.521 E111.04418
G1 X14.983 Y107.458 E111.06789
G1 X15.423 Y107.274 E111.09168
G1 X15.802 Y106.986 E111.11543
G1 X16.094 Y106.604 E111.13942
G1 X16.279 Y106.137 E111.16448
G1 X16.335 Y105.666 E111.18814
G1 X16.271 Y105.215 E111.21087
G1 X16.194 Y104.989 E111.22278
G1 X15.948 Y103.814 E111.28267
G1 X14.171 Y93.734 E111.79332
G1 X12.71 Y83.603 E112.30398
G1 X11.63 Y73.973 E112.78744
G1 X11.508 Y73.249 E112.82407
G1 X11.265 Y72.801 E112.8495
G1 X10.937 Y72.453 E112.87335
G1 X10.529 Y72.204 E112.8972
G1 X10.072 Y72.067 E112.921
G1 X9.593 Y72.053 E112.94491
G1 X9.129 Y72.166 E112.96874
G1 X8.711 Y72.391 E112.99242
G1 X8.377 Y72.7 E113.01512
G1 X8.121 Y73.102 E113.0389
G1 X7.974 Y73.569 E113.06332
G0 F3600 X7.984 Y73.769
G0 X7.177 Y73.468
;TYPE:SKIN
G1 F1800 X7.222 Y74.32 E113.10589
G1 X8.281 Y83.756 E113.57961
G1 X9.743 Y93.926 E114.09221
G1 X11.5 Y103.875 E114.59625
G1 X11.884 Y105.739 E114.69119
G1 X11.976 Y106.354 E114.72222
G1 X12.254 Y107.025 E114.75845
G1 X12.656 Y107.549 E114.7914
G1 X13.198 Y107.963 E114.82543
G1 X13.829 Y108.228 E114.85957
G1 X14.512 Y108.319 E114.89395
G1 X15.191 Y108.227 E114.92813
G1 X15.821 Y107.964 E114.96219
G1 X16.364 Y107.551 E114.99623
G1 X16.788 Y106.997 E115.03104
G1 X17.052 Y106.332 E115.06673
