;FLAVOR:Marlin
;TIME:5161
;Filament used: 4.21754m
;Layer height: 0.15
;MINX:11.14
;MINY:56.837
;MINZ:0.3
;MAXX:168.746
;MAXY:123.164
;MAXZ:7.35
;Generated with Cura_SteamEngine 4.1.0
M140 S60
M105
M190 S60
M104 S200
M105
M109 S200
M82 ;absolute extrusion mode
G28 ;Home
G1 Z15.0 F6000 ;Move the platform down 15mm
;Prime the extruder
G92 E0
G1 F200 E3
G92 E0
G92 E0
G92 E0
G1 F1500 E-6.5
;LAYER_COUNT:49
;LAYER:0
M107
G0 F3600 X13.441 Y63.381 Z0.3
;TYPE:SKIRT
G1 F1500 E0
G1 F1800 X13.935 Y63.275 E0.02521
G1 X14.268 Y63.248 E0.04187
G1 X14.588 Y63.239 E0.05785
G1 X14.678 Y63.238 E0.06234
G1 X33.685 Y63.238 E1.0106
G1 X34.383 Y63.248 E1.04543
G1 X34.886 Y63.295 E1.07063
G1 X35.138 Y63.35 E1.0835
G1 X37.71 Y64.015 E1.21604
G1 X40.41 Y64.638 E1.35428
G1 X43.079 Y65.171 E1.49007
G1 X45.766 Y65.631 E1.62607
G1 X48.457 Y66.014 E1.76168
G1 X51.23 Y66.328 E1.90091
G1 X53.911 Y66.557 E2.03515
G1 X56.661 Y66.711 E2.17256
G1 X60.774 Y66.799 E2.37781
G1 X96.764 Y66.8 E4.17336
G1 X99.561 Y66.76 E4.31291
G1 X102.278 Y66.645 E4.44859
G1 X105.024 Y66.45 E4.58593
G1 X107.73 Y66.182 E4.72159
G1 X110.453 Y65.834 E4.85855
G1 X113.154 Y65.409 E4.99496
G1 X115.862 Y64.906 E5.13237
G1 X118.51 Y64.336 E5.26751
G1 X121.15 Y63.689 E5.40312
G1 X123.83 Y62.952 E5.54179
G1 X126.453 Y62.149 E5.67864
G1 X129.048 Y61.274 E5.81527
G1 X131.584 Y60.338 E5.95014
G1 X134.159 Y59.304 E6.08857
G1 X136.657 Y58.217 E6.22449
G1 X137.392 Y57.878 E6.26487
G1 X137.446 Y57.854 E6.26782
G1 X138.207 Y57.52 E6.30928
G1 X138.282 Y57.488 E6.31335
G1 X138.879 Y57.244 E6.34552
G1 X139.589 Y57.045 E6.38231
G1 X140.353 Y56.924 E6.4209
G1 X140.461 Y56.909 E6.42634
G1 X140.994 Y56.843 E6.45314
G1 X141.722 Y56.837 E6.48946
G1 X142.5 Y56.919 E6.52849
G1 X142.599 Y56.931 E6.53346
G1 X143.154 Y57.007 E6.56141
G1 X143.834 Y57.177 E6.59638
G1 X144.16 Y57.298 E6.61373
G1 X144.263 Y57.338 E6.61924
G1 X144.494 Y57.433 E6.6317
G1 X144.548 Y57.456 E6.63463
G1 X145.211 Y57.743 E6.67067
G1 X145.288 Y57.778 E6.67489
G1 X146.547 Y58.363 E6.74415
G1 X149.051 Y59.484 E6.88103
G1 X151.59 Y60.538 E7.01818
G1 X154.135 Y61.506 E7.15402
G1 X156.737 Y62.415 E7.29153
G1 X159.33 Y63.241 E7.4273
G1 X161.961 Y63.996 E7.56386
G1 X164.327 Y64.608 E7.68578
G1 X165.2 Y64.823 E7.73064
G1 X165.68 Y64.982 E7.75587
G1 X166.129 Y65.214 E7.78108
G1 X166.535 Y65.515 E7.8063
G1 X166.89 Y65.876 E7.83156
G1 X167.182 Y66.288 E7.85675
G1 X167.407 Y66.741 E7.88198
G1 X167.525 Y67.094 E7.90055
G1 X167.843 Y68.269 E7.96128
G1 X167.86 Y68.334 E7.96464
G1 X167.993 Y68.869 E7.99214
G1 X168.62 Y71.153 E8.1103
G1 X168.732 Y71.884 E8.1472
G1 X168.744 Y72.214 E8.16367
G1 X168.746 Y72.33 E8.16946
G1 X168.746 Y107.341 E9.91617
G1 X168.736 Y108.039 E9.95099
G1 X168.689 Y108.542 E9.9762
G1 X168.623 Y108.836 E9.99123
G1 X168.333 Y109.898 E10.04615
G1 X168.317 Y109.954 E10.04906
G1 X168.24 Y110.218 E10.06278
G1 X167.541 Y112.877 E10.19995
G1 X167.374 Y113.355 E10.22521
G1 X167.134 Y113.8 E10.25043
G1 X166.827 Y114.201 E10.27563
G1 X166.461 Y114.55 E10.30086
G1 X166.044 Y114.836 E10.32608
G1 X165.588 Y115.053 E10.35128
G1 X165.294 Y115.15 E10.36672
G1 X164.919 Y115.253 E10.38613
G1 X164.835 Y115.274 E10.39045
G1 X162.894 Y115.751 E10.49016
G1 X160.268 Y116.477 E10.62609
G1 X157.642 Y117.283 E10.76313
G1 X155.038 Y118.164 E10.90028
G1 X152.504 Y119.102 E11.03509
G1 X149.916 Y120.144 E11.17428
G1 X147.419 Y121.232 E11.31016
G1 X145.542 Y122.112 E11.41359
G1 X145.502 Y122.131 E11.4158
G1 X145.024 Y122.347 E11.44197
G1 X144.935 Y122.386 E11.44681
G1 X144.608 Y122.522 E11.46448
G1 X144.557 Y122.542 E11.46722
G1 X143.943 Y122.785 E11.50016
G1 X143.243 Y122.974 E11.53633
G1 X142.501 Y123.086 E11.57377
G1 X142.399 Y123.1 E11.57891
G1 X141.867 Y123.163 E11.60564
G1 X141.129 Y123.164 E11.64246
G1 X140.295 Y123.069 E11.68433
G1 X140.194 Y123.056 E11.68941
G1 X139.722 Y122.987 E11.71321
G1 X139.01 Y122.798 E11.74996
G1 X138.336 Y122.532 E11.78611
G1 X138.244 Y122.493 E11.7911
G1 X137.727 Y122.27 E11.81919
G1 X137.687 Y122.253 E11.82136
G1 X135.063 Y121.079 E11.96477
G1 X132.519 Y120.025 E12.10216
G1 X129.979 Y119.06 E12.23772
G1 X127.402 Y118.16 E12.3739
G1 X124.802 Y117.336 E12.50997
G1 X122.162 Y116.579 E12.64699
G1 X119.515 Y115.9 E12.78332
G1 X116.792 Y115.283 E12.92262
G1 X114.159 Y114.767 E13.05648
G1 X111.467 Y114.316 E13.19265
G1 X108.724 Y113.935 E13.33082
G1 X106.001 Y113.637 E13.46748
G1 X103.318 Y113.418 E13.60178
G1 X100.536 Y113.271 E13.74077
G1 X96.794 Y113.199 E13.92749
G1 X70.316 Y113.2 E15.24848
G1 X67.519 Y113.24 E15.38804
G1 X64.802 Y113.355 E15.52371
G1 X62.06 Y113.549 E15.66086
G1 X59.348 Y113.819 E15.79683
G1 X56.62 Y114.168 E15.93404
G1 X53.931 Y114.59 E16.06983
G1 X51.226 Y115.093 E16.2071
G1 X48.573 Y115.665 E16.3425
G1 X45.533 Y116.415 E16.49871
G1 X44.673 Y116.642 E16.54309
G1 X43.974 Y116.746 E16.57835
G1 X43.73 Y116.755 E16.59053
G1 X43.615 Y116.757 E16.59627
G1 X42.679 Y116.758 E16.64296
G1 X42.676 Y116.758 E16.64311
G1 X24.564 Y116.759 E17.54672
G1 X24.517 Y116.759 E17.54907
G1 X23.833 Y116.749 E17.5832
G1 X23.33 Y116.701 E17.60841
G1 X22.84 Y116.575 E17.63365
G1 X22.377 Y116.374 E17.65883
G1 X21.95 Y116.102 E17.68409
G1 X21.572 Y115.766 E17.70932
G1 X21.252 Y115.375 E17.73453
G1 X20.997 Y114.938 E17.75977
G1 X20.814 Y114.467 E17.78498
G1 X20.73 Y114.115 E17.80303
G1 X20.651 Y113.675 E17.82534
G1 X20.627 Y113.52 E17.83316
G1 X20.386 Y111.658 E17.92683
G1 X19.956 Y108.939 E18.06417
G1 X19.455 Y106.269 E18.1997
G1 X18.878 Y103.606 E18.33564
G1 X18.22 Y100.937 E18.47278
G1 X17.496 Y98.321 E18.6082
G1 X17.039 Y96.8 E18.68744
G1 X16.509 Y95.087 E18.7769
G1 X16.495 Y95.041 E18.7793
G1 X16.075 Y93.608 E18.8538
G1 X16.062 Y93.56 E18.85628
G1 X14.909 Y89.388 E19.07222
G1 X14.895 Y89.338 E19.07481
G1 X14.502 Y87.82 E19.15304
G1 X14.49 Y87.77 E19.15561
G1 X13.508 Y83.708 E19.3641
G1 X13.497 Y83.661 E19.36651
G1 X13.162 Y82.178 E19.44236
G1 X13.151 Y82.127 E19.44496
G1 X12.3 Y78.051 E19.6527
G1 X12.291 Y78.007 E19.65494
G1 X11.602 Y74.457 E19.83535
G1 X11.519 Y74.074 E19.85491
G1 X11.512 Y74.04 E19.85664
G1 X11.224 Y72.64 E19.92795
G1 X11.159 Y72.067 E19.95672
G1 X11.15 Y71.667 E19.97668
G1 X11.149 Y71.554 E19.98232
G1 X11.158 Y70.878 E20.01604
G1 X11.14 Y68.658 E20.1268
G1 X11.14 Y68.616 E20.1289
G1 X11.148 Y67.106 E20.20424
G1 X11.148 Y67.076 E20.20573
G1 X11.158 Y66.4 E20.23946
G1 X11.206 Y65.896 E20.26472
G1 X11.332 Y65.407 E20.28991
G1 X11.533 Y64.943 E20.31514
G1 X11.806 Y64.517 E20.34038
G1 X12.141 Y64.139 E20.36558
G1 X12.533 Y63.819 E20.39083
G1 X12.969 Y63.564 E20.41603
G1 X13.441 Y63.381 E20.44128
G1 F1500 E13.94128
;MESH:Cs_Euro_Sortierkanal_rechts.stl
G0 F3600 X14.962 Y65.773
G0 X14.962 Y67.052
G0 X34.245 Y67.152
G0 X34.245 Y67.252
;TYPE:WALL-INNER
G1 F1500 E20.44128
G1 F1800 X14.948 Y67.251 E21.40401
G1 X14.948 Y67.038 E21.41464
G1 X34.245 Y67.038 E21.9285
G1 X34.872 Y67.252 E21.96155
G1 X34.245 Y67.252 E21.96959
G0 F3600 X34.245 Y67.152
G0 X50.552 Y73.767
G0 X56.9 Y94.358
G0 X56.819 Y94.3
G1 F1800 X56.728 Y94.036 E21.98352
G1 X55.214 Y89.638 E22.21558
G1 X53.799 Y85.108 E22.45235
G1 X52.523 Y80.528 E22.68955
G1 X51.394 Y75.925 E22.926
G1 X50.85 Y73.398 E23.05496
G1 X21.361 Y73.398 E24.52617
G1 X21.36 Y73.398 E24.52622
G1 X21.123 Y73.398 E24.53805
G1 X21.164 Y73.632 E24.54536
G1 X21.645 Y76.36 E24.68356
G1 X22.807 Y81.914 E24.96665
G1 X24.139 Y87.428 E25.24966
G1 X25.646 Y92.898 E25.53272
G1 X26.08 Y94.3 E25.60594
G1 X56.539 Y94.3 E27.12555
G1 X56.54 Y94.3 E27.1256
G1 X56.819 Y94.3 E27.13386
G0 F3600 X56.9 Y94.358
G0 X44.191 Y112.757
G0 X44.22 Y112.745
G1 F1800 X44.221 Y112.745 E27.13391
G1 X44.381 Y112.745 E27.14189
G1 X44.229 Y112.797 E27.14595
G1 X43.754 Y112.959 E27.17098
G1 X42.672 Y112.958 E27.22497
G1 X25.06 Y112.958 E28.10363
G1 X24.456 Y112.959 E28.13377
G1 X24.456 Y112.745 E28.14444
G1 X25.059 Y112.744 E28.16053
G1 X42.672 Y112.744 E28.63065
G1 X43.754 Y112.744 E28.6596
G1 X44.22 Y112.745 E28.67734
G0 F3600 X44.191 Y112.757
G0 X87.698 Y93.004
G0 X87.614 Y92.95
G1 F1800 X87.487 Y92.668 E28.69277
G1 X86.78 Y91.109 E28.77818
G1 X85.398 Y87.795 E28.95731
G1 X84.017 Y84.192 E29.14982
G1 X82.755 Y80.559 E29.34169
G1 X81.608 Y76.891 E29.53343
G1 X80.634 Y73.398 E29.71434
G1 X51.918 Y73.398 E31.14699
G1 X51.917 Y73.398 E31.14704
G1 X51.673 Y73.398 E31.15921
G1 X51.722 Y73.638 E31.1667
G1 X52.071 Y75.318 E31.25231
G1 X53.185 Y79.916 E31.48834
G1 X54.44 Y84.476 E31.7243
G1 X55.84 Y88.996 E31.96037
G1 X57.199 Y92.948 E32.16887
G1 X87.304 Y92.95 E33.67081
G1 X87.305 Y92.95 E33.67086
G1 X87.614 Y92.95 E33.67981
G0 F3600 X87.698 Y93.004
G0 X83.366 Y80
G0 X82.236 Y76.349
G0 X81.433 Y73.374
G0 X109.79 Y73.344
G0 X109.872 Y73.4
G1 F1800 X109.974 Y73.67 E33.69421
G1 X111.276 Y77.114 E33.8779
G1 X112.416 Y79.852 E34.02586
G1 X113.641 Y82.553 E34.17383
G1 X114.952 Y85.213 E34.32178
G1 X116.343 Y87.832 E34.46973
G1 X117.299 Y89.498 E34.56556
G1 X119.944 Y89.493 E34.69751
G1 X143.198 Y89.439 E35.85766
G1 X143.525 Y88.759 E35.89531
G1 X141.991 Y86.849 E36.01753
G1 X140.607 Y85.025 E36.13176
G1 X139.296 Y83.178 E36.24476
G1 X138.034 Y81.276 E36.35864
G1 X136.838 Y79.342 E36.47208
G1 X135.708 Y77.383 E36.58491
G1 X134.633 Y75.374 E36.69859
G1 X133.654 Y73.4 E36.80852
G1 X110.161 Y73.4 E37.98059
G1 X110.16 Y73.4 E37.98064
G1 X109.872 Y73.4 E37.9891
G0 F3600 X109.79 Y73.344
G0 X111.239 Y77.128
G0 X111.885 Y78.68
G0 X117.848 Y91.95
G0 X117.762 Y91.9
G1 F1800 X117.59 Y91.601 E38.00631
G1 X115.782 Y88.458 E38.1872
G1 X114.366 Y85.816 E38.33675
G1 X113.041 Y83.142 E38.48564
G1 X111.794 Y80.412 E38.63537
G1 X110.638 Y77.658 E38.78438
G1 X109.567 Y74.861 E38.93381
G1 X109.05 Y73.4 E39.01113
G1 X81.726 Y73.398 E40.37433
G1 X81.725 Y73.398 E40.37438
G1 X81.464 Y73.398 E40.3874
G1 X81.533 Y73.65 E40.39525
G1 X82.274 Y76.338 E40.53436
G1 X83.404 Y79.988 E40.72498
G1 X84.648 Y83.6 E40.91558
G1 X86.004 Y87.17 E41.1061
G1 X87.472 Y90.697 E41.29669
G1 X88.017 Y91.9 E41.36258
G1 X117.417 Y91.9 E42.82936
G1 X117.418 Y91.9 E42.82941
G1 X117.762 Y91.9 E42.83914
G0 F3600 X117.848 Y91.95
G0 X142.542 Y113.086
G0 X142.493 Y113.172
G1 F1800 X141.951 Y112.959 E42.86819
G1 X141.408 Y112.899 E42.89544
G1 X140.867 Y112.979 E42.92273
G1 X140.367 Y113.196 E42.94992
G1 X139.957 Y113.511 E42.97572
G1 X139.622 Y113.945 E43.00307
G1 X139.411 Y114.454 E43.03056
G1 X139.345 Y114.967 E43.05636
G1 X139.409 Y115.539 E43.08508
G1 X139.624 Y116.057 E43.11306
G1 X139.986 Y116.513 E43.14211
G1 X140.424 Y116.834 E43.1692
G1 X140.9 Y117.032 E43.19492
G1 X141.446 Y117.106 E43.22241
G1 X141.99 Y117.032 E43.2498
G1 X142.501 Y116.82 E43.2774
G1 X142.958 Y116.459 E43.30645
G1 X143.284 Y116.018 E43.33381
G1 X143.485 Y115.507 E43.36121
G1 X143.546 Y114.963 E43.38852
G1 X143.466 Y114.417 E43.41605
G1 X143.247 Y113.919 E43.44319
G1 X142.934 Y113.512 E43.46881
G1 X142.493 Y113.172 E43.49659
G0 F3600 X142.542 Y113.086
G0 X163.786 Y72.67
G0 X163.856 Y72.6
G1 F1800 X164.946 Y72.6 E43.55097
G1 X164.946 Y107.202 E45.27727
G1 X164.946 Y107.402 E45.28725
G1 X164.746 Y107.402 E45.29371
G1 X164.054 Y107.401 E45.32823
G1 X163.854 Y107.401 E45.33821
G1 X163.854 Y107.601 E45.34467
G1 X163.854 Y111.477 E45.53805
G1 X146.054 Y111.478 E46.42609
G1 X145.854 Y111.478 E46.43607
G1 X145.854 Y111.678 E46.44253
G1 X145.856 Y114.959 E46.60622
G1 X145.707 Y116.097 E46.66348
G1 X145.277 Y117.158 E46.7206
G1 X144.587 Y118.073 E46.77777
G1 X143.651 Y118.806 E46.83708
G1 X142.593 Y119.243 E46.89419
G1 X141.456 Y119.394 E46.95141
G1 X140.319 Y119.243 E47.00864
G1 X139.296 Y118.82 E47.06387
G1 X138.378 Y118.126 E47.12128
G1 X137.65 Y117.196 E47.1802
G1 X137.211 Y116.136 E47.23744
G1 X137.058 Y114.959 E47.29666
G1 X137.058 Y109.399 E47.57405
G1 X133.836 Y109.398 E47.73479
G1 X56.477 Y109.4 E51.59425
G1 X54.183 Y109.4 E51.7087
G1 X44.606 Y112.668 E52.21355
G1 X44.454 Y112.72 E52.22156
G1 X44.454 Y112.56 E52.2263
G1 X44.454 Y112.559 E52.22635
G1 X44.454 Y108.398 E52.43395
G1 X24.655 Y108.398 E53.42172
G1 X24.455 Y108.398 E53.4317
G1 X24.455 Y108.198 E53.43816
G1 X24.456 Y107.91 E53.45253
G1 X19.919 Y93.253 E54.218
G1 X18.363 Y87.618 E54.50965
G1 X17.024 Y82.087 E54.79357
G1 X15.858 Y76.501 E55.07826
G1 X15.437 Y74.122 E55.19879
G1 X14.956 Y71.973 E55.30866
G1 X14.948 Y71.935 E55.3106
G1 X14.948 Y71.598 E55.32741
G1 X14.987 Y71.598 E55.32924
G1 X34.946 Y71.598 E56.325
G1 X34.946 Y67.556 E56.52665
G1 X34.946 Y67.555 E56.5267
G1 X34.946 Y67.277 E56.54057
G1 X35.21 Y67.367 E56.54883
G1 X44.664 Y70.598 E57.04728
G1 X90.801 Y70.6 E59.34906
G1 X137.043 Y70.6 E61.65609
G1 X137.054 Y67.855 E61.79304
G1 X137.049 Y65 E61.93547
G1 X137.201 Y63.862 E61.99275
G1 X137.639 Y62.805 E62.04983
G1 X138.338 Y61.892 E62.1072
G1 X139.222 Y61.215 E62.16275
G1 X140.275 Y60.769 E62.2198
G1 X141.408 Y60.611 E62.27688
G1 X142.584 Y60.756 E62.33599
G1 X143.646 Y61.196 E62.39334
G1 X144.553 Y61.892 E62.45038
G1 X145.25 Y62.8 E62.50749
G1 X145.69 Y63.863 E62.56488
G1 X145.843 Y65.041 E62.62415
G1 X145.857 Y68.526 E62.79802
G1 X147.026 Y68.524 E62.85634
G1 X163.856 Y68.525 E63.69599
G1 X163.856 Y72.6 E63.89929
G0 F3600 X163.786 Y72.67
G0 X145.829 Y68.554
G0 X145.763 Y64.704
G0 X141.998 Y62.927
G0 X141.441 Y62.894
G1 F1800 X140.869 Y62.978 E63.92814
G1 X140.369 Y63.195 E63.95533
G1 X139.956 Y63.512 E63.9813
G1 X139.622 Y63.947 E64.00867
G1 X139.411 Y64.456 E64.03616
G1 X139.341 Y65 E64.06352
G1 X139.411 Y65.544 E64.09088
G1 X139.624 Y66.056 E64.11855
G1 X139.984 Y66.513 E64.14757
G1 X140.427 Y66.84 E64.17504
G1 X140.938 Y67.041 E64.20244
G1 X141.478 Y67.101 E64.22955
G1 X141.988 Y67.035 E64.2552
G1 X142.5 Y66.822 E64.28287
G1 X142.957 Y66.462 E64.31189
G1 X143.284 Y66.019 E64.33936
G1 X143.484 Y65.509 E64.36669
G1 X143.549 Y64.964 E64.39408
G1 X143.466 Y64.42 E64.42153
G1 X143.249 Y63.923 E64.44859
G1 X142.934 Y63.512 E64.47442
G1 X142.497 Y63.176 E64.50192
G1 X141.988 Y62.965 E64.52941
G1 X141.441 Y62.894 E64.55693
G0 F3600 X141.441 Y62.794
G0 X140.349 Y63.161
G0 X139.588 Y63.927
G0 X139.301 Y65
G0 X139.58 Y66.16
G0 X139.972 Y65.852
;TYPE:WALL-OUTER
G1 F1800 X140.265 Y66.223 E64.58052
G1 X140.622 Y66.487 E64.60267
G1 X141.035 Y66.649 E64.6248
G1 X141.474 Y66.698 E64.64684
G1 X141.884 Y66.645 E64.66746
G1 X142.296 Y66.474 E64.68972
G1 X142.667 Y66.181 E64.7133
G1 X142.931 Y65.824 E64.73546
G1 X143.093 Y65.411 E64.75759
G1 X143.145 Y64.971 E64.77969
G1 X143.078 Y64.532 E64.80185
G1 X142.902 Y64.127 E64.82388
G1 X142.649 Y63.797 E64.84463
G1 X142.295 Y63.525 E64.8669
G1 X141.884 Y63.355 E64.88909
G1 X141.444 Y63.298 E64.91122
G1 X140.979 Y63.366 E64.93467
G1 X140.573 Y63.542 E64.95675
G1 X140.241 Y63.797 E64.97763
G1 X139.971 Y64.149 E64.99976
G1 X139.801 Y64.56 E65.02195
G1 X139.744 Y65 E65.04409
G1 X139.801 Y65.44 E65.06622
G1 X139.972 Y65.852 E65.08848
G0 F3600 X140.096 Y66.009
G0 X139.704 Y66.317
G0 X140.408 Y66.875
G0 X145.829 Y68.554
G0 X163.756 Y72.2
G0 X164.256 Y72.2
G1 F1800 X165.346 Y72.2 E65.14286
G1 X165.346 Y107.602 E66.90907
G1 X165.346 Y107.802 E66.91905
G1 X165.146 Y107.802 E66.92551
G1 X164.454 Y107.801 E66.96003
G1 X164.254 Y107.801 E66.97001
G1 X164.254 Y108.001 E66.97647
G1 X164.254 Y111.877 E67.16985
G1 X146.454 Y111.878 E68.05789
G1 X146.254 Y111.878 E68.06787
G1 X146.254 Y112.078 E68.07433
G1 X146.256 Y114.988 E68.21951
G1 X146.097 Y116.199 E68.28045
G1 X145.629 Y117.356 E68.34271
G1 X144.873 Y118.357 E68.4053
G1 X143.854 Y119.155 E68.46987
G1 X142.697 Y119.633 E68.53232
G1 X141.456 Y119.798 E68.59478
G1 X140.215 Y119.633 E68.65724
G1 X139.098 Y119.171 E68.71755
G1 X138.094 Y118.412 E68.78034
G1 X137.301 Y117.399 E68.84452
G1 X136.821 Y116.24 E68.90711
