;FLAVOR:Marlin
;TIME:7222
;Filament used: 7.28699m
;Layer height: 0.15
;MINX:64.52
;MINY:82.021
;MINZ:0.3
;MAXX:115.48
;MAXY:97.98
;MAXZ:99.9
;Generated with Cura_SteamEngine 4.1.0
M140 S60
M105
M190 S60
M104 S200
M105
M109 S200
M82 ;absolute extrusion mode
G28 ;Home
G1 Z15.0 F6000 ;Move the platform down 15mm
;Prime the extruder
G92 E0
G1 F200 E3
G92 E0
G92 E0
G92 E0
G1 F1500 E-6.5
;LAYER_COUNT:665
;LAYER:0
M107
G0 F3600 X66.034 Y83.005 Z0.3
;TYPE:SKIRT
G1 F1500 E0
G1 F1800 X66.47 Y82.692 E0.02678
G1 X66.767 Y82.53 E0.04366
G1 X66.962 Y82.435 E0.05448
G1 X67.461 Y82.236 E0.08128
G1 X67.983 Y82.114 E0.10802
G1 X68.372 Y82.075 E0.12753
G1 X69.213 Y82.036 E0.16953
G1 X69.337 Y82.032 E0.17572
G1 X70.249 Y82.021 E0.22122
G1 X70.299 Y82.021 E0.22372
G1 X73.179 Y82.027 E0.3674
G1 X110.587 Y82.022 E2.23369
G1 X110.638 Y82.022 E2.23624
G1 X111.346 Y82.032 E2.27156
G1 X111.88 Y82.08 E2.29831
G1 X112.37 Y82.196 E2.32344
G1 X112.645 Y82.282 E2.33781
G1 X113.143 Y82.48 E2.36455
G1 X113.607 Y82.749 E2.39131
G1 X113.991 Y83.054 E2.41577
G1 X114.21 Y83.253 E2.43053
G1 X114.579 Y83.642 E2.45728
G1 X114.886 Y84.082 E2.48405
G1 X115.124 Y84.562 E2.51078
G1 X115.265 Y84.98 E2.53279
G1 X115.334 Y85.236 E2.54602
G1 X115.435 Y85.763 E2.57279
G1 X115.457 Y86.091 E2.58919
G1 X115.479 Y87.058 E2.63744
G1 X115.48 Y87.148 E2.64193
G1 X115.473 Y90.391 E2.80373
G1 X115.477 Y93.083 E2.93803
G1 X115.477 Y93.135 E2.94063
G1 X115.468 Y93.829 E2.97525
G1 X115.421 Y94.363 E3.002
G1 X115.318 Y94.809 E3.02484
G1 X115.232 Y95.098 E3.03988
G1 X115.042 Y95.599 E3.06661
G1 X114.778 Y96.066 E3.09337
G1 X114.441 Y96.498 E3.12071
G1 X114.242 Y96.716 E3.13544
G1 X113.852 Y97.084 E3.16219
G1 X113.411 Y97.39 E3.18897
G1 X112.93 Y97.627 E3.21572
G1 X112.517 Y97.766 E3.23746
G1 X112.264 Y97.834 E3.25053
G1 X111.738 Y97.934 E3.27724
G1 X111.41 Y97.956 E3.29364
G1 X110.378 Y97.979 E3.34514
G1 X110.291 Y97.98 E3.34948
G1 X106.821 Y97.973 E3.5226
G1 X69.413 Y97.978 E5.38889
G1 X69.362 Y97.978 E5.39144
G1 X68.654 Y97.968 E5.42676
G1 X68.12 Y97.92 E5.45351
G1 X67.628 Y97.803 E5.47874
G1 X67.341 Y97.713 E5.49375
G1 X66.842 Y97.515 E5.52053
G1 X66.379 Y97.245 E5.54727
G1 X65.95 Y96.898 E5.5748
G1 X65.743 Y96.703 E5.58899
G1 X65.381 Y96.308 E5.61572
G1 X65.082 Y95.862 E5.64251
G1 X64.852 Y95.378 E5.66924
G1 X64.735 Y95.02 E5.68803
G1 X64.666 Y94.764 E5.70126
G1 X64.565 Y94.237 E5.72803
G1 X64.543 Y93.906 E5.74458
G1 X64.521 Y92.9 E5.79478
G1 X64.52 Y92.813 E5.79912
G1 X64.527 Y89.609 E5.95897
G1 X64.523 Y86.899 E6.09418
G1 X64.523 Y86.846 E6.09682
G1 X64.532 Y86.17 E6.13055
G1 X64.579 Y85.636 E6.15729
G1 X64.635 Y85.362 E6.17124
G1 X64.707 Y85.068 E6.18635
G1 X64.873 Y84.558 E6.2131
G1 X65.113 Y84.078 E6.23988
G1 X65.51 Y83.537 E6.27336
G1 X65.65 Y83.379 E6.28389
G1 X66.034 Y83.005 E6.31063
G0 F3600 X66.313 Y83.293
G1 F1800 X66.942 Y82.889 E6.34793
G1 X67.137 Y82.794 E6.35875
G1 X67.608 Y82.609 E6.38399
G1 X68.102 Y82.501 E6.40922
G1 X68.391 Y82.474 E6.4237
G1 X69.232 Y82.435 E6.46571
G1 X69.341 Y82.432 E6.47115
G1 X70.253 Y82.421 E6.51665
G1 X70.299 Y82.421 E6.51894
G1 X73.179 Y82.427 E6.66263
G1 X110.587 Y82.422 E8.52892
G1 X110.632 Y82.422 E8.53117
G1 X111.34 Y82.432 E8.56649
G1 X111.844 Y82.479 E8.59175
G1 X112.25 Y82.578 E8.61259
G1 X112.525 Y82.664 E8.62697
G1 X112.994 Y82.852 E8.65218
G1 X113.428 Y83.112 E8.67742
G1 X113.722 Y83.35 E8.69629
G1 X113.941 Y83.549 E8.71105
G1 X114.287 Y83.917 E8.73625
G1 X114.571 Y84.336 E8.76151
G1 X114.785 Y84.793 E8.78668
G1 X114.879 Y85.084 E8.80194
G1 X114.948 Y85.34 E8.81517
G1 X115.04 Y85.837 E8.84038
G1 X115.057 Y86.1 E8.85353
G1 X115.079 Y87.067 E8.90179
G1 X115.08 Y87.147 E8.90578
G1 X115.073 Y90.39 E9.06757
G1 X115.077 Y93.083 E9.20193
G1 X115.077 Y93.129 E9.20422
G1 X115.068 Y93.823 E9.23885
G1 X115.021 Y94.327 E9.2641
G1 X114.935 Y94.695 E9.28296
G1 X114.849 Y94.984 E9.298
G1 X114.667 Y95.455 E9.32319
G1 X114.413 Y95.892 E9.34841
G1 X114.145 Y96.228 E9.36985
G1 X113.946 Y96.446 E9.38458
G1 X113.577 Y96.792 E9.40982
G1 X113.158 Y97.075 E9.43504
G1 X112.7 Y97.288 E9.46024
G1 X112.414 Y97.379 E9.47521
G1 X112.161 Y97.447 E9.48828
G1 X111.664 Y97.54 E9.51351
G1 X111.401 Y97.556 E9.52666
G1 X110.369 Y97.579 E9.57815
G1 X110.292 Y97.58 E9.582
G1 X106.822 Y97.573 E9.75512
G1 X69.413 Y97.578 E11.62146
G1 X69.368 Y97.578 E11.6237
G1 X68.66 Y97.568 E11.65903
G1 X68.156 Y97.521 E11.68428
G1 X67.747 Y97.421 E11.70529
G1 X67.46 Y97.331 E11.7203
G1 X66.992 Y97.142 E11.74548
G1 X66.558 Y96.882 E11.77072
G1 X66.224 Y96.607 E11.7923
G1 X66.017 Y96.412 E11.80649
G1 X65.677 Y96.038 E11.83171
G1 X65.401 Y95.614 E11.85695
G1 X65.121 Y94.916 E11.89447
G1 X65.052 Y94.66 E11.90769
G1 X64.96 Y94.163 E11.93291
G1 X64.943 Y93.897 E11.94621
G1 X64.921 Y92.891 E11.99641
G1 X64.92 Y92.814 E12.00025
G1 X64.927 Y89.61 E12.1601
G1 X64.923 Y86.899 E12.29535
G1 X64.923 Y86.851 E12.29775
G1 X64.932 Y86.175 E12.33148
G1 X65.024 Y85.457 E12.36759
G1 X65.096 Y85.163 E12.38269
G1 X65.255 Y84.683 E12.40792
G1 X65.487 Y84.234 E12.43313
G1 X65.809 Y83.802 E12.46001
G1 X65.949 Y83.644 E12.47055
G1 X66.313 Y83.293 E12.49577
G1 F1500 E5.99577
;MESH:4d6003d8-9e61-45e5-9582-d861e8fd15da.stl
G0 F3600 X72.961 Y84.962
G0 X72.959 Y86.247
G0 X111.173 Y90
G0 X111.273 Y90
;TYPE:WALL-INNER
G1 F1500 E12.49577
G1 F1800 X111.278 Y93.708 E12.68077
G1 X111.258 Y93.77 E12.68402
G1 X111.225 Y93.778 E12.68571
G1 X110.345 Y93.78 E12.72962
G1 X107.041 Y93.773 E12.89445
G1 X68.792 Y93.778 E14.8027
G1 X68.73 Y93.758 E14.80595
G1 X68.722 Y93.725 E14.80765
G1 X68.72 Y92.949 E14.84636
G1 X68.727 Y90 E14.99349
G1 X68.722 Y86.276 E15.17928
G1 X68.731 Y86.243 E15.18099
G1 X69.669 Y86.22 E15.2278
G1 X72.959 Y86.227 E15.39194
G1 X111.208 Y86.222 E17.30019
G1 X111.27 Y86.242 E17.30344
G1 X111.278 Y86.275 E17.30513
G1 X111.28 Y87.051 E17.34385
G1 X111.273 Y90 E17.49097
G0 F3600 X111.673 Y90
;TYPE:WALL-OUTER
G1 F1800 X111.678 Y93.769 E17.67901
G1 X111.61 Y93.984 E17.69026
G1 X111.472 Y94.13 E17.70028
G1 X111.276 Y94.178 E17.71035
G1 X110.345 Y94.18 E17.7568
G1 X107.04 Y94.173 E17.92169
G1 X68.731 Y94.178 E19.83293
G1 X68.516 Y94.11 E19.84418
G1 X68.37 Y93.972 E19.8542
G1 X68.322 Y93.776 E19.86427
G1 X68.32 Y92.948 E19.90558
G1 X68.327 Y90 E20.05266
G1 X68.322 Y86.227 E20.24089
G1 X68.378 Y86.01 E20.25207
G1 X68.464 Y85.915 E20.25847
G1 X68.612 Y85.846 E20.26661
G1 X69.66 Y85.82 E20.31891
G1 X72.96 Y85.827 E20.48355
G1 X111.269 Y85.822 E22.39479
G1 X111.484 Y85.89 E22.40604
G1 X111.63 Y86.028 E22.41607
G1 X111.678 Y86.224 E22.42614
G1 X111.68 Y87.052 E22.46744
G1 X111.673 Y90 E22.61452
G0 F3600 X111.673 Y90.2
G0 X110.883 Y90.001
;TYPE:SKIN
G1 F1800 X110.888 Y93.389 E22.78355
G1 X110.344 Y93.39 E22.81069
G1 X107.04 Y93.383 E22.97553
G1 X69.111 Y93.388 E24.86781
G1 X69.11 Y92.948 E24.88976
G1 X69.117 Y89.999 E25.03689
G1 X69.112 Y86.624 E25.20527
G1 X69.679 Y86.61 E25.23357
G1 X72.959 Y86.617 E25.39721
G1 X110.889 Y86.612 E27.28954
G1 X110.89 Y87.052 E27.31149
G1 X110.883 Y90.001 E27.45862
G0 F3600 X110.551 Y86.793
G1 F1800 X110.708 Y86.95 E27.4697
G0 F3600 X110.708 Y87.515
G1 F1800 X109.986 Y86.793 E27.52064
G0 F3600 X109.42 Y86.793
G1 F1800 X110.706 Y88.079 E27.61137
G0 F3600 X110.706 Y88.644
G1 F1800 X108.854 Y86.793 E27.74201
G0 F3600 X108.289 Y86.793
G1 F1800 X110.704 Y89.208 E27.9124
G0 F3600 X110.703 Y89.772
G1 F1800 X107.723 Y86.793 E28.12262
G0 F3600 X107.157 Y86.793
G1 F1800 X110.703 Y90.338 E28.37277
G0 F3600 X110.703 Y90.904
G1 F1800 X106.592 Y86.793 E28.66283
G0 F3600 X106.026 Y86.793
G1 F1800 X110.705 Y91.472 E28.99295
G0 F3600 X110.706 Y92.038
G1 F1800 X105.46 Y86.793 E29.36305
G0 F3600 X104.895 Y86.793
G1 F1800 X110.706 Y92.604 E29.77305
G0 F3600 X110.707 Y93.171
G1 F1800 X104.329 Y86.793 E30.22305
G0 F3600 X103.763 Y86.793
G1 F1800 X110.179 Y93.209 E30.67574
G0 F3600 X109.612 Y93.207
G1 F1800 X103.197 Y86.793 E31.12831
G0 F3600 X102.633 Y86.793
G1 F1800 X109.046 Y93.207 E31.58082
G0 F3600 X108.479 Y93.205
G1 F1800 X102.067 Y86.793 E32.03322
G0 F3600 X101.501 Y86.793
G1 F1800 X107.912 Y93.204 E32.48555
G0 F3600 X107.345 Y93.203
G1 F1800 X100.935 Y86.793 E32.93781
G0 F3600 X100.37 Y86.793
G1 F1800 X106.779 Y93.203 E33.39004
G0 F3600 X106.213 Y93.203
G1 F1800 X99.804 Y86.793 E33.84226
G0 F3600 X99.238 Y86.793
G1 F1800 X105.648 Y93.203 E34.29452
G0 F3600 X105.082 Y93.203
G1 F1800 X98.673 Y86.793 E34.74675
G0 F3600 X98.107 Y86.793
G1 F1800 X104.516 Y93.203 E35.19897
G0 F3600 X103.951 Y93.203
G1 F1800 X97.541 Y86.793 E35.65123
G0 F3600 X96.976 Y86.793
G1 F1800 X103.385 Y93.203 E36.10346
G0 F3600 X102.819 Y93.203
G1 F1800 X96.41 Y86.793 E36.55568
G0 F3600 X95.844 Y86.793
G1 F1800 X102.254 Y93.203 E37.00794
G0 F3600 X101.688 Y93.203
G1 F1800 X95.279 Y86.794 E37.46013
G0 F3600 X94.714 Y86.794
G1 F1800 X101.122 Y93.203 E37.91229
G0 F3600 X100.557 Y93.203
G1 F1800 X94.148 Y86.794 E38.36448
G0 F3600 X93.582 Y86.794
G1 F1800 X99.991 Y93.203 E38.81666
G0 F3600 X99.426 Y93.203
G1 F1800 X93.017 Y86.794 E39.26885
G0 F3600 X92.451 Y86.794
G1 F1800 X98.86 Y93.203 E39.72104
G0 F3600 X98.294 Y93.203
G1 F1800 X91.885 Y86.794 E40.17323
G0 F3600 X91.32 Y86.794
G1 F1800 X97.729 Y93.203 E40.62542
G0 F3600 X97.163 Y93.203
G1 F1800 X90.754 Y86.794 E41.07761
G0 F3600 X90.188 Y86.794
G1 F1800 X96.597 Y93.203 E41.5298
G0 F3600 X96.032 Y93.203
G1 F1800 X89.622 Y86.794 E41.98203
G0 F3600 X89.057 Y86.794
G1 F1800 X95.466 Y93.203 E42.43422
G0 F3600 X94.9 Y93.203
G1 F1800 X88.491 Y86.794 E42.88641
G0 F3600 X87.926 Y86.795
G1 F1800 X94.335 Y93.204 E43.3386
G0 F3600 X93.77 Y93.204
G1 F1800 X87.36 Y86.795 E43.79082
G0 F3600 X86.795 Y86.795
G1 F1800 X93.204 Y93.204 E44.24301
G0 F3600 X92.638 Y93.204
G1 F1800 X86.229 Y86.795 E44.6952
G0 F3600 X85.663 Y86.795
G1 F1800 X92.073 Y93.204 E45.14742
G0 F3600 X91.507 Y93.204
G1 F1800 X85.098 Y86.795 E45.59961
G0 F3600 X84.532 Y86.795
G1 F1800 X90.941 Y93.204 E46.0518
G0 F3600 X90.376 Y93.204
G1 F1800 X83.966 Y86.795 E46.50403
G0 F3600 X83.401 Y86.795
G1 F1800 X89.81 Y93.204 E46.95622
G0 F3600 X89.244 Y93.204
G1 F1800 X82.835 Y86.795 E47.40841
G0 F3600 X82.269 Y86.795
G1 F1800 X88.678 Y93.204 E47.8606
G0 F3600 X88.113 Y93.205
G1 F1800 X81.704 Y86.795 E48.31282
G0 F3600 X81.138 Y86.795
G1 F1800 X87.548 Y93.205 E48.76508
G0 F3600 X86.982 Y93.205
G1 F1800 X80.572 Y86.795 E49.21734
G0 F3600 X80.007 Y86.795
G1 F1800 X86.416 Y93.205 E49.66957
G0 F3600 X85.851 Y93.205
G1 F1800 X79.442 Y86.795 E50.12179
G0 F3600 X78.876 Y86.795
G1 F1800 X85.285 Y93.205 E50.57402
G0 F3600 X84.719 Y93.205
G1 F1800 X78.31 Y86.795 E51.02624
G0 F3600 X77.744 Y86.795
G1 F1800 X84.154 Y93.205 E51.4785
G0 F3600 X83.588 Y93.205
G1 F1800 X77.179 Y86.795 E51.93073
G0 F3600 X76.613 Y86.795
G1 F1800 X83.022 Y93.205 E52.38295
G0 F3600 X82.457 Y93.205
G1 F1800 X76.047 Y86.795 E52.83521
G0 F3600 X75.482 Y86.795
G1 F1800 X81.891 Y93.205 E53.28744
G0 F3600 X81.326 Y93.205
G1 F1800 X74.916 Y86.795 E53.7397
G0 F3600 X74.35 Y86.795
G1 F1800 X80.76 Y93.205 E54.19196
G0 F3600 X80.195 Y93.205
G1 F1800 X73.785 Y86.795 E54.64422
G0 F3600 X73.219 Y86.795
G1 F1800 X79.629 Y93.205 E55.09648
G0 F3600 X79.063 Y93.205
G1 F1800 X72.653 Y86.795 E55.54874
G0 F3600 X72.086 Y86.794
G1 F1800 X78.498 Y93.205 E56.0011
G0 F3600 X77.932 Y93.205
G1 F1800 X71.519 Y86.793 E56.45354
G0 F3600 X70.952 Y86.791
G1 F1800 X77.366 Y93.205 E56.90608
G0 F3600 X76.8 Y93.205
G1 F1800 X70.386 Y86.79 E57.35866
G0 F3600 X69.819 Y86.789
G1 F1800 X76.235 Y93.205 E57.81134
G0 F3600 X75.669 Y93.205
G1 F1800 X69.292 Y86.828 E58.26127
G0 F3600 X69.292 Y87.394
G1 F1800 X75.104 Y93.206 E58.67134
G0 F3600 X74.538 Y93.206
G1 F1800 X69.293 Y87.961 E59.04141
G0 F3600 X69.294 Y88.527
G1 F1800 X73.973 Y93.206 E59.37153
G0 F3600 X73.407 Y93.206
G1 F1800 X69.295 Y89.094 E59.66166
G0 F3600 X69.296 Y89.661
G1 F1800 X72.841 Y93.206 E59.91178
G0 F3600 X72.276 Y93.206
G1 F1800 X69.296 Y90.226 E60.12203
G0 F3600 X69.295 Y90.791
G1 F1800 X71.71 Y93.206 E60.29242
G0 F3600 X71.144 Y93.206
G1 F1800 X69.293 Y91.355 E60.42302
G0 F3600 X69.292 Y91.919
G1 F1800 X70.579 Y93.206 E60.51383
G0 F3600 X70.013 Y93.206
G1 F1800 X69.29 Y92.483 E60.56484
G0 F3600 X69.29 Y93.048
G1 F1800 X69.447 Y93.206 E60.57595
;MESH:NONMESH
G0 F3600 X107.042 Y93.674
G0 X107.041 Y94.069
;TIME_ELAPSED:47.627024
;LAYER:1
M140 S60
M106 S255
;MESH:4d6003d8-9e61-45e5-9582-d861e8fd15da.stl
G0 F5400 X107.041 Y94.069 Z0.45
;TYPE:WALL-INNER
G1 F3300 X71.65 Y94.071 E61.45878
G1 X68.751 Y94.066 E61.5311
G1 X68.602 Y94.041 E61.53487
G1 X68.548 Y94.011 E61.53641
G1 X68.489 Y93.941 E61.53869
G1 X68.443 Y93.819 E61.54194
G1 X68.428 Y91.17 E61.60803
G1 X68.434 Y86.257 E61.73058
G1 X68.46 Y86.118 E61.73411
G1 X68.558 Y85.987 E61.73819
G1 X68.628 Y85.951 E61.74015
G1 X68.744 Y85.934 E61.74308
G1 X71.648 Y85.928 E61.81552
G1 X72.959 Y85.931 E61.84822
G1 X111.249 Y85.934 E62.80337
G1 X111.398 Y85.959 E62.80714
G1 X111.436 Y85.98 E62.80822
G1 X111.546 Y86.13 E62.81286
G1 X111.566 Y86.25 E62.8159
G1 X111.572 Y88.83 E62.88025
G1 X111.566 Y93.749 E63.00296
G1 X111.541 Y93.898 E63.00673
G1 X111.511 Y93.952 E63.00827
G1 X111.441 Y94.011 E63.01055
G1 X111.319 Y94.057 E63.0138
G1 X108.35 Y94.072 E63.08787
G1 X107.041 Y94.069 E63.12052
G0 F5400 X107.04 Y94.469
;TYPE:WALL-OUTER
G1 F2100 X71.649 Y94.471 E64.00335
G1 X68.715 Y94.466 E64.07654
G1 X68.469 Y94.425 E64.08276
G1 X68.29 Y94.326 E64.08787
G1 X68.138 Y94.144 E64.09378
G1 X68.043 Y93.895 E64.10043
G1 X68.028 Y91.17 E64.16841
G1 X68.034 Y86.221 E64.29186
G1 X68.084 Y85.953 E64.29866
G1 X68.291 Y85.675 E64.30731
G1 X68.506 Y85.564 E64.31334
G1 X68.714 Y85.534 E64.31858
G1 X71.648 Y85.528 E64.39177
G1 X72.96 Y85.531 E64.4245
G1 X111.285 Y85.534 E65.38052
G1 X111.531 Y85.575 E65.38674
G1 X111.706 Y85.672 E65.39173
G1 X111.926 Y85.971 E65.40099
G1 X111.966 Y86.215 E65.40716
G1 X111.972 Y88.83 E65.47239
G1 X111.966 Y93.785 E65.596
G1 X111.925 Y94.031 E65.60222
G1 X111.826 Y94.21 E65.60732
G1 X111.644 Y94.362 E65.61324
G1 X111.395 Y94.457 E65.61988
G1 X108.351 Y94.472 E65.69582
G1 X107.04 Y94.469 E65.72852
G0 F5400 X106.84 Y94.469
G0 X107.041 Y93.679
;TYPE:SKIN
G1 F1800 X71.65 Y93.681 E66.61135
G1 X68.832 Y93.676 E66.68165
G1 X68.818 Y91.17 E66.74416
G1 X68.824 Y86.324 E66.86505
G1 X71.648 Y86.318 E66.93549
G1 X72.959 Y86.321 E66.96819
G1 X111.176 Y86.324 E67.92152
G1 X111.182 Y88.83 E67.98403
G1 X111.176 Y93.668 E68.10472
G1 X108.348 Y93.682 E68.17526
G1 X107.041 Y93.679 E68.20787
G0 F5400 X110.995 Y93.217
G1 F1800 X110.722 Y93.49 E68.2175
G0 F5400 X110.153 Y93.492
G1 F1800 X110.995 Y92.65 E68.2472
G0 F5400 X110.996 Y92.084
G1 F1800 X109.585 Y93.495 E68.29698
G0 F5400 X109.016 Y93.498
G1 F1800 X110.997 Y91.518 E68.36685
G0 F5400 X110.998 Y90.951
G1 F1800 X108.448 Y93.501 E68.4568
G0 F5400 X107.883 Y93.5
G1 F1800 X110.998 Y90.385 E68.56669
G0 F5400 X110.999 Y89.818
G1 F1800 X107.318 Y93.5 E68.69657
G0 F5400 X106.752 Y93.5
G1 F1800 X111 Y89.252 E68.84643
G0 F5400 X111 Y88.686
G1 F1800 X106.186 Y93.5 E69.01626
G0 F5400 X105.621 Y93.5
G1 F1800 X110.998 Y88.122 E69.20596
G0 F5400 X110.997 Y87.558
G1 F1800 X105.055 Y93.5 E69.41558
G0 F5400 X104.489 Y93.5
G1 F1800 X110.995 Y86.993 E69.64512
G0 F5400 X110.921 Y86.503
G1 F1800 X103.924 Y93.5 E69.89195
G0 F5400 X103.358 Y93.5
G1 F1800 X110.355 Y86.503 E70.13879
G0 F5400 X109.789 Y86.503
G1 F1800 X102.792 Y93.5 E70.38563
G0 F5400 X102.227 Y93.5
G1 F1800 X109.223 Y86.503 E70.63245
G0 F5400 X108.658 Y86.503
G1 F1800 X101.661 Y93.5 E70.87929
G0 F5400 X101.095 Y93.5
G1 F1800 X108.092 Y86.503 E71.12613
G0 F5400 X107.526 Y86.503
G1 F1800 X100.53 Y93.5 E71.37295
G0 F5400 X99.964 Y93.5
